xqsrdtd/agibot_x1_dof_lag/sim_data/20250922_161523/20250922_161523_joint_torque_data.csv
Time (s),left_hip_pitch_joint,left_hip_roll_joint,left_hip_yaw_joint,left_knee_pitch_joint,left_ankle_pitch_joint,left_ankle_roll_joint,left_shoulder_pitch_joint,left_shoulder_roll_joint,left_elbow_pitch_joint,right_hip_pitch_joint,right_hip_roll_joint,right_hip_yaw_joint,right_knee_pitch_joint,right_ankle_pitch_joint,right_ankle_roll_joint,right_shoulder_pitch_joint,right_shoulder_roll_joint,right_elbow_pitch_joint
0.0,-2.4404668881718546e-16,-4.569101053916318e-17,1.4237498812193983e-16,-1.650263597573118e-16,7.628826416523797e-17,7.474763146233446e-17,-2.7304429659910873e-17,1.052877964664664e-17,-1.0528856144915948e-16,2.8880534818667916e-16,4.8904637605545935e-17,-1.3088038798710134e-16,-2.0781263658509129e-16,4.911957697541893e-17,-2.5639602118486907e-17,-7.271600065882317e-18,1.253232039582484e-17,-7.199123651734224e-17
1.0,-4.332346645932944e-16,-6.35389282403401e-17,1.8198215418599566e-16,-2.75427950673278e-16,5.90557670380254e-17,9.555709764462008e-18,-5.407630046041152e-17,2.5429690288996387e-17,-1.923596362323134e-16,5.140543135958899e-16,1.0375225351804503e-16,-2.3816614931006737e-16,-3.676662924288752e-16,2.6770301991295686e-17,8.613602806669384e-18,-2.506372407495657e-17,2.0043430940823902e-17,-1.5959216093854253e-16
2.0,-4.781042883544063e-16,-6.633050378263048e-17,1.7460888825029078e-16,-3.323835099023435e-16,5.720587631876594e-17,5.4038924680391625e-17,-4.3208050666989504e-17,3.84514403038334e-17,-1.9195627572249665e-16,5.970804601847622e-16,1.196174960766037e-16,-2.215517872937125e-16,-4.741391861220857e-16,3.128672798559592e-17,-9.318912569035111e-18,-6.785630946862861e-17,3.352481510379077e-17,-2.453021913874224e-16
3.0,-6.150189546050302e-16,-8.491645048630527e-17,2.108062102825135e-16,-4.1174316598427643e-16,5.261486533239822e-17,1.963096111267125e-17,-6.471589686719357e-17,5.181118690111714e-17,-2.5456746411429505e-16,7.301330899020576e-16,1.5610769054360657e-16,-2.664123728524942e-16,-5.391302004616283e-16,-3.823445209472031e-18,6.38633399523682e-18,-2.6707508032016422e-17,3.7147747245832014e-17,-2.3342497291713747e-16
4.0,-6.324075487670526e-16,-8.558750361477223e-17,1.795925375251852e-16,-4.168887287876247e-16,4.3381325580577496e-17,4.215577353573686e-17,-6.476358936424875e-17,6.355167919974366e-17,-2.825122598709711e-16,7.88522591827973e-16,1.7201938439830985e-16,-2.5433069935337255e-16,-5.868387581164637e-16,8.755850830319078e-18,-2.16943035834707e-18,-3.787254596485687e-17,4.704441953697762e-17,-2.7213268748221267e-16
5.0,-6.956982557434972e-16,-9.320805127638706e-17,1.9663225721728117e-16,-4.577253258402775e-16,3.626075928436672e-17,2.980906219407352e-17,-5.38460587954109e-17,8.14112121874917e-17,-3.098675287286843e-16,8.436397358812382e-16,1.8898260137838037e-16,-2.1796649675342456e-16,-6.414941418408013e-16,5.014241799518805e-18,3.761896466887412e-18,-5.992960214281071e-17,5.860779923547226e-17,-3.3280692573514395e-16
6.0,-6.908757926124001e-16,-8.315163596641563e-17,1.5172100137104168e-16,-4.553466335375106e-16,2.4318958219145363e-17,3.952266248291192e-17,-4.812949225691627e-17,9.295450402712641e-17,-3.1651328896385106e-16,8.318861063524187e-16,2.0008229383137142e-16,-1.7393542486341436e-16,-6.529791824865347e-16,-5.3635219712222595e-18,-3.3967952011843942e-18,-5.46240430288125e-17,6.530966569744046e-17,-3.4086844400880445e-16
7.0,-7.352291718468568e-16,-9.185785779057838e-17,1.6138741643762854e-16,-5.051708868624541e-16,4.424640813942956e-17,3.427161855930905e-17,-6.928415220893427e-17,1.0809534107527099e-16,-3.908099989034179e-16,8.727963768808404e-16,2.1536079032922468e-16,-1.5582607587109448e-16,-7.097391269851854e-16,1.1125881789998979e-17,-3.366532929306182e-18,-4.408899526015411e-17,7.93693177200155e-17,-3.412106764377797e-16
8.0,-7.521015214822239e-16,-1.0377262771911847e-16,1.707501528046453e-16,-5.102905711192814e-16,2.748032117704856e-17,3.343541657150643e-17,-4.806404926942195e-17,1.1396131462990393e-16,-3.6555717267265965e-16,8.890700027463051e-16,2.2802120286412216e-16,-1.3958488013690745e-16,-7.14840162803062e-16,-1.0063033017845456e-17,-4.067374272150084e-18,-1.926400030664092e-18,8.451518735256852e-17,-2.7323431091014735e-16
9.0,16.32834792137146,-17.868043184280396,4.8408761620521545,-4.579811692237855,-7.2072261571884155,2.414933145046234,-1.2616635859012604,1.5666043758392336,0.5113931745290753,-4.731537401676177,4.214075356721878,-4.844706654548645,-14.908112287521362,-6.960808038711548,0.6191772222518921,1.0741700232028961,1.3843226432800293,0.331931188702583
10.0,15.332709623189617,-17.232067998487388,2.6655911918393422,-5.27547211136282,-1.6042472657572109,-0.6085579426342926,-1.2228748494983814,1.5985598663624918,0.4542481611415645,-5.824957944712707,3.956449722939098,-3.0910297361731187,-13.798926759304072,-2.228525456689848,0.26695353056739857,0.932900914626019,1.3037181573515855,0.2310996521399025
11.0,14.382677941763587,-16.66142520073966,1.6527252668163719,-5.057710250460056,-2.6567777834405595,1.836183874445661,-1.1652483833570426,1.6316960573998396,0.4051895210474672,-6.641894739520782,3.8116108298099918,-1.8445282636511862,-12.246880591463349,-2.9860672291622032,0.37407143593785963,0.8536027257163281,1.2166937148410444,0.17699007514750734
12.0,13.394657497232847,-16.21237593076021,0.48275904409035064,-5.067942119006512,-2.411336301474976,0.057193289582317064,-1.124954576224182,1.656841095120364,0.33256175119296527,-7.0203767395033285,3.746553382653776,-1.1312214929651327,-11.203624024004789,-2.6883068361858378,0.16662545125129413,0.7981593676203476,1.1456471216290425,0.10907996707399442
13.0,12.371900628040791,-15.81428196835742,0.01947314509554765,-5.0804634753535085,-2.425585683707662,1.4731545155570918,-1.0809713965935996,1.6831116853019115,0.26231893225195047,-7.196237364421068,3.7407948268993283,-0.6544921763649638,-10.330681193606738,-2.6333808986384097,0.25415784027131577,0.7618288830426435,1.075573475142961,0.053060128886398106
14.0,11.449839687456645,-15.4718732652591,-0.6053437641037869,-5.056937257431004,-2.3948638238745135,0.42457464972658165,-1.0359456362757355,1.7005745826686527,0.20760656500023122,-7.215307243261018,3.7531769227805145,-0.38089754559574107,-9.616584047620375,-2.545759380894146,0.13429474708409594,0.7411120996164493,1.0151869431990082,0.005765282431705321
15.0,10.558068238088541,-15.155468306424057,-0.8403253694313566,-5.028664505373024,-2.369581254307029,1.2453033881663318,-0.9879795957099724,1.7169451740738966,0.162247796506233,-7.151963444701127,3.7872104946579723,-0.19229388517828383,-9.00147102085344,-2.4801428858222208,0.19489366554788778,0.7292684929198918,0.9565752883332669,-0.030912278613954958
16.0,9.768169893908105,-14.86953554573811,-1.1847002304447365,-4.955054784064387,-2.344769352868081,0.6274247760466478,-0.93969577858163,1.72672068617152,0.13051227720617609,-7.023951054774307,3.8223239031487695,-0.08861617255695275,-8.466094278189406,-2.417336026882383,0.12371200156052914,0.725076811822539,0.9046932789968387,-0.05991993828048903
17.0,9.025977825186773,-14.598351928291837,-1.309064796757192,-4.867526504026579,-2.315905541206905,1.1018757204957241,-0.8911909519416981,1.734871743884811,0.10563275927291604,-6.864268910930294,3.8640668097128303,-0.012766823269658722,-7.986388656884731,-2.3621819436493134,0.1630097485893952,0.7246674000192687,0.8548480346175014,-0.08172970746033326
18.0,8.366705176635291,-14.345583440998514,-1.5004285822654353,-4.745623417717808,-2.287977199830987,0.7370371875371169,-0.8442089264303176,1.7383619779080108,0.0889931844500127,-6.677613551513242,3.9021973784661332,0.026092000918721325,-7.553978266058749,-2.309405424214584,0.11971578667214544,0.7275326535047071,0.8099056489088321,-0.09871601207539715
19.0,-7.4315696771941635,-5.0303097761195845,0.9242627446958949,-3.506486869755142,-2.7876676464983676,2.672384673260268,-1.619125344537648,2.5498984083278473,-0.3620539299972229,-3.019477308332621,3.1720997733414125,-2.6529282988732916,-2.116695514626782,-1.7209784611432069,1.8712040195296251,1.665146026948109,0.42620687531879975,-0.12061141100605738
20.0,-6.086269416873576,-4.9143582025041255,0.0864567991275278,-2.4946142485147957,-2.3811800854033685,0.18717555082649007,-1.429503122123267,2.444812371173793,0.055838019999106064,-3.2229099095957023,2.8872192150480362,-2.1206145624444126,-1.8708579021042606,-1.8198948772111616,-0.05461334350968183,1.5747650071520969,0.454755154141971,-0.17300970655439984
21.0,-5.199631832483626,-4.816522116609417,0.10665185396893495,-1.7622247557794153,-2.3309026135035857,2.1198879145583556,-1.3223170267644944,2.369486265515251,0.2784977394703976,-3.286236605127563,2.7171432881635686,-1.4540482165722386,-1.7522599677479977,-1.7601819421541545,1.344170243640782,1.5018393509107097,0.46684243247643364,-0.21855860258332394
22.0,-4.489459336235904,-4.767755568955917,-0.19470131542222457,-1.184797676605366,-2.2483265674028283,0.6508545693370578,-1.265245668502612,2.296346376343494,0.400774522885186,-3.1775271648317394,2.5761668512434213,-1.3191567864057197,-1.7267495146317664,-1.7313642949791057,0.22558447744626187,1.4485440606211244,0.48454956373015956,-0.26119555122331106
23.0,-4.01024619394191,-4.715405967105927,-0.05539298979412699,-0.7714849450525803,-2.180416115248077,1.7670568455175522,-1.2316354579885256,2.2384205932147236,0.4580136887310815,-3.0630343592050124,2.4858194583281463,-1.0285609465110674,-1.7108330567635708,-1.7126071813008794,1.0486744074790875,1.405046082702443,0.49163854590026723,-0.28931513863370484
24.0,-3.6051920418917796,-4.682732411220966,-0.14539689959662727,-0.42592351935142636,-2.1287525345233966,0.8992571718545399,-1.2121236864597182,2.180341424890906,0.48646722625932637,-2.889703775049444,2.4022188475155333,-1.0050913827697698,-1.7235638315506936,-1.6880456528462466,0.39575996839021044,1.3715825214689075,0.501670276779887,-0.3114968172439069
25.0,-3.3218947363895452,-4.6416712509460405,-0.00504937100090963,-0.16973027650970396,-2.0767430328827023,1.5421817507831292,-1.1980583790794928,2.1307158114547633,0.49357911558217404,-2.7404276894186452,2.3430979370193503,-0.8658693289376922,-1.7236733683406449,-1.671401806023571,0.87643178510368,1.3429207924875466,0.5050589863509743,-0.32303798196591593
26.0,-3.0744545977473243,-4.6082132897437305,-0.015678418843273256,0.050762968600147396,-2.035509331260986,1.0289150937345046,-1.1874589474283417,2.080900732868894,0.4935885731024425,-2.573942577478455,2.284769111479932,-0.8680249825850419,-1.7296840001912086,-1.64967020545547,0.49395120889288724,1.3192427107402562,0.5098957208500847,-0.3304594915758656
27.0,-2.8953923195498508,-4.566944124862908,0.09606515616919253,0.21949715103347867,-1.9932813026586125,1.3970314719414092,-1.1774301596097754,2.036205954550594,0.4866527093430329,-2.4330295846267314,2.239424438352657,-0.794876659561834,-1.7216289902129196,-1.6319511972408782,0.7725052349774317,1.2977550007789151,0.5105763578654066,-0.33154515267696394
28.0,-2.7361836529262895,-4.528290134866945,0.11210002825297405,0.3668364943049216,-1.9576851949363885,1.0921535181329487,-1.1679224574000915,1.9916578342499216,0.4788294113400038,-2.2898043214134542,2.1937332493599113,-0.7995191047922168,-1.7127705132174498,-1.610993394484007,0.5474719323159887,1.2786471152526875,0.511914983387231,-0.3304726133171023
29.0,-4.857584231400949,-0.9294185511553765,-1.5715808536606986,-2.6076837459389246,-2.788196576816298,1.875736318383228,-2.5829067362226517,1.4363834436116907,0.32438106997982086,-11.726169260720441,-2.8647342569059315,-2.294902005358076,-3.5680719796715463,-0.8308315983440577,2.36437407102759,2.3366287807221813,0.7559674443957184,-0.27945751754636505
30.0,-4.675918007435035,-1.0956819912507032,-1.0413394551137056,-2.3053836096679308,-2.256694411798061,1.0778235117365207,-2.44719554190109,1.3719951901800496,0.4623493468653914,-10.700516036639122,-2.9201947523924545,-2.593506439673737,-3.902735236946027,-1.4467237710375023,0.3529596448478096,2.2373301392607634,0.7893189470113816,-0.4789840839786329
31.0,-4.475701448736913,-1.1882846270919112,-0.5427901488411546,-1.929356101249482,-2.294669911274865,1.618661480296697,-2.3494021271421484,1.3241658551594786,0.5454095441990912,-9.915448702844005,-2.952439326716121,-2.3643219272655873,-4.179205489623198,-1.3526921609507268,1.8729578716599893,2.1776690720626695,0.802859140330891,-0.5835522223224447
32.0,-4.252902550148221,-1.2599367862842712,-0.3042941815277853,-1.5732240633673644,-2.229839429340081,1.1518203712158654,-2.280795840961364,1.2777771460912484,0.5941187201604923,-9.220017555933683,-3.000894435893207,-2.465214256845324,-4.363052630468684,-1.376124889260335,0.7049768603995861,2.14484240755223,0.8140150958997193,-0.6387232619471145
33.0,-4.0722477072312655,-1.2959140490416692,-0.04223120744536235,-1.2558801476812222,-2.1810920452182625,1.466388951749677,-2.227968034555739,1.241630948897254,0.6171516443279577,-8.675127343258564,-3.0302463101397548,-2.276539312548689,-4.459405694817441,-1.3742970640222447,1.5740682778882875,2.123779422896367,0.8143502632217149,-0.6595315622897733
34.0,-3.8977711115521103,-1.3239019153239902,0.08539157451636381,-0.9609154553906718,-2.135912065374363,1.188694451902565,-2.1860894360439844,1.2061160440384522,0.6275011842688519,-8.175629132531764,-3.0652431044830544,-2.2948476697314524,-4.5178395674110945,-1.3670350006986354,0.8945568320861157,2.109474149240696,0.8143939943383969,-0.6669953713568089
35.0,-3.7635490627048602,-1.3330109391912899,0.2371701175820422,-0.7051640512604207,-2.0895932575934744,1.3684707543876495,-2.1501331033228155,1.1767492683915735,0.6270912583728507,-7.765070951027707,-3.0860196708937204,-2.1567830837305326,-4.525313604115525,-1.3596430652888651,1.3893866397385346,2.097292554409627,0.8085277519128342,-0.6626733471027932
36.0,-3.642299064328649,-1.3383651076072893,0.3151957817025548,-0.47258994020717804,-2.0487777070343647,1.2008724031775375,-2.1184217375553858,1.1479509524645124,0.6223087641479559,-7.3837862654101505,-3.1080243120025286,-2.144644622471497,-4.511650260640455,-1.3468636281481716,0.9929443861630922,2.0860587376126047,0.8027086199152842,-0.6555125424292494
37.0,-3.551131383454237,-1.332924420204003,0.4093987389736471,-0.27110574911653984,-2.0075318313809554,1.3009287477706177,-2.088925410797393,1.1229815398554264,0.6132451469195666,-7.057780280315185,-3.1199563597685507,-2.0476321117161147,-4.468675826719822,-1.3344213189810392,1.2725309752261644,2.074311012751686,0.7935228811879504,-0.6443050132800707
38.0,-3.4717245336528286,-1.3252532569333946,0.4610567068129292,-0.08940365099254421,-1.9702812102480358,1.197761076900413,-2.0611452032313684,1.0985891874725655,0.6030568654320988,-6.752928074852587,-3.1313272122910085,-2.026229376450022,-4.41327104883397,-1.3190369486239595,1.0398039685537328,2.061966845206591,0.784392925697384,-0.6331232174668844
39.0,-2.6602163550572695,-7.868963037022606,-1.5051670104987243,-4.322378793609253,-6.9228466900699,2.0785245716800573,-3.6507484263596424,-0.034355128703118076,0.8416241138343636,-9.43817618654343,-8.20183940463361,-1.9521752099820322,0.13392311448419747,-3.235321577282007,2.5320601484019947,3.1854066992704886,2.055909275960266,-0.3735014386507146
40.0,-2.6588774744339068,-7.751030101974189,-1.5606186047948176,-4.315008732775868,-3.120980768780174,1.2219569671294557,-3.628044982001637,0.0022089748312050794,0.805744453886237,-8.364430973382124,-7.968915059364769,-2.7871779763271887,-0.8431559824581458,-1.4013197412634373,0.8677621742534187,3.136341424742224,1.9931144452042027,-0.4990688021562535
41.0,-2.505285132497379,-7.590707129391105,-1.4992104698190865,-3.6776362366494553,-3.752043148309408,1.839005651724238,-3.5546668209061103,0.034080578351649904,0.8363070264296951,-7.7188957206029105,-7.78899458493054,-2.865871870417176,-1.2071826248102608,-1.7936866287720141,2.1522530869311076,3.0898980374305234,1.92310379378532,-0.5581467382063556
42.0,-2.399091708933995,-7.453857481551807,-1.5206282623305691,-3.229768610315782,-3.5427475173794845,1.350935907115919,-3.4829461209263863,0.058898120825018996,0.8594181736021368,-7.156593610026318,-7.650109595338097,-3.1057935544150057,-1.5357084843898559,-1.7255950640512019,1.1795351807667904,3.0400176341018503,1.8616465688868034,-0.6039726097184039
43.0,-2.3453767386498594,-7.30571865408711,-1.413566706825614,-2.8258053560958283,-3.494605007130314,1.6961438981022532,-3.4108302005092472,0.08674567722392312,0.8744828422333499,-6.749070869932444,-7.512591981595723,-3.0259322286464716,-1.7423819499925415,-1.7398248508581977,1.9023520829386111,2.991088402630544,1.7966814904933803,-0.6262479846005877
44.0,-2.30213275581544,-7.166961113022826,-1.3786677226596415,-2.4624458794252098,-3.425646811456276,1.4057353021139982,-3.3426758209123957,0.11052164778789508,0.8832143914524165,-6.390885595480803,-7.393697587608819,-3.069486106746253,-1.8993947294743967,-1.7286263673853561,1.3339935653807724,2.943960603034611,1.7365034678978322,-0.6389121150691812
45.0,-2.2986106956032053,-7.021464752623269,-1.2744557625015385,-2.146100080025257,-3.3609453990165266,1.5972716628596944,-3.278164855669155,0.13637585911554728,0.8829843186823865,-6.1136744057732715,-7.27011754886948,-2.957539981922003,-2.0010788771382595,-1.718392617852062,1.7382131576653936,2.8984918542709224,1.6747497087241388,-0.6397823343058233
46.0,-2.30235826334223,-6.88108869152399,-1.2180910677797567,-1.8560296849043842,-3.302238668235076,1.4217766081444059,-3.2174729148760806,0.1596914943024288,0.8784135103899746,-5.863979330051694,-7.154775146848591,-2.9314403902079817,-2.0754263757055362,-1.7037156909302649,1.40437924785611,2.854676083522513,1.6163628974002497,-0.6362523397566096
47.0,-2.330426204799005,-6.736814750510422,-1.1262302634448833,-1.5989061398685411,-3.2430922542167826,1.5248203517938372,-3.1598591930635314,0.18388874903819252,0.8686902726693431,-5.661022639029828,-7.035149539868827,-2.8270064489072517,-2.1197571070923504,-1.687811543444436,1.627494105620162,2.812129374766973,1.5577660516781715,-0.6270003158483255
48.0,-2.362781738837816,-6.595788040459366,-1.0653653741890072,-1.3614530206853868,-3.1886567472265943,1.4164059112660516,-3.1050185812446527,0.20619454921853841,0.8569829613956133,-5.475351540455879,-6.91959680433483,-2.7781595149718106,-2.1485266929506093,-1.6701488221212974,1.4291015265877731,2.770669329904646,1.5018716369715708,-0.6161222773851975
49.0,-7.432136524388127,-6.839183865071275,-3.508855699110373,-2.814484137181375,-5.240016749390962,1.9596360827336152,-4.313768115252225,1.1163075338441557,0.850719586180867,-8.89537880604206,-7.324671717991532,-2.6791335242461587,1.6955501771928436,-1.261415754473564,2.0181576946557054,3.1230560510159338,1.033859011430398,-0.5481046455399097
50.0,-7.034068565369189,-6.840870352694266,-3.0575467061749806,-2.4598538228609064,-3.6295772500281283,1.4280956355673076,-4.177193132169227,1.0933828799073193,0.982844354546489,-8.037082197151358,-7.207911024682681,-2.9642507221588703,1.0033186317047524,-1.3028148810317752,1.314814688485117,3.0554942507075844,1.0186057718453267,-0.623288165056493
51.0,-6.615568589968048,-6.79127983513779,-2.655523576649899,-1.8884106719629568,-3.8302879789235442,1.7636918895508602,-4.060257821319686,1.0768291233374216,1.0774447996238952,-7.410997919239703,-7.1022484412428435,-2.9430778888452247,0.49595795042636004,-1.3309854540199346,1.8419994436695237,2.998898484169769,0.9945732196759378,-0.6530089317962493
52.0,-6.251709491597992,-6.728716019204486,-2.3981980303924426,-1.4251891977748397,-3.699151924333556,1.4649276943811032,-3.968509765383266,1.0626667748598582,1.1305531238161797,-6.905628120467648,-7.01119379587794,-2.9728624906198213,0.09841482835258641,-1.3448447986603829,1.4280851061762352,2.949246429015488,0.9696748796364474,-0.6623314900177797
53.0,-5.9564936859877715,-6.64365843892716,-2.130595362783822,-1.0199889491023129,-3.6318457172510508,1.6471410097597445,-3.891423189088595,1.054126497431959,1.1557781189693224,-6.519349137070909,-6.914797775003661,-2.871755460663163,-0.206030075819841,-1.3519540196202935,1.7178752931547563,2.903299185017069,0.9399917961675008,-0.6561274447730834
54.0,-5.7012353182044535,-6.551745818412188,-1.9476359423842768,-0.6629775947952474,-3.561236311492885,1.4699859205897905,-3.824612798331307,1.0465494093435064,1.164177797960139,-6.196977695497047,-6.822931422186528,-2.822854845439263,-0.44959772541074194,-1.3534774988775164,1.472247118477359,2.859344155614066,0.9104677749388459,-0.6440628790674332
55.0,-5.499730250112913,-6.447602805481391,-1.7584898959981754,-0.35720282489017663,-3.493284150209897,1.566014030172917,-3.7645072755487847,1.0421401422381504,1.159916661215913,-5.941254281402994,-6.724997270326198,-2.715227459862409,-0.6404283679353471,-1.3507175496511787,1.6288814889173326,2.816574481450631,0.8786866404036799,-0.626769636787107
56.0,-5.3292226682221875,-6.339806177543996,-1.6196163592610078,-0.08740999179427256,-3.4311092604225095,1.457931526487851,-3.7089117562855383,1.0380983438695055,1.1490094236028956,-5.7228977631598745,-6.628015794477271,-2.6473495055739695,-0.7949771418890266,-1.34525599155584,1.4808149212819264,2.7744419769178226,0.8474844525299838,-0.6084394305043617
57.0,-5.195589067295368,-6.22512986402476,-1.4800342221521454,0.14515934554239607,-3.3699261186404543,1.5049819824490953,-3.6563425673981476,1.0356756892751333,1.1330244865614,-5.5442172266890175,-6.526564442851547,-2.5529054709585113,-0.917523714177876,-1.3372252979628318,1.5624371535963775,2.732819986905117,0.8154648234256783,-0.5886263198543831
58.0,-5.0838683212812885,-6.108546894681984,-1.3716756645574406,0.35084713624799235,-3.3130128979369395,1.4364917773109438,-3.6058734782585526,1.0332446756764768,1.1148941644008519,-5.388878635451526,-6.425158612512385,-2.485713189448168,-1.0171436774460172,-1.3277542710400985,1.470720713925362,2.6915491380319407,0.7842590141882395,-0.5692690244183745
59.0,-1.0711223319380294,-4.531315696591755,-0.6234846932992791,1.4306891299692666,-5.775130492612128,0.08987307020518198,-3.873078325941647,2.25781184715326,0.84597517657019,-13.153194502947258,-4.223240124548252,2.134512831547799,-3.631241925478008,-6.26153630916117,1.7824784556787443,4.304747528684192,0.878318023362489,-0.7465980832673906
60.0,-1.933279578775949,-4.542355784908326,-0.0680523485976754,0.8399737274720493,-3.650705384531717,1.6006518367503586,-3.799848030259083,2.2343301904240453,0.7941000583531674,-11.850505312944602,-3.9296155988404893,0.8196659398495525,-4.747842136105634,-2.356612567074265,1.0854347804869047,4.174843193795711,0.8768148071455353,-0.995260080033908
61.0,-2.3460242806781975,-4.499687977112274,-0.13660349801874855,0.8490087218581079,-4.021262703535381,0.419454839814871,-3.701880369145325,2.200388043343273,0.8174691270096603,-11.156570166853614,-3.7544957135036707,0.28494216238126535,-4.841172515235443,-3.107520065922717,1.6560143654514636,4.097604779954009,0.8667092768517222,-1.0941362500629377
62.0,-2.691785673688277,-4.430977326208235,0.0003276703399060499,0.8143423044071261,-3.888571222484858,1.275699796040676,-3.608157770691666,2.1659901382365865,0.8407983232549321,-10.606310317125017,-3.6268166477063812,-0.13007079879799455,-4.942594847069119,-2.946233976936476,1.2560532688944699,4.025909573646752,0.8550302759573731,-1.1504170083491534
63.0,-2.9044590594745237,-4.362033805612351,-0.09731874765229331,0.86068660563115,-3.860291178863026,0.6197281516708846,-3.52088212711543,2.1286306424833215,0.864051564296868,-10.19422284415106,-3.5316154509034536,-0.2891934796051623,-4.931247862820091,-2.943368291860396,1.5564106629244878,3.963579580593839,0.8439871711864648,-1.1723101294122746
64.0,-3.09278791490956,-4.28205646360097,-0.06086489826490085,0.904372444612231,-3.798343121683873,1.091523882212091,-3.44151788586862,2.0923541350847024,0.8774292716076684,-9.85157946378753,-3.453437478157694,-0.4271171983283155,-4.876363820458879,-2.9066361230248523,1.3232922588408709,3.905409361565573,0.8315799150557441,-1.1756806564200142
65.0,-3.2216455625663727,-4.206883377957094,-0.1335974744307766,0.9740873048919649,-3.7503087260911414,0.7269694464605012,-3.3694864031286986,2.0552488824027466,0.8842960154688236,-9.561130316350845,-3.3861281485089068,-0.46070462556807446,-4.7915891602594245,-2.8696996251713847,1.4807121222247255,3.850694740738307,0.8200080630223008,-1.1674148444294998
66.0,-3.341704097813356,-4.127738066650112,-0.12356391480571133,1.0369798933336627,-3.693063696605349,0.9834072188717142,-3.3036704993070236,2.019257844953562,0.883322940927619,-9.300352271584519,-3.3245616809872063,-0.5021258904657162,-4.690278747135426,-2.8328632576510726,1.3434121073841596,3.7978096324800057,0.8078487951424691,-1.1523661154659413
67.0,-3.43004649288461,-4.052911199910516,-0.16761011518072833,1.1097275753341878,-3.6427935701802854,0.7793953042405874,-3.2429954386033537,1.9831596615417513,0.8779121742741588,-9.063578417831218,-3.2668129194910125,-0.49793605410114106,-4.579693719969207,-2.793347506057981,1.4234538438107989,3.746529753032487,0.7963251550830748,-1.133155018616669
68.0,-3.512825922011046,-3.9767955548751477,-0.16340227635023583,1.1756812840066466,-3.5881463952957855,0.9163603253917092,-3.18645930335946,1.9479526716128055,0.8681215547838337,-8.841625954531812,-3.211033558787334,-0.505108121902095,-4.464132883374891,-2.755263617439181,1.3406068681487757,3.696163955178817,0.7846052446965883,-1.1115606509003255
69.0,-8.053553605875477,-3.2649688987247805,-1.9674227556852895,1.1498314275497226,-3.2787016249599725,2.010900846123225,-3.241938080327065,1.844503024646285,0.9579316442806022,-5.767736860415594,2.300724492674003,0.7949441600767972,0.863346693423461,-3.376050076393434,1.4414487484768195,3.4305783061485022,0.5687358189279366,-1.0468729966662398
70.0,-7.475640526809235,-3.3305070746393755,-1.783136347611621,1.5010132657958373,-3.4625549998932783,0.713143667067579,-3.162813765635956,1.7724302117288264,1.0301839634445797,-5.3861169321554545,2.254286688429351,0.6921387378681576,0.47631588828393734,-2.5330713830040725,1.1875268104842869,3.358989543813732,0.5958406325548173,-1.039142155402848
71.0,-7.049465053056489,-3.346919948248022,-1.4003676158828242,1.7176606910198657,-3.3418893686850115,1.6400854021794808,-3.1070211919586272,1.7139457946839962,1.0579886973671486,-5.13563466201788,2.2229058732025364,0.6915659470793662,0.3083716203108082,-2.670125183548125,1.3639487498024176,3.3005408156132496,0.6100186336881122,-1.0068535982608047
72.0,-6.62809631227777,-3.365736647623625,-1.2826903768724933,1.9285882605640339,-3.299808113041606,0.9197852425817312,-3.0619728764228844,1.6560319554699472,1.0694916579945593,-4.906202270062769,2.1848101867704988,0.6624147241654095,0.14774593611866793,-2.6176220922375295,1.2114600648722327,3.243218065621584,0.625060429127039,-0.9760040635889244
73.0,-6.299821645620185,-3.3592252103266147,-1.0555014633372486,2.0734657569443247,-3.2326620676858964,1.423120837646917,-3.0238144287711846,1.6053127573234427,1.064628262784259,-4.72304471655972,2.1574920104917923,0.6728376397908828,0.02850462795027653,-2.598354880192762,1.308616223247273,3.1877075732395146,0.6338913486076803,-0.9414499280302129
74.0,-5.987807139046972,-3.353786253519453,-0.9722913723721736,2.2024217968316755,-3.1851003672832734,1.0233906695439883,-2.98923279902715,1.5554951317810048,1.0544829170667973,-4.557266685053673,2.1274964584183973,0.6641365896066123,-0.06920512774893695,-2.570476420256316,1.2137774611315661,3.132847489904595,0.6427300308116273,-0.9088556437929445
75.0,-5.736313318646769,-3.3337705802667914,-0.8313081849451098,2.288656852058063,-3.1286536403016916,1.2931341044455902,-2.956748044723826,1.5101476252559465,1.0380440484975075,-4.417795783989309,2.10448811547281,0.6748893710525949,-0.1446877829365456,-2.5428685039711105,1.2652767720154627,3.0787060377062927,0.6478407870857619,-0.8757401424257256
76.0,-5.500761876783293,-3.3138806612073957,-0.7705891943697916,2.3608312215934326,-3.0830818645480367,1.0695643502673677,-2.9252085708917432,1.4657954115263934,1.0205098838097713,-4.289607338230795,2.0806370566790187,0.6723821585224361,-0.20557598659056975,-2.5140774122180067,1.2046477651435232,3.0250200974498047,0.6526545868644678,-0.8445770628196474
77.0,-5.304173333690693,-3.28530009762233,-0.6808163063277226,2.40534472793738,-3.0331525758178195,1.2113459037686116,-2.894194096359397,1.4244085736211123,1.0007560906774267,-4.177546392882647,2.0612167370390786,0.6796823737508351,-0.25233829898853344,-2.4847783174653433,1.2295923495646859,2.9719671351082324,0.655109748561947,-0.8137309276433136
78.0,-5.120708062814982,-3.2563317186538163,-0.6365263696548573,2.4388828110906564,-2.989780419751084,1.0843996385288932,-2.863318180529408,1.3840365675967985,0.9812934624947396,-4.073067897263936,2.041705392367345,0.6782118437338176,-0.28926623847033106,-2.4550906374459167,1.18925196523749,2.9194509083479163,0.6571430128010292,-0.7844569754727293
79.0,1.0743076910953595,-1.8008167157000585,-2.13389030484821,1.4100602832503748,-4.742257374221484,-0.09397074508353764,-2.3589539542923497,1.118239990407924,0.9147427703146415,-2.3087617565087672,0.9972303175065753,3.7272318477673148,-0.9761446840888444,-8.643888803288672,1.853728917905753,4.105560018767587,1.127729706401466,-0.6630017296770292
80.0,0.32325042644072055,-1.8715664119879767,-1.170732972371134,0.7383332351821599,-3.2646279060791326,1.4135956272590922,-2.3287320926471926,1.1008765862490635,0.7829498073288844,-1.9523311426118273,1.177365241047655,2.785144545461386,-1.6759995673281751,-3.7037573190428272,0.9384710209211429,3.9040422910110664,1.125822856204941,-0.8716852800975072
81.0,-0.014831663809259377,-1.8735403405961524,-0.9581444785486881,0.5915203200069081,-3.532513864412155,0.22776535188919045,-2.2907868682986,1.0810688147713652,0.7184102362368154,-2.007259362907373,1.290450454771347,2.4230913181034484,-1.3916257741845164,-4.5466916538373905,1.6114720922797137,3.7913028333236696,1.1091346144438508,-0.9204911702161034
82.0,-0.28748082670051445,-1.8354164922212877,-0.6584098122222035,0.44659311002217983,-3.4358080792106405,1.0569040923062052,-2.250253459395025,1.0610331276997185,0.6737470968950559,-2.045302742396835,1.37225359710549,2.042939681308352,-1.2572184469086563,-4.318882864067195,1.12413147700049,3.691237605166604,1.0911297625319287,-0.9403983392028061
83.0,-0.4318815356205628,-1.795983804504322,-0.6310177727286979,0.39651861032157143,-3.4185167491345227,0.4201855170433706,-2.2090375879560553,1.0380545623391655,0.6454018391861531,-2.1084595809149036,1.432903957305382,1.8661877106494675,-1.0950184792769524,-4.279241475758143,1.4804932370500121,3.605882956323624,1.074077210851455,-0.9351726760913583
84.0,-0.5609676832782453,-1.7410681818838953,-0.521417684106463,0.3541489750187736,-3.3675031647344573,0.8648376263630573,-2.1679622729771015,1.015298741298734,0.622272857600452,-2.1599351729510055,1.4785426372223411,1.6720428782885897,-0.9467092850112919,-4.212640233605359,1.206283268302124,3.527044286159099,1.0564923048541042,-0.9192973043029289
85.0,-0.6358895730877845,-1.6916450050214071,-0.5313565207081825,0.346808386765848,-3.3316046528466536,0.5220148739049635,-2.1278148850412206,0.9910001693676509,0.6039055683523485,-2.201829923522821,1.5147102837471036,1.5753647371251491,-0.813059203135692,-4.146864354903164,1.3954131624629196,3.4534021059986197,1.0404204408646813,-0.8973752765362362
86.0,-0.7086356361380486,-1.6368572432784272,-0.4852027393857088,0.3386760480075077,-3.283825943268681,0.7574389915323432,-2.0886721055859594,0.9669209167881889,0.5864143408915685,-2.2270184156671977,1.5431254599268425,1.4643319125058754,-0.6925361608870144,-4.086978794541302,1.2388305321948079,3.3828398620432027,1.0245050774035243,-0.8726743888164656
87.0,-0.7547243320817206,-1.587012448374323,-0.4956023520962738,0.34606165253725507,-3.2439345795605794,0.5715220800403056,-2.050770499550821,0.942139672986581,0.570444421914154,-2.239543263882412,1.5665005399333973,1.4039099888130029,-0.5867225376790146,-4.024652401095885,1.3367639855830595,3.3151373999044282,1.0096986711479292,-0.846415835955834
88.0,-0.8001413282461394,-1.5354732693682296,-0.4726270125653822,0.3512772107897719,-3.1982227993874197,0.6941973596607018,-2.014001918137484,0.9175970386595926,0.5544923223555321,-2.238194947526086,1.5853333781996954,1.3349052077576697,-0.49224186684577576,-3.9670321829488717,1.245237275253357,3.249475975881868,0.9951819620927682,-0.8195574880232035
89.0,3.594607578681202,-1.8792691577075384,-0.2219776824964188,0.5763791211754894,-3.3951552102556564,0.08529498193951857,-1.4378986765694064,1.0153795524841627,0.4729421194876541,-1.2001607813464705,3.4349090577468213,2.9914022110652536,-0.22530813833655672,-6.124927428722627,1.6452310892929156,3.062679493112351,1.098847602998276,-0.8750032062431106
90.0,2.986596566095827,-1.8329848268472686,-0.04708200323996303,0.21192986174280204,-3.117400204817158,0.7658014365016751,-1.4262750459895495,1.0005015731280467,0.37500903759969884,-1.0306307408630069,3.524873905718672,2.532674486989074,-0.4168887780159847,-4.313746548392288,1.0963875801903602,3.000637658614985,1.079564742405732,-0.8610414718742081
91.0,2.578120200839036,-1.775674548655358,-0.11651130291338063,0.027846200561967294,-3.1518438415463015,0.24776190876672222,-1.4021545184276594,0.9820915351856054,0.32085157523839813,-1.0172572014003762,3.5823639799472993,2.355016358300124,-0.263631137016372,-4.560315501896056,1.485142693791016,2.954476516405072,1.0582608222953178,-0.8154234804097393
92.0,2.241371698488366,-1.709280422114181,-0.1122322537330529,-0.1193172172306296,-3.106885728845839,0.6112246465476281,-1.3703391506563896,0.9610300627752124,0.28799401624097637,-1.0034449078798264,3.61663835088574,2.165768985394953,-0.15883174008214573,-4.441447778999338,1.188900485510858,2.9017476216928264,1.0391429709476192,-0.7767047875991353
93.0,1.993373468032106,-1.6493932068683241,-0.19293497763849432,-0.20753907278874228,-3.0814195089460883,0.3364140702046243,-1.3361738700176442,0.9376380208488815,0.2675102683218576,-1.0023842914004106,3.638767123843909,2.0836052072453968,-0.049016115430906115,-4.382263515944262,1.3918065373695385,2.8482345330689585,1.0219387944383338,-0.7392456892357748
94.0,1.7806148764691776,-1.5875363035303285,-0.2185280794124811,-0.27533841064874887,-3.042425103070344,0.5277064832179958,-1.3015757443571072,0.913360487230994,0.25234978585332507,-0.9964292568560538,3.6498966292990467,1.986584151248446,0.053415408029099165,-4.318729201173687,1.2235855905377515,2.793247768402129,1.005835642309125,-0.7049723678974384
95.0,1.615059263875394,-1.5317504506204314,-0.2777496582685015,-0.3141690786753837,-3.009244280375487,0.3808790165886652,-1.267937338828224,0.8880980092900403,0.24039236423307692,-0.9876709252738873,3.6553719860491993,1.9400473795974116,0.14575340149363147,-4.253534010300415,1.328196507355175,2.73822644403322,0.9910316267289816,-0.6726756484275253
96.0,1.4703492543332526,-1.4764469518747738,-0.30175589080313303,-0.3421112224465399,-2.970162659698323,0.48007007822676373,-1.2355828858203606,0.8625783145097041,0.2294595976211598,-0.9715029186345472,3.6549651977741395,1.8820031074266308,0.23007238058139712,-4.19320297668127,1.2304411977228153,2.683186848240809,0.9769577531356521,-0.642393111572495
97.0,1.3534260189987215,-1.425463254676795,-0.33939840009153155,-0.35437299534128686,-2.9342814058063906,0.40068515473368715,-1.20481507656313,0.8367447854397161,0.21925580593899363,-0.9506030447729366,3.651395865078652,1.8494374231057247,0.3050043009770803,-4.131344589816122,1.2817754911911856,2.628819952501858,0.9636683919420279,-0.6133605096833845
98.0,1.250463601758781,-1.3755349777857968,-0.35600445876009124,-0.3603853567369568,-2.8955067449463705,0.45093805913641993,-1.1755316741243256,0.8109592358978102,0.20913211235871804,-0.923654503506592,3.644278862471619,1.809817522721679,0.37288218398063855,-4.072958059708091,1.2228645461577625,2.5750828823420013,0.9508484628085998,-0.5855413677893535
99.0,2.696429706721241,-1.311801532898254,-0.8888519347687378,-2.614454494654465,-4.269605860156731,0.7509512999742846,-0.7029910737369445,0.6413690236238376,0.30077678509685757,2.45447137508973,5.143209937124594,3.0224949232004366,1.8741132093599142,-5.601105934737353,1.3449562265576613,2.001469503615718,0.9886655536428983,-0.5523694717707223
100.0,2.7341302968355534,-1.2536197835893907,-0.9000519061016439,-2.5811764767075562,-3.2165093625721273,0.4156287259098723,-0.7254295397907837,0.6248064527763117,0.2237906306895046,2.370267367111314,5.166089615198869,2.7704248928075126,1.7756051927752372,-4.236651376568746,1.1406812017134276,1.9782673339173655,0.9691121862591667,-0.47136524497267107
101.0,2.762612702810527,-1.1854524382998255,-0.859584676549507,-2.4079356999066377,-3.3337696503014715,0.6397506839751663,-0.7241832010976723,0.6071347074343914,0.18124901177307412,2.239906009324459,5.178066791188595,2.636624632036105,1.896940456898318,-4.398550989721725,1.2688285241754245,1.9499311199312475,0.9480123964436222,-0.3999592548930202
102.0,2.768645745173996,-1.1326344123232692,-0.8368176315521865,-2.2832013791146144,-3.2573105903398627,0.46777697010715413,-0.7132036435295195,0.5863195979049491,0.15223443256979566,2.150451684550152,5.1776044639626155,2.506584112128159,1.9615771174259806,-4.294449102930615,1.162076750702424,1.908602293266103,0.9315043185488137,-0.3531840307458769
103.0,2.7470432389159525,-1.0783251927421178,-0.7800985706346051,-2.1758474341119443,-3.211899333801152,0.5812002596545862,-0.6969629999760993,0.5657274681444111,0.13015669822898768,2.07289300834176,5.173929657361332,2.421058647268106,2.021030315441487,-4.23766039953464,1.2259890860372114,1.8631716992144849,0.9152947523281676,-0.3156109076910213
104.0,2.721972456231613,-1.0296222014756737,-0.7475981064990105,-2.0765059122127347,-3.1664715979325226,0.48670211183506207,-0.6780374586857025,0.543990384596456,0.1132058116178675,2.0139595093541693,5.1630482452371185,2.338922488799962,2.068029809756334,-4.17592486133111,1.1616267098737327,1.8154032365740385,0.9009247124731843,-0.2853091776498976
105.0,2.68285238959307,-0.9797437681153229,-0.7022397713122164,-1.9896352993905215,-3.1197784795919166,0.5439020139645194,-0.6580748670208378,0.5227244243636293,0.09822962508534386,1.9646499104156625,5.1501867307314555,2.280331278638248,2.1059251564207258,-4.115649206619539,1.1920565817082758,1.767366723265754,0.8866323875870374,-0.2581704615819277
106.0,2.642976289581108,-0.9327365699880406,-0.6731990267597889,-1.907432934147359,-3.076462673299277,0.49083266219806143,-0.637724842861807,0.5010910014247649,0.08529274770561923,1.9270239653545413,5.132903958055412,2.223729568535361,2.13578838208256,-4.05756774509886,1.1511706529352397,1.7195560653495,0.873287727195154,-0.23376886034814237
107.0,2.5961449877343323,-0.885199361619589,-0.639455191696745,-1.833130226039982,-3.0321930829986554,0.5184520797987306,-0.6175439362617419,0.4799155597836977,0.07309940669273707,1.8960365752993926,5.114029993884736,2.180399201472624,2.158962964957333,-3.9998766536545514,1.1630661189017557,1.6726534729047637,0.8599936341300685,-0.21051254032791156
108.0,2.5494405253973698,-0.8394320697111923,-0.6156700553503422,-1.7625216946093385,-2.990120030990269,0.48761582529379033,-0.5976859486630146,0.45871689010675976,0.061932520923977136,1.8724813731612926,5.092188465635386,2.138564053406118,2.1765181779790748,-3.943969029637623,1.1353738781716793,1.6266892723409514,0.8472461528203448,-0.18849143584750117
109.0,7.401394392555886,0.9537984645287563,-1.8931416354015616,-3.842424584724051,-4.713037629790044,-0.6905713449906374,-0.5901519999804616,0.4639821718734929,-0.0076360041017563,2.542830750091353,3.4730168826260615,3.9334400615923966,1.7128058244513154,-7.787270448211327,1.2830659941941263,1.827722503924515,1.066538381972951,-0.10225454913448906
110.0,6.685584011551515,0.9191120938300312,-1.1073685974068894,-4.223253648527342,-3.339942714590677,0.7578880763915739,-0.5390628522608063,0.45179329052057504,-0.05794093557169183,2.7372295462329914,3.5976722434245434,3.308849142638228,1.3009668028907622,-4.696230654953926,1.0607422019235688,1.71976590053524,1.0497813499547215,-0.19183523679212117
111.0,6.324300856474617,0.9183341436055099,-0.9471711267919876,-4.165549009401376,-3.5598692354537897,-0.34836363919961155,-0.494199689658934,0.4361146978385415,-0.07552990436845808,2.7171150691511006,3.668999854152739,2.9630479530705345,1.4540201502893906,-5.139896400268931,1.1919636155072206,1.6658484199688104,1.0281711461958771,-0.19210490046817658
112.0,-0.1682383035998427,0.3857889038513711,5.941028139883244,-3.4815349098889827,-12.379272162344847,9.916572184767897,0.3166593760489036,0.2913595095435273,0.867002569806355,3.0601596590741647,3.5039627499323167,2.857760897546365,1.9162725042958957,-5.17686215110713,1.1032690915372299,1.5058422057935275,0.9719595119902116,-0.1507239368129517
113.0,-7.353520991039794,-0.13310141340322845,7.628794332520261,-4.646677382021807,-18.0,14.265665216555071,0.8872528844344276,0.1282645914354399,1.6620698449410032,3.262439888342511,3.18121050224247,2.7943941593083355,2.4252403828459728,-5.09195078298875,1.107800664015194,1.4959535073910262,0.9163357376051877,0.06894505787192085
114.0,-13.80249098698624,-0.7121739381225859,7.768856779930225,-7.072720283234215,-18.0,15.88820841192967,1.1652806576473997,-0.02772938436915373,2.1875204749424357,3.2644332536081446,2.7715435253899883,2.738597203999808,2.9111337747006996,-4.981876537317083,1.0574183796067773,1.5560817145185326,0.8690645939327211,0.34393918896756537
115.0,-18.544526956161477,-1.2259349736024205,6.687622269215573,-9.290807402989799,-18.0,15.506435316220559,1.1846474975897618,-0.16534181057404584,2.475381732840164,3.0565006078480668,2.316731934123854,2.686835703555496,3.3403375274362763,-4.862372880450955,1.0583720286255884,1.6516076881811355,0.8284245365748122,0.625110350564958
116.0,-21.741846019591605,-1.7113337353569715,5.7361306730153405,-11.430558579300534,-18.0,14.689447983215246,1.013461183987344,-0.2813233265328017,2.579327407463869,2.7053668786922396,1.8521856500840381,2.6112958258694925,3.6817794605368817,-4.744297291409664,1.0330871412542848,1.748663526922634,0.7950121514974371,0.8667385333285867
117.0,-23.627631814077375,-2.149768725920599,4.980326423925686,-13.422835244806414,-18.0,13.847463124667744,0.7191289955343914,-0.3779056761006512,2.5764171608774524,2.2610225919668503,1.3911685745551003,2.513519349639271,3.9337666909302933,-4.636285404606083,1.033904527504883,1.838529581593627,0.7670027751239026,1.0619245144980236
118.0,-24.466346999390957,-2.5317418269150567,4.312465276928009,-15.217660668284852,-18.0,13.082754826445031,0.3560258634681479,-0.4590951280153339,2.5245162573160282,1.771660926368055,0.9390284281415844,2.3906523671256714,4.101280192579594,-4.53939032568584,1.020625835568517,1.9155687450541334,0.7436815249726079,1.2090419311075404
119.0,-16.87046019638397,-7.097625880545462,0.7694050235714966,-23.68299260751011,-18.0,11.38850076098842,0.7246786972983958,-2.287928554613814,3.0599686868162053,7.5475338561656145,-4.822727514481821,5.653505597694997,6.268390890552979,-10.725746597699384,1.716614153972095,2.5459701999686555,1.847105029127022,1.3345588371271777
120.0,-16.493034887395243,-7.220207175945644,0.5240750980486553,-24.982169203306086,-18.0,11.511300367587419,0.11210263761560846,-2.2349327959533083,2.5937800942754614,6.962251217989387,-4.832594997379202,4.205686109404681,5.615108869455656,-5.689578623009712,0.941635774436731,2.583568161437129,1.7492049464826702,1.3668611535325281
121.0,-15.769738365667953,-7.278318548798194,-0.24440394309190872,-26.027614723853134,-18.0,11.176796886941979,-0.3786838089450457,-2.1897203538881107,2.3301707396317832,6.1420957266676535,-4.904402255981072,3.357336586747312,5.781033890224699,-6.3908617065469056,1.4918062888620214,2.626295999093331,1.6520685497892467,1.4206596679051215
122.0,-15.674719077742754,-6.9692682424621575,-1.2860166458742084,-26.904509905012368,-18.0,10.661393114003516,-1.1070264122903537,-1.9788993646013617,1.8204945247367614,10.774431699531847,-3.5384943881446183,4.973001456542463,4.641345088125798,-17.76232403701467,7.263344480820818,3.5113356539447254,1.3609254458461977,2.339658071023699
123.0,-15.1164685115205,-6.665415896564108,-2.1964058996269866,-27.557054587967237,-18.0,10.301924559421725,-1.6410939693147133,-1.8100634580747297,1.6243748692848923,16.580315862419834,-1.8902418504581435,3.467167064665942,0.2977486823127524,-18.0,11.585828215311256,4.158809417012785,1.1101123532225032,2.92415620698105
124.0,-14.052975664206148,-6.33826156661674,-3.0582213405936196,-27.98848542901662,-18.0,10.022349866623237,-1.9675220821492179,-1.6953778365687968,1.7217746043576874,21.20780492067575,-0.3779218814742302,-0.033081771134250815,-3.5792055303038106,-18.0,13.061227250566366,4.5345960918010615,0.8957950189865156,3.27321073310945
125.0,-12.6083022255885,-6.011232802281794,-3.826290101147242,-28.275621595458556,-18.0,9.802390543554099,-2.1198855662937195,-1.6369161696162349,2.0169573300554657,24.335927270167968,0.7430565626483228,-2.9477089699711616,-6.7501685276244,-18.0,13.591350235462826,4.632958979513251,0.7218029597762312,3.4181224796146648
126.0,-10.96261010800212,-5.695778355242577,-4.488676171235326,-28.485248276014943,-18.0,9.61855182364527,-2.1740875619174584,-1.618867690646351,2.3804348903196977,26.19413834954773,1.5086097170052795,-4.939667147054811,-9.31139221138723,-18.0,13.674890300857797,4.527150920637676,0.5800483707199202,3.4284840060532114
127.0,-9.253275085633474,-5.397835174261292,-5.042966580864739,-28.661258758116062,-18.0,9.455940101846808,-2.184430632068237,-1.6265908247089689,2.7297149740889406,27.0690382078638,1.9977738644960934,-6.126172221816931,-11.38731520144595,-18.0,13.487557880055043,4.28704614102052,0.4621060944063373,3.3617643782938185
128.0,-7.5682122501836275,-5.1198780911208175,-5.495804684237834,-28.830864251019992,-18.0,9.301277176794425,-2.182614717435268,-1.6492159416096899,3.023520722370786,27.210078354902514,2.2831077694710125,-6.685408839790343,-13.083136358593688,-18.0,13.129681970256524,3.96626672463891,0.36124848325230197,3.2579397395608964
129.0,5.488863285508291,0.3075051839241548,-11.11810446381368,-34.965527891214464,-18.0,9.162235003811189,-1.9726372782390782,-1.8790910941950412,3.675276834737061,27.64935190365146,5.810725775463382,-4.496600519536665,-15.177592057404121,-18.0,12.026756097175177,4.411687834520282,-0.24619412034688226,2.721175755189684
130.0,5.893348560786443,0.1887727391094266,-10.0868643711668,-35.844596334395455,-18.0,9.235171724413918,-1.9108335754877765,-1.9358051524375237,3.674392124610273,27.226855137987922,5.892546019880723,-4.247596718872797,-16.34243698903614,-18.0,11.640833791891303,3.8628050133244956,-0.27882737569808747,2.3988330951206542
131.0,6.5768309097816875,0.16188573695396524,-9.622787715885101,-36.38482180392554,-18.0,8.925231556447578,-1.8812755747754393,-1.9848184336825687,3.655181879466607,26.43459259079646,5.906662940777817,-3.846150033502852,-17.267655479497726,-18.0,11.159685690169004,3.3991511024154484,-0.31952738778471845,2.222507706962176
132.0,7.383311951807901,0.1723849922004097,-9.24265850246287,-36.76570574333908,-18.0,8.655897930867496,-1.8732987877681293,-2.0267546293896754,3.611662820422197,25.407996585737557,5.877113742690481,-3.307056472682879,-18.014842505661925,-18.0,10.671475840223305,2.989131444454188,-0.363985539992826,2.1260233161737867
133.0,8.220499802191718,0.20494563973505497,-8.899414285835947,-37.04299971691002,-18.0,8.451023234957393,-1.879442283964531,-2.0619821764809565,3.5484698237712022,24.244994007625845,5.824268360989559,-2.6891266460834995,-18.625451841870788,-18.0,10.201002552897968,2.620587526136392,-0.41069256946463994,2.077678853658928
134.0,9.032344931477255,0.2507017648485581,-8.5854460187706,-37.25154421469352,-18.0,8.294355155505036,-1.8942847428429892,-2.0909901804439244,3.4710077709381717,23.01453038362256,5.762692011822759,-2.039451169040717,-19.129116096770964,-18.0,9.759443178960293,2.2867008936961915,-0.458739139845997,2.058868478432121
135.0,9.787448651234223,0.30354763797930717,-8.294194071346999,-37.41617338115348,-18.0,8.171468240428794,-1.9139790665939258,-2.1143477474627965,3.3841446558413857,21.764424498479755,5.702217098813595,-1.3906709325552935,-19.547910448040582,-18.0,9.352352650985903,1.9830841800801968,-0.5074804895487124,2.058228646652127
136.0,10.47092589667714,0.3594193437468036,-8.019663094327244,-37.553948977144806,-18.0,8.072413619730485,-1.9358799964335267,-2.132652912377212,3.2919894337681894,20.527389972775378,5.649160580498797,-0.7640881243784019,-19.898953502488784,-18.0,8.981943083687893,1.706646105580453,-0.5564331247457588,2.068758200033785
137.0,11.07840573099098,0.41578321447137,-7.7574542183218504,-37.675985380508244,-18.0,7.9906085455113995,-1.9582261716215472,-2.146500528261118,3.1978676088131297,19.32539814651415,5.607309694310523,-0.17274332991493146,-20.195993087913344,-18.0,8.648273612730666,1.4549813804091167,-0.6052183295540496,2.0860909174788445
138.0,11.611852431828929,0.4711657666096979,-7.504880580515842,-37.78913582304409,-18.0,7.921736107380798,-1.9798692357833887,-2.1564728460529112,3.104390637833373,18.172534267449727,5.578579382089263,0.3761113263643523,-20.45043792183356,-18.0,8.349658162443893,1.2259907414594586,-0.6535181289361773,2.107399692660886
139.0,23.000444988341066,2.2571691411509294,0.9563693775656472,-36.88183228912747,-18.0,7.275935621441109,0.6779736832679415,-3.2853848981710336,2.499388326885538,14.210293802792583,7.387305785373199,3.5157581650694087,-21.22324045392858,-18.0,7.373438921220625,-2.6303303706362797,-3.100276097584418,2.3989699711065615
140.0,22.346818272346162,2.511866671796512,0.4564555312770038,-37.49801371204731,-18.0,6.725947302844451,0.3796795913562956,-3.2100491490961236,2.0287750908419477,13.597554244679786,7.5477877246890674,3.6349195381687025,-21.699681183010135,-18.0,7.144261526582387,-2.5113049841031696,-3.1319901464302715,2.686980898796369
141.0,21.906512975917842,2.725282261049343,0.3418222964018156,-38.042609834701466,-18.0,6.615046546229763,0.18990888123033864,-3.151411506796409,1.7473000379996464,12.90332563772998,7.661484895187914,3.838826621684113,-22.044543868423766,-18.0,6.956398480813669,-2.4625825874125584,-3.1506844406437646,2.8606322383654534
142.0,21.60762225791844,2.9269373193109782,0.25160474059132865,-38.475769827503264,-18.0,6.562727109013637,0.06346485648703318,-3.103160672997249,1.580317424629897,12.181954505117606,7.748492320149021,4.0686421387380065,-22.297401611439355,-18.0,6.787931660120819,-2.450960638742218,-3.160990587324517,2.965965984397143
143.0,21.397645234178515,3.118410467212178,0.16391722779301432,-38.82528783006711,-18.0,6.530840706895098,-0.026193298758200895,-3.0615200097647026,1.4796043245487946,11.475310812523603,7.822970720619073,4.305633768016485,-22.486678336358196,-18.0,6.647800662178209,-2.459079912327456,-3.165254755597834,3.027639883363416
144.0,21.24289009667128,3.2993965164404413,0.0818286992088173,-39.114293623400116,-18.0,6.5115083772709355,-0.09410423141501031,-3.0243158894777498,1.4173575120083084,10.80865651301958,7.893880458510004,4.533214673237802,-22.634735142571664,-18.0,6.534025892651034,-2.476779391862981,-3.1649059734879024,3.060941351238398
145.0,21.12246811547808,3.4698203061087187,0.008400070715720798,-39.35878201448624,-18.0,6.5008134963857405,-0.1486210674268419,-2.9903390802852066,1.3779808582447775,10.19468535045866,7.965936973410137,4.742081140557352,-22.7581312690304,-18.0,6.442411413560519,-2.498225621268958,-3.1608552601797397,3.07561926056013
146.0,21.023621658955417,3.6299374236124384,-0.05477741528734015,-39.56972812362381,-18.0,6.496176162177329,-0.19439709084918178,-2.9589152901186333,1.3527327512920888,9.638024566770714,8.041199322841074,4.928616664598409,-22.868574985074137,-18.0,6.36893836361128,-2.5201545890957098,-3.153720644464147,3.07802632400856
147.0,20.938652972062318,3.78024736350933,-0.10723214396465819,-39.75477126822791,-18.0,6.495807850941631,-0.2340767748283755,-2.92965626805248,1.33665027482194,9.13843314653083,8.120215330415952,5.09260054812055,-22.974004283180278,-18.0,6.310116748759542,-2.5408149112150094,-3.1439526950395544,3.07238150486919
148.0,20.862974662212697,3.921399152008406,-0.14922063334023772,-39.919332811900105,-18.0,6.4984436193378095,-0.2692217809457952,-2.9023227723093186,1.3268399884772222,8.692897042975442,8.202728135096496,5.235633887964139,-23.07953563291102,-18.0,6.263000661469348,-2.559342038335598,-3.1319029804679115,3.061528194898554
149.0,20.607399960163853,17.2275675677677,-0.3186266742233932,-43.90065380975291,-18.0,8.238421963892598,-0.9349569441305745,-2.0811630160325363,0.9776509103819455,2.391796136569222,13.84522424306398,6.141780904924946,-25.756472884702426,-18.0,4.936670616167491,-3.108263085885989,-4.938379288017215,2.72704071271135
150.0,20.730007951097072,16.91082230337738,-0.35853299799260885,-43.827984219208176,-18.0,7.202441017553418,-0.6987910265083126,-2.189129286727887,1.309841379634285,2.6182059369020907,13.577770349098806,6.8937626366610285,-25.897748732988433,-18.0,5.533712320964348,-3.233194814694146,-4.787282982314919,2.574221003857971
151.0,20.91286616543306,16.595218418556524,0.1848178511556382,-43.87662290350613,-18.0,7.044183269836543,-0.5842589346529935,-2.272500142490959,1.4560287312834472,2.891893045721506,13.424773258917552,7.061953116447446,-26.047980906935962,-18.0,5.572957620312917,-3.286427928519457,-4.652131474714054,2.5064314559475984
152.0,21.133371361423347,16.322399190000855,0.6479331927326863,-43.895923873279095,-18.0,6.972746425125493,-0.5273464500918172,-2.3420040575343464,1.5235329298114326,3.1306945530623334,13.295784507017759,7.178340250701631,-26.1786544892308,-18.0,5.558770810855899,-3.303482782464352,-4.5287161719501245,2.4858347675995462
153.0,21.3643413470239,16.08375607482349,1.0186331410275562,-43.89413618329549,-18.0,6.92216156296892,-0.5028378915114302,-2.4015119593051413,1.5491929555723976,3.339871351287714,13.180781065691768,7.290011549178716,-26.296030753122885,-18.0,5.546878065633632,-3.300716537829146,-4.414498914906648,2.4888917055950643
154.0,21.58953456458628,15.871144454006698,1.3199718912975884,-43.88304623349681,-18.0,6.882750762114828,-0.49708827091426394,-2.4532195301362862,1.552183072219829,3.528000971869487,13.078141599274591,7.39495660520802,-26.40586958738586,-18.0,5.541419050035399,-3.2867967422005506,-4.307883713210776,2.5027700494776965
155.0,21.80068867205088,15.678983371998356,1.5695583684739973,-43.86971375738195,-18.0,6.850739792289659,-0.5021201352518977,-2.498589324624657,1.5434945286966804,3.7004570063880484,12.986818594389122,7.4896419732760355,-26.511528789007635,-18.0,5.541117239200058,-3.2666256526239232,-4.20777592383143,2.5205873834662524
156.0,21.994308013844982,15.503456960227423,1.7794293034031883,-43.85788346059786,-18.0,6.823883576521423,-0.5132173728594738,-2.5386578028886437,1.5294622456537215,3.8602252260305843,12.905669208471153,7.572681884974297,-26.614760364055122,-18.0,5.544505029211168,-3.2430320347511907,-4.113377057823772,2.5387589208592436
157.0,22.169567121425736,15.341873076248161,1.957870939070622,-43.84932307545175,-18.0,6.8007324347780775,-0.5276016937940228,-2.5741912844969272,1.5136677521338742,4.00890161673024,12.83351119931579,7.644174104389765,-26.71637659894519,-18.0,5.550421216672598,-3.2176623632154033,-4.024074266662271,2.55551973234627
158.0,22.32704715423008,15.192256554895588,2.1107284851514283,-43.844665348069135,-18.0,6.780325065138305,-0.5436493071039203,-2.605778160484736,1.4980621942057775,4.147336334511375,12.769203482671132,7.704990228948684,-26.816660475310975,-18.0,5.5579907109357425,-3.1914822804312513,-3.9393763833579722,2.57009396133458
159.0,20.391137724183018,3.9651010560097784,5.011132382626345,-49.303090710688636,-18.0,8.135716993616665,0.08150770271780224,-5.190104487697714,1.5571646306347102,6.5959018856637375,13.715013060984177,6.01045329633161,-22.409083482756778,-18.0,5.3183983571478795,-6.747740621233559,-4.613861178427561,3.4658411209245283
160.0,21.63830153273078,4.400881262195972,3.228435158873049,-48.18038088258959,-18.0,7.084792352555714,-0.17503508333598872,-5.104052015358054,1.398997388655095,6.387765134281893,13.691108564114845,6.288142972837926,-22.633406481353745,-18.0,5.660308368609714,-6.3981441343977075,-4.585077497871388,3.8711829993948577
161.0,22.463259333502204,4.666332985821199,2.6528913073924,-47.59775933876381,-18.0,7.199144597142592,-0.34612991991084324,-5.029109733932013,1.299165365761688,6.323366217504844,13.717790557660587,6.28976313472571,-22.880468911153894,-18.0,5.694314848175122,-6.174814126861637,-4.544959911955144,4.063759799658361
162.0,22.987506511953473,4.8745939941083565,2.2460104974994604,-47.21688649655795,-18.0,7.339198722243803,-0.4545639257404138,-4.962916264132456,1.2559032508842585,6.3008005691081586,13.74372193269872,6.28602795409617,-23.11109018710873,-18.0,5.685861908703606,-6.023201578906914,-4.499818457353958,4.144235584175201
163.0,23.30551291068555,5.04506159886193,1.9242623141752981,-46.96517377439201,-18.0,7.441833446822937,-0.5235530326366704,-4.902944185184252,1.2450755900242894,6.294696807575668,13.764004894468663,6.303987239170353,-23.321680101475927,-18.0,5.670744825403983,-5.91449881178271,-4.451940107796824,4.161775247504017
164.0,23.48394886392203,5.187791655736039,1.6680041800401253,-46.80223131034946,-18.0,7.513707227521826,-0.568413516991275,-4.84740464553286,1.250896451132896,6.294105571900016,13.779059938934587,6.341019822921412,-23.513180232396103,-18.0,5.654412899339164,-5.831122355367539,-4.402642142102855,4.145100635138059
165.0,23.569333465289052,5.309875315491646,1.4630575869299105,-46.700030684902316,-18.0,7.563080458152189,-0.5986656165846814,-4.795120936446077,1.2643632916578114,6.293619803936145,13.789776320336165,6.392155971728183,-23.687555448139307,-18.0,5.638145025886478,-5.762453727978819,-4.352710209928246,4.1109466047037735
166.0,23.59384924122719,5.41643305703283,1.2977191152063527,-46.638745335512304,-18.0,7.5960869428554245,-0.6201311662117676,-4.745324539150119,1.2805840248623694,6.290841527373141,13.796976371130912,6.453208417388072,-23.847062291083198,-18.0,5.622487730253631,-5.70219495871157,-4.302609065202841,4.06881467390899
167.0,23.579537674643774,5.511144694302456,1.1626972260090107,-46.604390936758215,-18.0,7.617153120803983,-0.636330644905707,-4.697508359798204,1.2970333778475653,6.285082746883245,13.801374779587352,6.520919390918776,-23.993946587389345,-18.0,5.6077483350770505,-5.64668162432683,-4.252612830105882,4.023906797704541
168.0,23.541312680982156,5.596644688311965,1.050875032577285,-46.58715042790016,-18.0,7.629493338860996,-0.6493643477024902,-4.651331763625056,1.3125142515580805,6.276572047592046,13.803584748009722,6.592797646252712,-24.130287495828526,-18.0,5.594097761605703,-5.593830914230364,-4.202884637900454,3.9789227408858725
169.0,25.324966016105638,0.2971507749616771,0.5528607875121301,-56.181429288624805,-18.0,9.05041733387424,-1.113157353254106,-5.501719920506705,1.4727968417042598,12.73064742714795,15.596177104862072,3.6287522945877977,-18.623162695892823,-13.9980944631065,5.120169321618802,-5.804572482710358,-4.40678289451998,3.670355178201951
170.0,26.163552028915866,0.703716590124845,-0.7123369869988894,-55.22341377949283,-18.0,8.145709499895684,-1.120512623583404,-5.422458486954481,1.556372582635703,11.862739582962753,15.490776493538814,3.960162849734565,-17.94993776072079,-14.498554630214445,4.876620814268579,-5.682135444848208,-4.390842531597186,3.8363358211197727
171.0,26.691631615890508,0.9657114026960891,-1.0264146604380207,-54.70177250374956,-18.0,8.21915514638913,-1.125179922560883,-5.348586745834617,1.581798770685849,11.312792781635517,15.412414307238622,4.396814347736118,-17.613972646834824,-14.620407703711736,4.951100805222467,-5.624440874606744,-4.3642247592469605,3.8768359086392685
172.0,26.979074261214436,1.1840018538670587,-1.2338940169242465,-54.33833297609126,-18.0,8.31269369639588,-1.126562943384265,-5.2763082198219,1.5834186850947065,10.955942492139098,15.378883378767192,4.690162600053555,-17.44108587732954,-14.693369003362726,4.981016314002531,-5.58504928236945,-4.334635328417357,3.8703137201626676
173.0,27.106356625326754,1.3731212963626827,-1.3910541101617695,-54.07441385798475,-18.0,8.379251950898327,-1.1218978074962411,-5.206203219215454,1.576276402491606,10.719624162117395,15.370418429038232,4.907359219867666,-17.368787516422543,-14.717409000073998,4.9926157168038,-5.554434742193475,-4.3032344222346355,3.841180125878161
174.0,26.88745593200089,1.1815865447988285,0.43705612241921243,-54.83683942159599,-18.0,10.893532005672498,-1.0704638402464015,-5.1637821745195716,1.6256243606808773,10.657663742833753,15.32986536746154,5.068582947809429,-17.360797321267125,-14.707276475542365,4.980915724557913,-5.5396632274460185,-4.251083320942405,3.7821061616739344
175.0,26.424948503891144,0.9186748228552319,1.7976761590202242,-55.75076556172822,-18.0,12.7749447501475,-1.0013139257260892,-5.135748461311564,1.732364001371936,10.644149736622772,15.250938734531523,5.196260978251391,-17.3476411015775,-14.669748061268884,4.953985148814398,-5.499882776042767,-4.193829128962856,3.7558448896024896
176.0,25.84346844382914,0.622071290759448,2.813159244207194,-56.710321162648924,-18.0,14.121837998757812,-0.9371806666754261,-5.115645249436893,1.8591428735003555,10.640698321244685,15.141563789791938,5.305127913410769,-17.319194549789856,-14.607263146092622,4.91853802976155,-5.441103354010767,-4.13485502328062,3.753430239789982
177.0,25.27293991050435,0.3171345452152611,3.53749056314191,-57.62602556367557,-18.0,14.998084584671389,-0.8927017345485843,-5.099271849878502,1.982342539811416,10.626101780813897,15.008971633351322,5.4003245489405085,-17.273528727753547,-14.524439818095878,4.876897947509755,-5.368706252028417,-4.07544345350906,3.7655264663454613
178.0,24.807712793145487,0.020172850960546662,4.019307987799396,-58.437313197881295,-18.0,15.48542318811166,-0.874775058096938,-5.083721699829052,2.088629717339246,10.590453332114247,14.860338727649196,5.484134333325124,-17.212755497577575,-14.42539682309592,4.83085195178392,-5.2877596602050065,-4.016234644423046,3.783498351109851
179.0,24.659472335123933,-8.744795987668375,8.150473733808763,-68.38479475000608,-18.0,16.759633684942173,-2.7742601333852965,-5.321894708661053,2.281378368851862,13.022299668855403,7.12106880973631,1.096899751745084,-9.61222511200577,-6.01607622673659,4.14003493225111,-6.751718122916483,-3.8038526799991845,4.0987501536089495
180.0,25.511642540302866,-8.609607846899321,7.550058023993906,-68.18633047893934,-18.0,17.08244633507016,-2.830757208206067,-5.238148090310751,2.468517281782613,11.962748328344475,7.040977304522951,0.6445604243908098,-8.41666582864194,-7.567231308721347,2.9393480203743647,-6.441206650213776,-3.8084645555724848,4.400053824123833
181.0,26.158486612240196,-8.569529845843633,7.080067906662475,-68.08922367881301,-18.0,17.191930618083127,-2.874760895203419,-5.16944998030916,2.6122133272790187,11.259108244960599,6.855519731678047,1.110357992173437,-7.8204165940691315,-7.743910032729913,3.146605551264946,-6.254180036796716,-3.794861600023019,4.496596254956361
182.0,26.66600993569194,-8.572803093592222,6.677229663841635,-68.02473422535857,-18.0,17.136000010370335,-2.93587153472416,-5.100728845284351,2.6931779914889526,10.790110722147361,6.7378785951285085,1.3019571481115904,-7.440964792688491,-7.881592712823426,3.227938364306181,-6.103620943035422,-3.7762285510584954,4.509564744755463
183.0,26.628628146943562,-8.812467793089922,6.60489487192792,-68.41083965492703,-18.0,16.59465122443231,-2.943417746772793,-5.051449551886392,2.810723278304013,10.536549608607897,6.621465826056624,1.3727108017275442,-7.187195447268395,-7.94115698371985,3.2665232298545797,-5.990072322516291,-3.7464645919559674,4.462591369528315
184.0,26.849677128441428,-8.967701402365696,6.388546652163107,-68.55059133739644,-18.0,16.037990353680506,-3.000307925079129,-4.9919581625701985,2.856598699708581,10.303119305637367,6.536409263940455,1.3803636470198222,-7.00593222094769,-7.940544383289352,3.2855626902561275,-5.870346498213904,-3.7206959612807076,4.417152084270975
185.0,27.22562281755487,-9.063890881122225,6.086029681345105,-68.52045994838443,-18.0,15.480268147002073,-3.079231087075917,-4.925816069868441,2.8637662844484493,10.085275419433001,6.475154895222392,1.3496667742768031,-6.868345401337285,-7.901005343620362,3.284141560307303,-5.7535007580916435,-3.697973303439642,4.364351359438396
186.0,27.67938079839466,-9.118318761253287,5.738469473731078,-68.37748379350893,-18.0,14.930259105869837,-3.164128526805505,-4.855245726662701,2.850853667103803,9.87957544382819,6.432183948642966,1.3006050029937217,-6.755714303758559,-7.834317448224538,3.268304195786538,-5.643472897870524,-3.6778483068142616,4.301890060458133
187.0,28.158307789932927,-9.14282021466083,5.374910086449607,-68.16227588506149,-18.0,14.395871415780391,-3.2461270639842965,-4.781644357052312,2.827952062090521,9.683818849882197,6.4039012686238275,1.2451728597012202,-6.655838072391381,-7.750028833034002,3.242756599718569,-5.541287506621481,-3.6600687963957625,4.230709779421533
188.0,28.305330366718465,-9.241671057459522,5.201862918834672,-68.15128784788769,-18.0,13.699413564174659,-3.2872347026367668,-4.714001245795398,2.8399915610137567,9.527925116645704,6.372514689354305,1.1911714109223865,-6.5506596319903,-7.656450712448205,3.2058469165063794,-5.45281392696353,-3.642773861215175,4.14916121783965
189.0,28.308461426395702,-10.111272186503374,5.116647446688967,-71.12577390981893,-18.0,13.302376682778586,-3.7011911390597168,-3.94273084200628,2.860120540520258,13.457644698766126,4.497129087454321,-0.09187824144453283,-2.5465249576929816,-3.7390120348772395,2.8623181993383255,-5.648180397372902,-3.8717974477986434,3.852123065096795
190.0,28.89008267522848,-10.056267821038812,4.722855513814242,-70.7834717184385,-18.0,12.756091005196021,-3.742172407847477,-3.8668372846035006,2.8978653745795553,12.736089947771625,4.501560620017303,-0.3322983670208062,-1.8342690914191904,-4.474963560713408,2.2887973956810153,-5.491726827678579,-3.873636616127262,3.9176014540313098
191.0,29.42973510188005,-9.99997353907176,4.362061914782762,-70.43271634915585,-18.0,12.275453276700237,-3.782326221524702,-3.793313015311605,2.9067854151842267,12.196094456362667,4.4707424011477395,-0.14500663621702525,-1.431447035961984,-4.545996732083542,2.3912257177570617,-5.384155975828281,-3.8701426384131787,3.9024965401703486
192.0,29.901761532064032,-9.937683034347122,4.036596880351525,-70.08358034390393,-18.0,11.859743519447676,-3.8264193883983455,-3.7175102590854774,2.887834628575182,11.787720969920596,4.484243247318888,-0.09105914444855856,-1.1521405921478305,-4.595940963201333,2.431130872791127,-5.290267451918078,-3.8661090543240078,3.855545854003452
193.0,30.3107193973,-9.872758175086645,3.750406832974441,-69.74301742271894,-18.0,11.505579884296676,-3.865165585359448,-3.641243286325053,2.8584850289084858,11.468765820596946,4.523006953862761,-0.09475122776006273,-0.9544932640530837,-4.606169400481724,2.4530270952104294,-5.206512291919688,-3.861679192737406,3.790348089678772
194.0,30.661545789828192,-9.806945702152236,3.5032353984448195,-69.41427060347411,-18.0,11.208600574997176,-3.8953383957005743,-3.5653573779832928,2.826343819086697,11.211106540005742,4.578004291445059,-0.13045426217638467,-0.8066369273170855,-4.589191057655277,2.4601767448590923,-5.129598172447514,-3.8570113498173155,3.7161233278829693
195.0,30.952282860337803,-9.740178726037342,3.2927038723507094,-69.10186184487989,-18.0,10.964420610258092,-3.9158312880420985,-3.490246734566069,2.7950983370523104,10.995502667517322,4.6432427610589775,-0.1811347521106882,-0.6876911018866312,-4.553489936065949,2.4568151194154813,-5.05737505852398,-3.8523474651818184,3.6386267762023183
196.0,31.185201852883054,-9.672383783342159,3.114965590955795,-68.80737141142303,-18.0,10.768216131235432,-3.9269634053599187,-3.416176659834809,2.766125664878204,10.809400948074071,4.71466386709936,-0.23663446467287663,-0.5844377326709882,-4.505543954275681,2.4462658000023056,-4.98844032317043,-3.8477451396802094,3.5612317053758167
197.0,31.370969285179246,-9.604507244422468,2.965793666973357,-68.52789370958519,-18.0,10.614571872552013,-3.929931166498278,-3.343443437022659,2.7394498690029367,10.645278475581598,4.78937965395752,-0.29133581484276494,-0.48909851205080823,-4.450159136482437,2.431130687223031,-4.921930608823213,-3.8429778435329363,3.4856283661487555
198.0,31.4660212786853,-9.484079857154981,2.5058392381261614,-68.18516488180497,-18.0,10.024552688598595,-3.92631882126671,-3.268640028536768,2.712264674489119,10.48378858289821,4.871908841467843,-0.3395054065385339,-0.392838950531325,-4.39113764302151,2.4133493055271726,-4.855941877828631,-3.8418553007693483,3.416563702791013
199.0,28.11624475741717,-11.082117707761235,-0.4099520197824429,-65.86500602905497,-18.0,9.27111590534416,-3.956895597585003,-2.7704561832281183,2.5228436222988506,12.39557561906712,4.176734225661452,-1.0021265370165537,1.6022169000515705,-0.8360724841756481,2.026767206845063,-5.495768793494266,-4.309438698670824,3.2795652483001607
200.0,27.844659377367762,-11.255800232580816,0.5019559139451122,-66.27071461874569,-18.0,9.703717292892694,-3.851581865629007,-2.722560826420775,2.620098664036594,11.8732660573498,4.215452455720708,-1.1616320983214672,2.2924465167340036,-1.6291443628710844,1.513304072606434,-5.410241893004059,-4.295084297742442,3.290523611704995
201.0,27.78420848690814,-11.345598812686621,1.039207258890742,-66.4499505219935,-18.0,10.093291044789673,-3.793093234917892,-2.672565810267618,2.6672779782848783,11.478657113201358,4.213254354827363,-0.9365642180452551,2.69554675618813,-1.7672704351102961,1.6408758243803732,-5.327501204791734,-4.27789890339832,3.2851616604203926
202.0,27.82612826950666,-11.377730422615985,1.33970736755955,-66.48459064998686,-18.0,10.440958731302752,-3.767688079593019,-2.618608784904896,2.676699943558648,11.182035855594881,4.245177870978907,-0.85179104588205,2.9770520228562454,-1.8820405331585963,1.701170431282653,-5.237695239466065,-4.260684965242478,3.2737271774228582
203.0,27.921096325738173,-11.37460267519823,1.494519609163374,-66.42720791805826,-18.0,10.748337482947319,-3.7561588030053783,-2.563599415070915,2.6700935606559435,10.956627024391215,4.294253322833673,-0.8299233347299901,3.174021872523797,-1.9498597972015008,1.7419825416712733,-5.149113838168401,-4.242863946505972,3.2517901016135315
204.0,28.03891226508697,-11.349964709311617,1.5603671875879308,-66.31092795186099,-18.0,11.017965517377025,-3.7491903700464317,-2.5089074442837465,2.6571309673815073,10.782251047221106,4.35330216437341,-0.8455747426797509,3.317423448939976,-1.9834106682013302,1.7657627736387589,-5.0644398908325226,-4.22433287386036,3.2201199162684486
205.0,28.162040485861816,-11.312577674957367,1.5729063496160984,-66.15687002927203,-18.0,11.252837242907303,-3.742125674740379,-2.455277990117475,2.642211313784233,10.64407379014904,4.417429713876629,-0.8811461541292003,3.428225474402539,-1.9916829692349154,1.7767253112794683,-4.9844785613438365,-4.205080315057499,3.18071678669875
206.0,28.28047752334657,-11.268051504071613,1.5546329452117056,-65.97869880040672,-18.0,11.456157890311507,-3.7328549831956734,-2.4030825528775868,2.627042675567375,10.531641650047918,4.48355080947694,-0.9256716366125987,3.520406593470355,-1.9820263113562753,1.7783288247025222,-4.909116371824034,-4.185140344201034,3.135795764547782
207.0,28.414576903442047,-11.191892755148208,1.4843502100213426,-65.7439368886927,-18.0,11.658209594623994,-3.7258001974477333,-2.349959472702614,2.605526542703495,10.42773530599828,4.554288800958618,-0.9716674898841717,3.60303958095493,-1.960190490126661,1.7739318318633266,-4.8362065643427075,-4.166274234062247,3.089558570416937
208.0,29.045211540195588,-10.916660479980418,1.1275601430066535,-65.03773487330545,-18.0,12.23120077408497,-3.7708031715075863,-2.2817698914911055,2.5172916923444717,10.27452701059769,4.656325942219054,-1.0154696089738708,3.6662495711042684,-1.9292564173766535,1.7729795100104666,-4.756252529776063,-4.153089006182309,3.0494587236239963
209.0,20.23261500675912,-15.120744322650651,-0.08089571660289696,-60.55447024609588,-18.0,12.97183553756919,-3.9583963663658306,-1.5055202463447266,2.4661232586614896,5.967206237221612,4.761022643577336,-1.7137590524882107,3.690345432315908,0.3834130673059637,1.22253454584486,-4.995997776323911,-3.8660172330463154,2.9242167944898583
210.0,20.506454615268016,-15.135149047423397,-0.1865832908767575,-60.38086865495664,-18.0,13.01802346726146,-3.8954301318175846,-1.4926677748060253,2.578525223878679,5.844860469988882,4.681245002989687,-1.6258751392385262,4.027949686559583,-0.1470076336533177,1.0106958162494415,-4.901208445315486,-3.8312132982309905,2.9228311774705693
211.0,20.75211785679768,-15.139780587355613,-0.29647092373900996,-60.19503100328783,-18.0,13.048987616139001,-3.859942222356857,-1.476558517526449,2.6335434707902294,5.784533511287833,4.611864935452938,-1.4874183039923408,4.210404580951866,-0.14049234772847408,1.1302820613024247,-4.820756014462035,-3.796931979574422,2.895284919230619
212.0,20.964413793775613,-15.133824628903858,-0.41070149862532945,-60.00297478577713,-18.0,13.066294092331464,-3.842166380146746,-1.4568894451729948,2.6514652072793625,5.768206699152057,4.571847125624423,-1.4587173082893492,4.35236996007932,-0.19362146472787956,1.1337047843880288,-4.741727477429234,-3.7645087271660174,2.8606122609339906
213.0,21.151064818928333,-15.121363976701085,-0.5240045888481668,-59.80803513368541,-18.0,13.073091948173687,-3.8307413447336556,-1.4356248194839956,2.6513671509357417,5.778939401029778,4.542224011870464,-1.4381542930143525,4.458771187902835,-0.21928457537129709,1.1358846476515656,-4.6668398445698065,-3.7333300457983585,2.819883784970023
214.0,21.314740323336686,-15.10440125644526,-0.6333110145063183,-59.612413375296796,-18.0,13.072064093634275,-3.8212995084907426,-1.4133328795810305,2.641372021527874,5.805960140594512,4.520771232978664,-1.425202540910865,4.544306923562945,-0.23052012030789215,1.1323684723783636,-4.595151965608344,-3.7033470896990015,2.7760956007656867
215.0,21.457627132132735,-15.084486777527538,-0.7363947731610989,-59.41764527044548,-18.0,13.065421490123784,-3.8114357313092153,-1.3904168389174196,2.62613824785032,5.842590308852566,4.5054136763548485,-1.41580460510414,4.6176220866541255,-0.23207899659375575,1.1254503497542916,-4.526153781999248,-3.6744656060014447,2.730993750562312
216.0,21.58151373064601,-15.062748788460887,-0.8317989736392088,-59.22474660584909,-18.0,13.05498453446803,-3.7999796580498804,-1.367136305035726,2.608206083957917,5.884800285989252,4.494835287169556,-1.4078614789984454,4.684120051588877,-0.22763643568848457,1.1164998876586705,-4.4594440609641115,-3.6465932032270874,2.6856904676879436
217.0,21.687976988598315,-15.039996844147913,-0.9186746528491905,-59.0343486326913,-18.0,13.042240965856195,-3.786439836844268,-1.3436649848009663,2.5889496818193782,5.930245717949264,4.488167794056186,-1.4002517914525985,4.747039037636559,-0.2197533859191778,1.1065298485972914,-4.394709751053398,-3.6196417339529385,2.640885867671209
218.0,21.77661682611484,-15.016584606298037,-0.9964863527314329,-58.84759572879554,-18.0,13.028608443641474,-3.7706045334140814,-1.320098956475453,2.569196309667536,5.977521620333221,4.48486179115511,-1.3924266845698314,4.808322450754644,-0.21019259689622527,1.0962244516002038,-4.331693198909938,-3.5935771543543598,2.597065266103761
219.0,12.519629141631459,-18.78179384550177,-3.588027181039889,-53.085825971193465,-18.0,13.244158364279887,-3.9014901755363813,-0.40944303709570806,2.7158639532784203,0.5965336886168444,4.606256707247202,-2.644853905621921,4.302702051055305,0.5444853523818238,0.5951152959306336,-4.287005813405832,-3.2135652312423564,2.5012227480646025
220.0,12.906682171215794,-18.800263776136973,-3.726245392775034,-52.83463530340605,-18.0,13.228374469625344,-3.883897486558843,-0.4203535722009799,2.733416837752589,0.7786937263705713,4.448321006082347,-2.249645488620937,4.333666670800998,0.36242112515061464,0.7345441078426009,-4.2250604421052795,-3.1746576374411677,2.4667204914754626
221.0,13.206777327805305,-18.809315956805353,-3.853375022319798,-52.61034022888024,-18.0,13.21123904957682,-3.876832171914615,-0.4255300238483253,2.725264773157485,0.9887393412644596,4.339830655463333,-2.037332655656547,4.304340956699774,0.25656792838507814,0.797552911705042,-4.159833733857582,-3.140173131573286,2.4327850388503087
222.0,13.446179989179512,-18.811325068347077,-3.9690634795481192,-52.405713418428086,-18.0,13.194013836682169,-3.8714140733414575,-0.42721377406408845,2.7074215445491174,1.1961167095052794,4.257189141030621,-1.9110074417771776,4.253794946665903,0.2061342580427581,0.8194222956573065,-4.095015174931142,-3.1091319240296675,2.3991013280753677
223.0,13.641100072525187,-18.808034951830713,-4.073539603006294,-52.21597822684865,-18.0,13.177588540685369,-3.864338730219699,-0.426580550155812,2.686448561444614,1.3875060338567913,4.188297102226979,-1.8211893156054328,4.2025886947485995,0.1857243750973232,0.8154898009020293,-4.031976223786053,-3.080855890865293,2.365747608020343
224.0,13.823582532459696,-18.810106494466098,-4.169041559194879,-52.04250962447892,-18.0,13.162963159141368,-3.8461881103923385,-0.42966169668764054,2.6757639002495033,1.432761312782632,4.043497988885916,-1.5198038631987303,4.177996925037467,0.5986885606202588,0.08072507183561983,-3.9920400131391434,-3.050318437036946,2.31222569506986
225.0,13.958463309494658,-18.80654934772723,-4.249417995916708,-51.88201289182242,-18.0,13.14892192764516,-3.8360831859456685,-0.4270581716397175,2.6495243323880286,1.4731398412960943,3.930289378677211,-1.1534644695656757,4.195288353134379,0.5247588333560236,0.609048000170467,-3.9396800174652498,-3.024570574704442,2.27317913768392
226.0,14.065471706493216,-18.80289797473658,-4.325324688562663,-51.73043529160875,-18.0,13.137059913844425,-3.8270313841954584,-0.42344948378033376,2.6203909157186107,1.532167397011405,3.8370328214304124,-0.9648796289394876,4.184987969732608,0.5278758906615165,0.17674178710875665,-3.8854109184285814,-2.9992584379503917,2.234234551852941
227.0,14.14391043813273,-18.79781829581673,-4.3878010495940725,-51.58867378494582,-18.0,13.125826582218412,-3.817221916504655,-0.41730844793418953,2.590504251745667,1.586965313759845,3.761131609001994,-0.7378879099650706,4.168268069876155,0.5217210029924185,0.48570481962339745,-3.8285558544646623,-2.976587736630251,2.199284708633339
228.0,14.205288263612633,-18.792722610768475,-4.445558276274017,-51.4521288682993,-18.0,13.116352725178068,-3.805920706565526,-0.4106754856340926,2.562482867113685,1.6469881259328818,3.697282159048987,-0.6157038195544637,4.144820514060912,0.5135228734315873,0.22968488800474285,-3.7710962954742184,-2.9544775890022335,2.164904009985851
229.0,5.020889076486033,-23.169209991656388,-5.872885424931683,-44.81299123942614,-18.0,13.623352324338606,-2.823578352233329,-0.07924955546251278,2.4740725155300227,-2.53517027752996,3.117744673817803,-0.8071872973392176,-0.8015315582324556,0.3670049352674605,-0.13469256913067806,-3.7675677321192858,-3.192628217523454,2.0787702348528194
230.0,5.385370307984582,-23.1353351312186,-6.089161218145167,-44.63383896787358,-18.0,13.598135243925263,-2.9118146109958256,-0.07594011806233203,2.388862718253254,-2.702174790912682,2.9748518807452027,-0.47483786747185897,-0.49745820678271535,0.2700216465650862,0.359114355247569,-3.652048542846405,-3.1631994746121532,2.1334279439846044
231.0,5.669524200516275,-23.108104138919796,-6.27869573560362,-44.47768828144035,-18.0,13.571571392301163,-2.976966344288128,-0.07348108862188818,2.3295126804406667,-2.7930247361083977,2.8564295710357976,-0.32258578357309875,-0.27155128257749384,0.29392412433817405,-0.04094770871738962,-3.560595418329575,-3.1328578249304293,2.1415114539925235
232.0,5.882177122716852,-23.082792816264917,-6.442759182701593,-44.346007928383216,-18.0,13.54107623595758,-3.0256810119757658,-0.0695462516893488,2.286583392623224,-2.844075603507212,2.7591980251810435,-0.14355473520618656,-0.08611887572474175,0.2978084628710288,0.2498203849205592,-3.481391493253189,-3.1045187714454494,2.1270572490478012
233.0,6.0497115521315505,-23.05920874731417,-6.593361372068266,-44.22744859839866,-18.0,13.5097015677882,-3.0625299022351733,-0.06565974562179044,2.255615760764872,-2.8567893615604816,2.6770377231758467,-0.06727384503558964,0.06478242506659204,0.2995794301316359,0.014750943511944115,-3.410254601700108,-3.0765504525755656,2.0982412397644525
234.0,6.180042367730166,-23.03533730465685,-6.728895952475025,-44.119779840484455,-18.0,13.47824329086598,-3.09039106542524,-0.060719375804406894,2.2324021181187153,-2.849764055805961,2.6077021693645865,0.027281047748431764,0.19132845559514755,0.30247894273634135,0.18614411368504058,-3.3436203526517323,-3.0503283629392755,2.063453364220457
235.0,6.435664417749962,-22.610641376638664,-8.689741518423011,-43.17161969242841,-18.0,11.116670398340332,-3.153266804179852,-0.02556712312711862,2.154526368312104,-2.939036473763134,2.60365522066265,0.07055800124425282,0.3108905754956257,0.30319000479364455,0.06383224937197002,-3.2658215931391634,-3.0492751814214456,2.0507797994972643
236.0,6.638287084965414,-22.514851094012553,-8.28197491189596,-43.06227033119169,-18.0,11.938120863970187,-3.1763226521785115,-0.006390721845328962,2.0925934706883136,-2.9136944679092887,2.595433014206388,0.12314522678272821,0.3695504335768547,0.3144950232429321,0.14578050170848414,-3.23286282825544,-3.0315645381179914,1.9748119090129683
237.0,6.687744335384182,-22.460242826157465,-8.014078079844275,-43.04053744523563,-18.0,12.588642470692005,-3.1701941381295637,0.0049818695646195454,2.0768016707863883,-2.8553074786726254,2.576440004322535,0.14740357960061168,0.4276964921669897,0.3059213371201418,0.07449915702081694,-3.1935231869476755,-3.0109393509931057,1.9133291379087112
238.0,6.640097515824409,-22.44126053963502,-7.822399194662578,-43.075890530848746,-18.0,13.084120295900576,-3.149120251654253,0.010743369727278518,2.0849378218603727,-2.7779709496764435,2.5483615867170997,0.17789928348852913,0.48506498054153235,0.3022983529357105,0.12219144512615254,-3.1493481433838175,-2.988281847481087,1.863631767608433
239.0,2.5737500113910614,-23.263146417336806,-9.23436517624527,-40.80353501695412,-18.0,13.92376632502988,-2.273825988811754,0.16233731548990993,2.0165331341410795,-4.080346017128792,1.9375645752830102,0.25096261736888303,-2.549991004075565,-0.3422942432031356,-0.20063778431507318,-3.072145596415999,-2.9790939368132063,1.7332158465772536
240.0,2.564448102830548,-23.320306629284627,-9.106868393077058,-40.877877040069556,-18.0,14.124150633880488,-2.3009582287366706,0.1569779594176639,1.9849698803362392,-4.159941502572085,1.8549159882451733,0.37314812028176414,-2.2913470013735626,0.029653534875872634,0.14879604300902544,-3.0056860794977025,-2.951242319305295,1.7383860474283757
241.0,2.4958262369934348,-23.369712338421802,-9.016679813901623,-40.94723071439456,-18.0,14.230609527885123,-2.331312552010197,0.15693875110700284,1.9559084657865604,-4.045597806872548,1.871093505327416,0.19108252743498255,-2.00345260123146,-0.4203683987094927,0.5671555079562134,-2.9141145609197117,-2.928688250597454,1.7612037909523837
242.0,2.442661828468996,-23.417472374018992,-8.961052639659812,-40.99598655331197,-18.0,14.267549355449715,-2.3492719400861777,0.15456371776338762,1.9488448388530553,-3.8703855026812723,1.9045552436011386,-0.1700346075436312,-1.8592988626354123,-0.6877203671131309,0.715351889882583,-2.8359023837223067,-2.9056201810019697,1.766439851213484
243.0,2.4232690800478327,-23.46007365330778,-8.936755288274519,-41.01855218704582,-18.0,14.251329061270692,-2.358253641491414,0.14967524378567987,1.9567866870893529,-3.6714675032966295,1.9164434257530378,-0.44153648395404144,-1.7969704751427251,-0.912336032431585,0.7515351858320218,-2.769827735892492,-2.8821001424130688,1.7616249858078976
244.0,2.4395882239173727,-23.49494865271867,-8.9394820206259,-41.01502214814931,-18.0,14.196774409788453,-2.363520182424541,0.14351296865510177,1.9704443897511674,-3.477121638856685,1.905710474095485,-0.6022824209207245,-1.791622901047659,-1.0588972004610886,0.7731207216151059,-2.7136146084060164,-2.858784574188199,1.7505175704591431
245.0,2.485829332031541,-23.520343589262215,-8.964435013308414,-40.98768576977188,-18.0,14.116023681300849,-2.3688488393977334,0.13741697483748694,1.9833037681152856,-3.299823336920374,1.88156897729489,-0.6922093610023428,-1.8149947223126448,-1.1497900073888947,0.7822090680205485,-2.663682373126865,-2.8364453063015187,1.7368152581811276
246.0,2.5553104487100535,-23.535916871707748,-9.006425119915015,-40.93972181352923,-18.0,14.018956131062806,-2.3754573179019283,0.13209614278473092,1.9928019436560778,-3.1452529073723587,1.8498180890625775,-0.7357441522635955,-1.8490782299246515,-1.201119391323217,0.7812365963044559,-2.618232717292725,-2.815458222369526,1.721927837328094
247.0,2.6412839109154986,-23.542176296134556,-9.060419714260846,-40.874712411356334,-18.0,13.913386861721472,-2.3833517252571355,0.12787871280659102,1.9983155602648062,-3.0149419827940305,1.8140925837078732,-0.748051458725489,-1.8832349168934923,-1.2252185105620612,0.7724947321043111,-2.5763594101767637,-2.79595426926542,1.7062299816994337
248.0,2.7374325611810595,-23.540085265243,-9.12187419256513,-40.79628598137406,-18.0,13.805293790465186,-2.392055121108447,0.1248743268218433,2.0000880776639667,-2.9078448802548937,1.776729444862219,-0.7387294489949061,-1.9117850681428452,-1.2311410415406603,0.758238989980923,-2.537535744092391,-2.777924846036589,1.6897462171725324
249.0,-1.733391082064271,-24.833545649808293,-9.788648505173919,-37.836210796301955,-18.0,13.788217868188596,-1.3258559986001126,0.6138066228754954,2.069512249781644,-2.938110544642145,2.7484069882803377,-0.37640569032780924,-5.157012061914782,-2.073502477630618,0.6201725356620437,-2.777699557183276,-2.755080600109374,1.6038020963104929
250.0,-1.3070234925404893,-24.782772220791394,-9.998626758706093,-37.63959355445323,-18.0,13.71133900685468,-1.440248640510955,0.6060232297278063,1.9666160777976396,-3.1356837984239307,2.6285510105299754,-0.08171695970170867,-4.988967176761729,-1.9877262791820791,0.8427275456688728,-2.6934273367514283,-2.738970892638502,1.6825964337138002
251.0,-0.9924889007113453,-24.74233010314218,-10.164379713097233,-37.48660474623584,-18.0,13.622893755350226,-1.5253608928056168,0.5985453352722128,1.8979208877643325,-3.255477906195486,2.5512364812331674,0.009777519963207748,-4.858858730306038,-2.0532273800120264,0.8362343127315992,-2.6300551195699198,-2.7232506888418295,1.7171234368930688
252.0,-0.7459141818692707,-24.708491181745675,-10.299168207798989,-37.35979485760727,-18.0,13.528832467588936,-1.5878259328489208,0.5904951892929299,1.854953897842079,-3.3275163732557393,2.483382840966615,0.09773995605068242,-4.776429339915869,-2.086189562775701,0.8347850993289443,-2.583101640513894,-2.707483552741287,1.7231201675262187
253.0,-0.5461002600954536,-24.677411964377818,-10.412494431770575,-37.249088949592355,-18.0,13.433187455762592,-1.6358517778690902,0.5826226227863529,1.8270480581658255,-3.3701505592362317,2.4246163415424684,0.175485086815115,-4.722547398619797,-2.1031960041048303,0.8271549759987018,-2.5450526972059926,-2.6922124649391956,1.7141077159493023
254.0,-0.2807872292685136,-24.402378231384926,-11.759082647927048,-36.594968802611156,-18.0,11.708989216390764,-1.6979881594730326,0.5932768242522392,1.7727665523978196,-3.4639818884402027,2.4060716830142885,0.25462391370819004,-4.679122883116921,-2.108221975096635,0.8192880650759853,-2.5043692148095014,-2.6924779749645946,1.711955215029974
255.0,-0.07707883146273087,-24.341144939055205,-11.456010859990037,-36.508105491658554,-18.0,12.167758555534107,-1.733148890427639,0.5948461821197575,1.7271038487268509,-3.477228252287663,2.3892807532289413,0.32732735946708114,-4.675795803425364,-2.105530228158602,0.8064617129318072,-2.4936197233527415,-2.682034120014451,1.6659577487498836
256.0,0.032947536660784316,-24.297630794269566,-11.261100365295771,-36.46935722437591,-18.0,12.52211049011759,-1.7492018764558819,0.5924846160615607,1.712237784632424,-3.4759685699217453,2.3674230799006386,0.3950420218629276,-4.670651204101796,-2.100715489727949,0.7893630705096578,-2.477403648397364,-2.6704274272043342,1.6304237256703007
257.0,0.08029877830388621,-24.270890429531672,-11.126516241352377,-36.462541912202504,-18.0,12.782133669102048,-1.754890170973356,0.587212176995186,1.7137521423797086,-3.4658975525319566,2.3410902487863887,0.46103871052621304,-4.662762856621739,-2.0927660179457215,0.7720435866345263,-2.457570051946595,-2.657826202197847,1.6020901360894986
258.0,0.09137061575849614,-24.257095085509384,-11.028405044243645,-36.472571046301276,-18.0,12.96110628897523,-1.756134834354306,0.5800136451509658,1.7226682778245532,-3.451958978940648,2.3115371635294775,0.5253077579820951,-4.651478821036127,-2.083110234458733,0.7548153359362163,-2.4349341225193872,-2.6445614192855604,1.579223516725168
259.0,-1.1238351600664647,-21.662629392773745,-10.022741960828796,-33.753019662849475,-18.0,12.82445805913323,-0.25223118170960745,0.8974424527294399,1.6257293153173906,-2.4501485744593845,3.837698547818143,1.2053431340726721,-9.88368430703863,-3.3202156815549744,0.7875325284477281,-2.817759752257776,-3.03560315972273,1.4883911695468983
260.0,-1.0884651660870244,-21.66489293531112,-10.006341727601448,-33.82578729685072,-18.0,12.834047736129783,-0.34875179023533376,0.8795028771403414,1.5281740494472773,-2.771068544546605,3.7104582598322233,1.5550371449756244,-9.54148108104791,-3.3354168425706066,1.0014894088623614,-2.7514919620209954,-3.0108760334857547,1.559268711662332
261.0,-1.0653962020921064,-21.671176544437397,-10.00379309183602,-33.88171605067373,-18.0,12.795308812743421,-0.42613095294559167,0.8613733504541585,1.4647395652370185,-2.97846464766577,3.6255787934801793,1.7016138184458844,-9.289782879989541,-3.4600184833517758,1.0304044176468574,-2.695259745527821,-2.985545202623133,1.5975790284922442
262.0,-1.0323278623068974,-21.67769633989127,-10.016462714979154,-33.915243652648144,-18.0,12.722623372764739,-0.4889593928472047,0.8427126623138725,1.426345956111006,-3.110664532541716,3.5549058276082453,1.8157742540340998,-9.120918669792808,-3.5466356636256653,1.0600269908141935,-2.648261048944216,-2.9596952431307724,1.613497157710903
263.0,-0.9841438398561753,-21.681052872169747,-10.043892931626777,-33.92570733611737,-18.0,12.627425148554027,-0.5429696255839651,0.8243574028939538,1.4029658289331453,-3.193299690520435,3.4966806467014173,1.90038272306361,-9.007485895042688,-3.6096202658015963,1.0802757143677972,-2.606423088595686,-2.9341016392273165,1.6164156516425852
264.0,-0.9208667519471856,-21.67950732282086,-10.083768915412172,-33.91483018752852,-18.0,12.519016614847208,-0.5910995035471533,0.8067183115006558,1.3888227930910042,-3.244190070032279,3.44830637742953,1.9651419848310985,-8.931314363056478,-3.6532692889706517,1.0931052744221905,-2.5679725979678345,-2.9091850392476877,1.6113789532905027
265.0,-0.8497516676603958,-21.67085510254522,-10.133595634683198,-33.88747143004952,-18.0,12.406478185702214,-0.6348402671743714,0.7901502229327931,1.3804560644109676,-3.2760345636308164,3.4080875982555496,2.016846826082455,-8.879333812073817,-3.6818797449964062,1.099796874628693,-2.531976256553544,-2.8853619491983213,1.6014845067505907
266.0,-0.7742949512767545,-21.655192348171603,-10.190565809393128,-33.84714689094475,-18.0,12.294962519105038,-0.6749822969346709,0.7746872047352888,1.375809685774802,-3.2967479255371592,3.3744524350553404,2.0602871222873342,-8.842750631615683,-3.6989761485192942,1.1016801505099898,-2.4980637610983107,-2.8627012306886304,1.5883642121498625
267.0,-0.6980251251643415,-21.633090111203874,-10.251942983053134,-33.797199347767645,-18.0,12.18796551143446,-0.7119388605593775,0.7602804974835217,1.3736170531529368,-3.311363320618565,3.346192998440557,2.0987323834108396,-8.81560299343337,-3.7074986015084077,1.0998959407859277,-2.4660367737617657,-2.8411862691690266,1.5730324844095285
268.0,-0.5808489830341799,-21.4910327142069,-10.901613639923088,-33.491142615755734,-18.0,11.345908524005507,-0.7568877872038268,0.7553877434136667,1.3566686332850564,-3.3551626041157343,3.3379283597258635,2.138125903227285,-8.79051209709672,-3.709749830473389,1.0971358993305014,-2.432249056111172,-2.8278598751376123,1.5630252766590167
269.0,-0.5736935705473343,-15.907089283162227,-8.978413355689385,-30.84302900808173,-17.8702779788202,10.548029326848098,1.0283797542097428,0.6675973842926328,1.1919465304600854,-0.45142057240633093,4.757236473013872,2.0054089415150353,-16.82510698338539,-5.482238223024846,1.2331214197419902,-2.999221483034413,-3.286374709758894,1.4815773958243674
270.0,-0.40599296239068394,-15.865897008005355,-8.817200441697755,-30.86799038791778,-17.522815904640076,10.822980353889722,0.9062168782084461,0.653354474819751,1.0763542324203248,-1.1102994412794334,4.59542943773307,2.582890725340987,-16.193792952879278,-5.565080686214573,1.6215944908538722,-2.940177071897452,-3.2593659106538935,1.5739566641473965
271.0,-0.2962842769211109,-15.835606246477965,-8.80490653617391,-30.853387887285113,-17.383315870926843,10.870294181470449,0.8080187237018914,0.6376046743597534,1.000916167605907,-1.5356293395638132,4.507143742994566,2.7995001253023766,-15.74488470954114,-5.815886471772898,1.6985693806877393,-2.8892127660700324,-3.229939597107989,1.6230252305290667
272.0,-0.2062385394687709,-15.788915693996756,-8.962318253667508,-30.76978403967303,-17.476951739651135,10.666101696589404,0.7273082113840594,0.6220199054022014,0.9516867282743884,-1.8130211557420135,4.447832168229222,2.951157810553719,-15.453220683387455,-5.992650839642024,1.774132565024119,-2.8481894166987596,-3.200150178746816,1.6427399681966002
273.0,-0.15358408848880156,-15.766381251839986,-8.949059611923747,-30.750701723269717,-17.383437701012753,10.658777326660175,0.6612149456281706,0.6053071184381641,0.9208685747096252,-1.982413463216429,4.409073436009907,3.047424337971357,-15.267986285154153,-6.123193734042593,1.8300850852409238,-2.8150582878849395,-3.1689404247336848,1.6421156100029557
274.0,-0.1042548889548165,-15.74468690320995,-8.965786332932254,-30.71605564006169,-17.33246009858542,10.609263506839575,0.6052638518907623,0.5880859218746044,0.9055403574263006,-2.086565389041556,4.383127806620072,3.10868281395782,-15.149595608011984,-6.216461988768921,1.8705831839656595,-2.7839617428307304,-3.1376603871940487,1.634129563776523
275.0,-0.05881988914731817,-15.726438796254905,-8.971637444176608,-30.681083947128492,-17.275448382350202,10.569506174729584,0.5566588969694357,0.5705641177723741,0.9002861268214772,-2.149300998405338,4.365606626575842,3.148379021624719,-15.073749416107784,-6.280594534073415,1.898505990003038,-2.7545365653754734,-3.1065371203447816,1.6218224532667218
276.0,-0.014073718465748009,-15.709700572861202,-8.976154903535862,-30.642166139359027,-17.22280022147406,10.529114786837107,0.5133979225999883,0.5529239194386898,0.9019322577072874,-2.187743096263295,4.353297182475301,3.1755700125588504,-15.023330805961985,-6.322439536894342,1.9163924623964848,-2.7261873246084285,-3.075818891831628,1.6076012299801827
277.0,0.030361808503603704,-15.694088764899785,-8.977670155279856,-30.600379220651757,-17.172367727624355,10.490538986874213,0.4740913591946341,0.5352805107567946,0.9080699693306835,-2.212849955100459,4.344098220587157,3.196229210094146,-14.987126323607939,-6.347493946846665,1.9264983408163134,-2.69878326618854,-3.0456156050992353,1.5925249052582338
278.0,0.0744438571304844,-15.67924083848079,-8.97666447415115,-30.55609272171955,-17.124584499396914,10.453305229001144,0.4377509154743824,0.5177168004870675,0.9170286917196296,-2.231594727794928,4.336658053217944,3.214114868335948,-14.957869312916543,-6.360145064640606,1.9307172583727183,-2.6722465445448593,-3.015986371146335,1.5771628905004587
279.0,0.06564187879183692,-8.617436497660487,-5.805624945848274,-27.83421398452896,-12.89461731107801,9.188193664781057,2.3233957710763082,0.24627372651064117,1.0251888976973782,2.9081523119364823,4.929540259808019,2.639590053206994,-23.851205442468014,-8.205798211873516,2.142123542546441,-3.3840727684941396,-3.2987975892744315,1.5567914441501594
280.0,0.7944172282021063,-8.498986627095665,-6.494645952556279,-27.194133977558536,-13.692445115170026,8.48419175370758,2.138687327411885,0.2352966650761239,0.8578786714542246,1.9461216249333848,4.764697455583869,3.2872621754996354,-23.00222903650315,-8.374720929555817,2.5721714088365077,-3.30116687727174,-3.2719465758595057,1.7033568633364977
281.0,1.1646058274463034,-8.4928041429054,-6.331618751918025,-26.9934546679516,-13.577624973547382,8.689779627385514,1.9990576983955624,0.22248710346236922,0.7312347452032444,1.3340957973488585,4.697578358591243,3.530855524376952,-22.42293778509541,-8.689586136987563,2.6838167324806683,-3.252922469104104,-3.2394613523547746,1.7582990813185748
282.0,1.4130901418913506,-8.489248144734134,-6.304234538621493,-26.806925028547443,-13.64093020420562,8.668575875075003,1.8931347504342662,0.2077090956106934,0.6533395221420815,0.9294317438110458,4.66498294513743,3.682984742690002,-22.04395731352463,-8.913564760217367,2.788325319046825,-3.2159675270288854,-3.2052728233298766,1.777194557883253
283.0,1.5703079529624073,-8.499786374660827,-6.224536479087653,-26.681437345773087,-13.65339214575756,8.670537732421213,1.8094665945714343,0.19174091213314137,0.6060658120511015,0.6642515985920161,4.657571333844359,3.763763743442479,-21.796739361093856,-9.078772511284372,2.8680015400837187,-3.1849753989558245,-3.1701167306954305,1.7760736968991735
284.0,1.678820709292621,-8.514555886712229,-6.144828845340976,-26.58071462314914,-13.663612009960167,8.65142317238253,1.740526419467387,0.17512784329660025,0.5805537970824162,0.48645320194292463,4.665658291939531,3.8006464092447185,-21.633606146984015,-9.196635221587927,2.927899518823238,-3.1556262271477493,-3.134896294878816,1.7666414123899097
285.0,1.7595713685141199,-8.531181816527388,-6.061986113902284,-26.49599129261096,-13.662991701902193,8.62591618956624,1.6814353816038436,0.15817542722368505,0.5698576023438904,0.3622943888615042,4.682911868911791,3.811464128220473,-21.52273700461562,-9.277525968200775,2.9714534799513292,-3.12673817688549,-3.099987305963903,1.7537629134059458
286.0,1.8258295158840383,-8.547622199085545,-5.981102081756358,-26.41921696950973,-13.655164605687444,8.59466401282006,1.6289550916649165,0.14108571572465123,0.5692113888761188,0.26932970438883963,4.705040947744651,3.8081271254376214,-21.442731823818963,-9.329869317854257,3.001826835779525,-3.097963543704161,-3.065603693783714,1.7397649567464344
287.0,1.823187684044946,-8.548995430830194,-5.8751785151061116,-26.40273500248461,-13.556632748159004,8.629026333197189,1.5822586882759766,0.1255140247209524,0.5767027994498788,0.18636678820407315,4.731494153861747,3.7998287190000504,-21.376379651296766,-9.360673046732664,3.021032628776446,-3.0684981196893277,-3.033894529126332,1.727989989242863
288.0,1.8151287906628166,-8.539320090992128,-5.823802210981867,-26.377706905593186,-13.489940548309638,8.616162759090201,1.5390160150733672,0.11012966598386142,0.5905803832924885,0.1081090374341862,4.757541033103103,3.7908551822685213,-21.316473430099563,-9.374338325721146,3.032257224959575,-3.0389813595153936,-3.0033458211944692,1.717220887193708
