xqsrdtd/agibot_x1_dof_lag/sim_data/20250922_161227/20250922_161227_joint_torque_data.csv
Time (s),left_hip_pitch_joint,left_hip_roll_joint,left_hip_yaw_joint,left_knee_pitch_joint,left_ankle_pitch_joint,left_ankle_roll_joint,left_shoulder_pitch_joint,left_shoulder_roll_joint,left_elbow_pitch_joint,right_hip_pitch_joint,right_hip_roll_joint,right_hip_yaw_joint,right_knee_pitch_joint,right_ankle_pitch_joint,right_ankle_roll_joint,right_shoulder_pitch_joint,right_shoulder_roll_joint,right_elbow_pitch_joint
0.0,-2.4404668881718546e-16,-4.569101053916318e-17,1.4237498812193983e-16,-1.650263597573118e-16,7.628826416523797e-17,7.474763146233446e-17,-2.7304429659910873e-17,1.052877964664664e-17,-1.0528856144915948e-16,2.8880534818667916e-16,4.8904637605545935e-17,-1.3088038798710134e-16,-2.0781263658509129e-16,4.911957697541893e-17,-2.5639602118486907e-17,-7.271600065882317e-18,1.253232039582484e-17,-7.199123651734224e-17
1.0,-4.332346645932944e-16,-6.35389282403401e-17,1.8198215418599566e-16,-2.75427950673278e-16,5.90557670380254e-17,9.555709764462008e-18,-5.407630046041152e-17,2.5429690288996387e-17,-1.923596362323134e-16,5.140543135958899e-16,1.0375225351804503e-16,-2.3816614931006737e-16,-3.676662924288752e-16,2.6770301991295686e-17,8.613602806669384e-18,-2.506372407495657e-17,2.0043430940823902e-17,-1.5959216093854253e-16
2.0,-4.781042883544063e-16,-6.633050378263048e-17,1.7460888825029078e-16,-3.323835099023435e-16,5.720587631876594e-17,5.4038924680391625e-17,-4.3208050666989504e-17,3.84514403038334e-17,-1.9195627572249665e-16,5.970804601847622e-16,1.196174960766037e-16,-2.215517872937125e-16,-4.741391861220857e-16,3.128672798559592e-17,-9.318912569035111e-18,-6.785630946862861e-17,3.352481510379077e-17,-2.453021913874224e-16
3.0,-6.150189546050302e-16,-8.491645048630527e-17,2.108062102825135e-16,-4.1174316598427643e-16,5.261486533239822e-17,1.963096111267125e-17,-6.471589686719357e-17,5.181118690111714e-17,-2.5456746411429505e-16,7.301330899020576e-16,1.5610769054360657e-16,-2.664123728524942e-16,-5.391302004616283e-16,-3.823445209472031e-18,6.38633399523682e-18,-2.6707508032016422e-17,3.7147747245832014e-17,-2.3342497291713747e-16
4.0,-6.324075487670526e-16,-8.558750361477223e-17,1.795925375251852e-16,-4.168887287876247e-16,4.3381325580577496e-17,4.215577353573686e-17,-6.476358936424875e-17,6.355167919974366e-17,-2.825122598709711e-16,7.88522591827973e-16,1.7201938439830985e-16,-2.5433069935337255e-16,-5.868387581164637e-16,8.755850830319078e-18,-2.16943035834707e-18,-3.787254596485687e-17,4.704441953697762e-17,-2.7213268748221267e-16
5.0,-6.956982557434972e-16,-9.320805127638706e-17,1.9663225721728117e-16,-4.577253258402775e-16,3.626075928436672e-17,2.980906219407352e-17,-5.38460587954109e-17,8.14112121874917e-17,-3.098675287286843e-16,8.436397358812382e-16,1.8898260137838037e-16,-2.1796649675342456e-16,-6.414941418408013e-16,5.014241799518805e-18,3.761896466887412e-18,-5.992960214281071e-17,5.860779923547226e-17,-3.3280692573514395e-16
6.0,-6.908757926124001e-16,-8.315163596641563e-17,1.5172100137104168e-16,-4.553466335375106e-16,2.4318958219145363e-17,3.952266248291192e-17,-4.812949225691627e-17,9.295450402712641e-17,-3.1651328896385106e-16,8.318861063524187e-16,2.0008229383137142e-16,-1.7393542486341436e-16,-6.529791824865347e-16,-5.3635219712222595e-18,-3.3967952011843942e-18,-5.46240430288125e-17,6.530966569744046e-17,-3.4086844400880445e-16
7.0,-7.352291718468568e-16,-9.185785779057838e-17,1.6138741643762854e-16,-5.051708868624541e-16,4.424640813942956e-17,3.427161855930905e-17,-6.928415220893427e-17,1.0809534107527099e-16,-3.908099989034179e-16,8.727963768808404e-16,2.1536079032922468e-16,-1.5582607587109448e-16,-7.097391269851854e-16,1.1125881789998979e-17,-3.366532929306182e-18,-4.408899526015411e-17,7.93693177200155e-17,-3.412106764377797e-16
8.0,-7.521015214822239e-16,-1.0377262771911847e-16,1.707501528046453e-16,-5.102905711192814e-16,2.748032117704856e-17,3.343541657150643e-17,-4.806404926942195e-17,1.1396131462990393e-16,-3.6555717267265965e-16,8.890700027463051e-16,2.2802120286412216e-16,-1.3958488013690745e-16,-7.14840162803062e-16,-1.0063033017845456e-17,-4.067374272150084e-18,-1.926400030664092e-18,8.451518735256852e-17,-2.7323431091014735e-16
9.0,-4.958192110061646,-1.3423153012990952,6.583794951438904,-7.25036382675171,-2.4671389162540436,-2.373904064297676,-2.8348150849342346,9.841282367706299,1.0189894586801527,-1.791999489068984,2.2058907151222233,-1.3823315501213074,-32.2389554977417,-0.6720858067274094,1.9202417135238647,9.256473183631897,11.760412454605103,0.23303821682929962
10.0,-3.0325997720098434,-0.8360210033633945,4.7825057963515,-5.7458077889063475,-1.0000309666896217,-0.05352695803126073,-2.568729055110491,9.618290029828364,1.5117802381826464,-5.578069704114446,1.5088889926200653,0.7616085595755959,-28.07397884305562,-1.9085089407349851,-0.22610690923234533,8.521870272773679,11.559591137044999,-0.44984554476165006
11.0,-1.8472428285926448,-0.5327457438415504,3.2557462344076478,-4.5538418851533775,-1.121252965550496,-1.621473420902563,-2.447832973934487,9.423665852188401,1.687881291471875,-7.987589504440471,1.1022413905927708,2.129782473546262,-25.19870071861837,-1.3638770126234663,1.1686249195939449,7.990954195664216,11.358713092397004,-0.9572752396132205
12.0,-1.2652766468228238,-0.3560275656026979,2.6663496316891804,-3.80812177172914,-0.9886985645870365,-0.2966366583790516,-2.397967490295026,9.248642164556944,1.6976073905949234,-9.504653348857397,0.8636218945344685,2.4433201511809144,-22.95804971234328,-1.249181734966673,-0.020765555873423214,7.608875047118758,11.1560491524098,-1.320223584550545
13.0,-0.9625123488309608,-0.2603548390388666,2.072104282167781,-3.254905609717626,-0.9403992443721154,-1.2267332393050339,-2.3725865330560603,9.082249007306103,1.644834567541434,-10.482454907406954,0.7176598477195781,2.6558959564860376,-21.163994480620104,-1.110459535727495,0.8241702696797697,7.326710874984322,10.955070238369732,-1.5735641407111631
14.0,-0.8834403090305987,-0.21536890022872357,1.907287141241766,-2.8616816868844266,-0.8962943871448852,-0.46545882673392636,-2.3526083749947806,8.921562767639255,1.567365159103122,-11.04851714099013,0.6236778439201578,2.4484225501207977,-19.698231296178108,-1.01009717038159,0.15316950170236332,7.112937573028139,10.756741162605977,-1.7501721517888886
15.0,-0.894477724867369,-0.2032928856925902,1.6708226357345213,-2.5415637213131363,-0.8640745563126706,-1.0109409248444172,-2.3295565969567065,8.763556965377454,1.4904826931043584,-11.370870070421383,0.5554861371546633,2.306862162100641,-18.448885315962734,-0.9300240969099723,0.6584144989168661,6.946424867642172,10.561765447701967,-1.8677204290858807
16.0,-0.9882851621868962,-0.21154867387772502,1.6399700805076796,-2.2871877321965766,-0.8373102350980131,-0.5703339900349822,-2.3012272074752955,8.608002099553579,1.4186442081336468,-11.492000858573522,0.49982816079783743,1.9996166257522838,-17.375576259118617,-0.8619411825662067,0.2770217011981535,6.8121992463817085,10.370376984787963,-1.9451190097268043
17.0,-1.104022091190204,-0.23323776169589872,1.540037943207583,-2.0604269157055244,-0.8141586841624455,-0.8870280034737796,-2.267536043683219,8.454068098403777,1.3568814335533104,-11.493889698402153,0.4484324110221787,1.782135469204421,-16.423689631372902,-0.805739317157289,0.5761569902312822,6.7004555011446545,10.182641524074269,-1.9916254715114272
18.0,-1.247402920405876,-0.26293108915091645,1.5418889962769606,-1.863349835230717,-0.7934017481333053,-0.630012892079407,-2.2296581462213663,8.302115159278284,1.3027572168170445,-11.391505061969852,0.397460290727798,1.502714205073747,-15.576583490092549,-0.7558427070226914,0.3584314969069391,6.604092256950095,9.99849203686472,-2.0173888852059543
19.0,-18.983158407667837,-0.6267601434846638,4.049618745399372,17.137369547222036,-3.3020743730716395,-0.7111796918655502,-4.73959465652484,4.1215613754004705,0.5084274951553804,-7.318645460556319,-1.738260127934321,-1.8172293246127103,-23.58995796987339,-2.9205308303211415,0.344178604110458,12.420415432104551,12.188755090644563,-1.8746140004210143
20.0,-18.69368634850497,-0.6750370992817329,3.8702262922499227,16.066415181492864,-0.3362912561324123,-0.8788918963458323,-4.348651175538903,3.991061248489478,1.0810482224616922,-9.189270222993617,-2.147812601431289,-0.417374260575778,-21.492932279513685,-1.5937065923920748,0.6890924952800079,11.802587092816797,12.002136862458226,-2.374741875099197
21.0,-18.364335351047007,-0.7091957386444268,3.6585334836226373,15.575395440449011,-0.9235207325430559,-0.7242854729448378,-4.135347516866482,3.8858238291516827,1.3780322764116577,-10.450259319256668,-2.413142752799775,0.19819782681650366,-19.720245152816343,-1.6762710203776001,0.29315532182213677,11.382301720804843,11.797934108591134,-2.6546365994617718
22.0,-18.136322966609857,-0.7543548138294491,3.4572346529609757,14.98457059170871,-0.8148055438862203,-0.8139167872899351,-4.030667600167164,3.7994500465178684,1.5042558491152371,-11.264502539979482,-2.5776120520212205,0.4748025990253746,-18.36360172752184,-1.521847776228673,0.5231343943409892,11.075869959140384,11.585573591409506,-2.8139532055036796
23.0,-17.92756015364975,-0.806349136827919,3.297238629261411,14.443828808066558,-0.8454341021680531,-0.7219196091113518,-3.977497278093869,3.721479146073285,1.5512827057986083,-11.77185913317369,-2.692706990176118,0.4649898218318027,-17.258972755425706,-1.44496665802863,0.3144577480092683,10.83991193571057,11.37168424357352,-2.8986314662004835
24.0,-17.720046655937207,-0.8632071076431593,3.134406363570559,13.933073630492768,-0.8477872053607003,-0.7688410044997487,-3.949376994147846,3.6486902701424166,1.560052162525857,-12.077037290704174,-2.779070142102891,0.38700336387255163,-16.335640596012333,-1.3741988488639336,0.459884308646338,10.647049581850432,11.158391887990714,-2.9368441810767774
25.0,-17.504474234687187,-0.924635288735552,2.999542272848883,13.456250744356959,-0.8544910094352507,-0.71179120510775,-3.9322972386265427,3.5783360815611625,1.5521395031749705,-12.228130366404436,-2.852765924303333,0.21863099406272246,-15.548274257689425,-1.3163493447193368,0.34745294125608117,10.481304193003293,10.947925950003071,-2.9467623826760336
26.0,-17.274400044910397,-0.9884171649784332,2.864706203643311,13.012086736555979,-0.8582770438713467,-0.7340804566262693,-3.919158017087706,3.5098638220843563,1.5380243910236002,-12.275477458922706,-2.919349024638774,0.05984141249244823,-14.859773684801699,-1.2670040799000215,0.43625179361305366,10.332752961946985,10.740461249864005,-2.9380414955033025
27.0,-17.03080522525869,-1.0542249701719597,2.7479490719953024,12.596940764848624,-0.8608972821738896,-0.6969757555403682,-3.9067800765308514,3.4425302056879428,1.5222446292545284,-12.23947230626707,-2.9840290595028156,-0.11920567385202974,-14.250768471436679,-1.2235588591722437,0.3748057811960508,10.195455373954019,10.536687583622147,-2.917712466506451
28.0,-16.773310960897653,-1.1205728435279227,2.6331674069541187,12.208574815189039,-0.8618334861434542,-0.7051953115799285,-3.893627133660542,3.376486110523704,1.5067603213928729,-12.145809973798277,-3.047365111497409,-0.2715412582097416,-13.702459498851223,-1.1852487972766466,0.42773664165367253,10.065617557645327,10.336321617114468,-2.8892595317421605
29.0,-16.106240111938856,-1.3326953723797277,0.4619613398220501,3.792302090356554,-0.9560409388710038,0.7300393956940393,-3.836832277952648,0.6430024553578937,1.8368522406241177,-6.568609288976936,0.8934592433254407,-3.874328540070627,-9.209256396111218,-2.7918457840782853,-0.11362515773432769,10.33742676593787,6.760246492106596,-1.1913106742353965
30.0,-14.879492896471788,-1.4318003984160652,0.27300135651938806,4.357440092603854,-1.313440942873445,-0.81516123072362,-3.7623018307917104,0.5763743244436168,1.894051909382865,-6.861894280566087,0.5411037853123375,-2.6622088828885015,-8.761495584309728,-1.2709266648484805,0.7171235768264823,9.88278330063802,6.687886155668334,-1.5877352940892313
31.0,-13.989691049204033,-1.518681278397437,0.506940144668099,4.659671972064915,-1.1783974758504692,0.37022940196642123,-3.740071521083654,0.5321037550502967,1.861444964736318,-6.960045299329755,0.2971088980652481,-2.106858555058193,-8.2535261074675,-1.502704415421813,0.003857301224423515,9.562162954906235,6.593702430457006,-1.808386175623931
32.0,-13.234954410414625,-1.6077233577977588,0.46367757700893897,4.8877685883106405,-1.1500199081066804,-0.525640118560558,-3.7339169472940963,0.4969670795116303,1.803727713824444,-6.9074186671865565,0.12548943837627702,-1.6823141580601906,-7.922674564145428,-1.4063117858760261,0.4843601279587414,9.316617435045506,6.491105184609094,-1.9304212219333612
33.0,-12.634928899351632,-1.6875588065459408,0.6388355708405866,5.019788100637934,-1.1132393966714176,0.15618631368456443,-3.7301101204471143,0.4698481935511052,1.7378132662507733,-6.757215422857011,-0.004609666356386821,-1.542510046909431,-7.66122538437806,-1.3862527210993973,0.09444820899267992,9.118502268107473,6.381600838638367,-1.9891311429158787
34.0,-12.102962298055273,-1.7643963094003814,0.6401449888921285,5.107353747219103,-1.0836150831944091,-0.36107568941139323,-3.722695662622093,0.44634636983286846,1.6780653360428297,-6.574779863376602,-0.10769181545214002,-1.403413866617039,-7.438559289717478,-1.3581538929525747,0.3697761520229038,8.950275093492793,6.269328583145015,-2.0065667439259594
35.0,-11.655060485895069,-1.8328943219765634,0.7566160854787034,5.14370375502129,-1.0588469480387839,0.031584003089695334,-3.7099007569273974,0.42668746992760553,1.623959823432517,-6.360174354563621,-0.19438575547185,-1.3854361110232496,-7.243979025928443,-1.335166757521769,0.15495879402045054,8.8006613081859,6.154748968323405,-1.9987577108684333
36.0,-11.245955072327604,-1.8972025223314146,0.7658635096044488,5.15474214863587,-1.0360083874908854,-0.26609066478599946,-3.6918187188399947,0.40894096313744255,1.5781827265282957,-6.143876856686543,-0.26925612084888595,-1.3445421036810563,-7.060388092580844,-1.313662530012639,0.31056203512231184,8.663336441855634,6.039725619619753,-1.9739645310926617
37.0,-10.886860230469576,-1.9545541342509019,0.8361230178872701,5.136009867306732,-1.0163970397183744,-0.03948472510592982,-3.669115036205687,0.3935231509738881,1.53774619759809,-5.919677800639191,-0.33647383739254977,-1.3572775185271908,-6.887650787638687,-1.2929971984061153,0.1919333644579403,8.533853850937577,5.92426673033132,-1.9390161825310976
38.0,-10.552679519111965,-2.0077433036483257,0.8410576535925847,5.101929485581471,-0.9978786506464639,-0.21007493196151306,-3.6427091705548285,0.3794485559175538,1.502885811937972,-5.701691157049327,-0.39732829294245153,-1.3491217283309833,-6.718516253102877,-1.2731069243343311,0.2788474714110415,8.409852662674815,5.809319823843851,-1.8971466199187808
39.0,-9.412570586459475,-1.4504846214178349,-0.8734087985760297,-8.158677842879554,-1.2197660467405242,1.8304487256452793,-1.2432410789734907,1.1968390134146238,1.3171391815816011,-4.1429002232035534,2.1092178074092294,-3.1698658898506817,-9.001270571001381,-2.9270542965785533,-1.2470838824238093,9.402682257475622,6.560660337416136,-1.18548111318571
40.0,-7.738179994346215,-1.4504394511804979,-1.3713164977504197,-6.682630372945765,-1.731543387017933,-0.42735370657779415,-1.3270188046731273,1.1473787929597088,1.1979886295026558,-4.6059202468099825,1.831431073833155,-2.0277298406904185,-8.379112332703368,-1.73301330395594,0.5864906039764421,9.096961712015121,6.455556122558043,-1.3559301817066722
41.0,-6.624861457117095,-1.4832376578785373,-1.0934926262857503,-5.689476944761598,-1.511182604728417,1.301099715453945,-1.3998626453069554,1.111068942886134,1.0605192685817535,-4.7397257326886475,1.6355557604935838,-1.754115110681247,-7.807645399140842,-1.880010032599154,-0.8384896081833131,8.857318464566827,6.342670191690013,-1.4629376869650836
42.0,-5.755284832529796,-1.538933396728499,-1.1364853722778223,-4.868287179025645,-1.4534111742034654,-0.010241489946952953,-1.4501709012203199,1.0802870136499925,0.9439968013430269,-4.725727779534171,1.5130056564294936,-1.4052063448800478,-7.399867024886738,-1.7877488939419206,0.1926520473954485,8.657142766212512,6.2263726487463265,-1.5240958051419087
43.0,-5.137084973372247,-1.5970272852728271,-0.8220104515113578,-4.232197186062026,-1.3875441949210736,0.9693239968390093,-1.480392715082389,1.0540181072781296,0.8449023050645995,-4.568523726786452,1.4140606937962703,-1.4269798763997832,-7.079486441064308,-1.7544627082655144,-0.5804006646434091,8.484126266309257,6.108007664459522,-1.5544849164364214
44.0,-4.637354429843498,-1.6569458002920596,-0.7394198023193228,-3.6962386294673646,-1.3330669360199434,0.21025154724192152,-1.4940974252425492,1.0303789613253356,0.7675599012449998,-4.388801771874072,1.3428747942135373,-1.3292866343140837,-6.793988394298147,-1.7191951131101844,-0.00510734399065782,8.330450988425838,5.988328532103489,-1.557830640274101
45.0,-4.270119357821958,-1.7104521089251739,-0.4851712887000872,-3.2615977142056662,-1.2882733834956817,0.765058356583271,-1.4950632981914236,1.0092407951774116,0.7043953533581271,-4.1570302961862,1.2780342450036324,-1.393896585279828,-6.544808115649239,-1.6872130033157835,-0.4245034769768315,8.18973832701918,5.868194811336226,-1.5450257246038461
46.0,-3.966791432894336,-1.759972524470462,-0.38504727126042315,-2.8864694049291195,-1.2469443689011976,0.3260501418428132,-1.4868042553966745,0.989763385495221,0.6548648583415847,-3.931448684559654,1.2256980721967161,-1.3702653425781035,-6.305694103241738,-1.6583007954597222,-0.10581844237846949,8.058722505117185,5.748042135208392,-1.51815985615707
47.0,-3.739119470647381,-1.8019503169523947,-0.2016888060404427,-2.573237056909477,-1.2117149964936837,0.6394707870976866,-1.4717899414847322,0.9720118381839495,0.613623204627673,-3.6886860194857007,1.175422050296894,-1.4216563782935658,-6.083217509684889,-1.6294861779842829,-0.33223657215593955,7.934271181260714,5.628294908413789,-1.4833880732747744
48.0,-3.5491546733300687,-1.8390704493033816,-0.11669357277264147,-2.2987375815038096,-1.1786966088533948,0.3853211744407399,-1.4521666164972538,0.9554699264752777,0.579982378209739,-3.4575993075304456,1.1318450572709402,-1.4178304781950333,-5.8653248771568585,-1.6023326347028726,-0.15636465181085613,7.814937078174891,5.509281226221447,-1.4417998893557744
49.0,2.2266035110597375,1.9442972920854547,0.381614592514504,-10.142690613961623,-1.390324403765403,1.4450154517553335,-0.13540114104713274,1.2146827503856583,-0.5630658260887427,1.3696462128690783,1.3859363172091852,-1.890135404065659,-3.6163380443277084,-2.232081665761651,-0.26049370486029355,5.894037140640151,3.8646883778687213,-0.6434437310094778
50.0,2.7247397630697883,1.9225363928045938,0.16239637026767673,-9.324871786889116,-1.5724222245101551,0.21581067793887354,-0.05016859351356606,1.1778695695246921,-0.44049016926079576,1.3934145761713346,1.2984145284569126,-1.6965382970620277,-3.398107577031208,-1.6132310463871833,-0.14595417238257036,5.79182014120531,3.786773946210892,-0.5912481520754826
51.0,2.991809333085259,1.899324309453543,0.3238393599234479,-8.716171060231062,-1.4654969288916262,1.1421709108108056,0.006949896231881025,1.1508765911271235,-0.3857062485451901,1.4667663060685392,1.2406659265437736,-1.6236743582716997,-3.1289540496456745,-1.6892164683127469,-0.23159617875616628,5.694652930969808,3.704971754839665,-0.5445550735025213
52.0,3.1803297493199043,1.8612310541041737,0.29930175922537083,-8.179243840686421,-1.4248537472023992,0.4286320529277592,0.049561790996083044,1.1249081501381824,-0.36104345607379335,1.597487539116262,1.194542883293931,-1.5904289180339202,-2.9226873663995505,-1.6327844208486493,-0.17045034493016642,5.59968725389651,3.626257899164024,-0.5051710570012986
53.0,3.2643884364649765,1.8286091823102169,0.45632904991451806,-7.729882431795096,-1.380414469260304,0.9520951748145801,0.08507991614920818,1.103244702043583,-0.3562566698683167,1.7472502436930615,1.159585975926122,-1.592178878401599,-2.7326148138488264,-1.6078439738064607,-0.2081266860557206,5.50683414957917,3.5461653548194345,-0.4665847211543337
54.0,3.3130993453207775,1.7918189606063293,0.48641948849131067,-7.325174292543265,-1.342408648740082,0.5385323620064684,0.11608692810012933,1.0818465968402706,-0.3592319676455452,1.9039398087018373,1.126784981664703,-1.590382421596252,-2.5561556147796765,-1.5781563070108509,-0.17574908809484235,5.416439304105717,3.468090115053286,-0.4284527611380309
55.0,3.3076188161566513,1.7611433920273225,0.6061725890520089,-6.971778022951176,-1.3078004230377087,0.8329956454219432,0.14492056240786266,1.0628178257520613,-0.36819887798763606,2.059889281555445,1.098796520602325,-1.5961183750417938,-2.387863929627091,-1.5512571247954714,-0.19172153206337872,5.3279137634480405,3.389594712990567,-0.38934969979025125
56.0,3.2848809475299205,1.729853296382974,0.6442733725285326,-6.6474741221585845,-1.2759937764069433,0.5927733823033963,0.1719156566779283,1.0439509486499494,-0.3785425973395008,2.2115525930906426,1.0712350608470889,-1.5947734757516292,-2.2261202622886955,-1.5242532212702402,-0.17467232323772142,5.241374234402187,3.3126914444601976,-0.34986277401598453
57.0,3.232669480089804,1.7034247920649732,0.7270685675187698,-6.356654068805538,-1.2464253738462951,0.7570359415145036,0.1978903080889145,1.0265166091153914,-0.390445392276321,2.356870879123722,1.0462605997133068,-1.594388325902801,-2.0697947583161884,-1.4982344871324922,-0.18050023800858167,5.156376540404864,3.23599269312059,-0.30964691772641384
58.0,3.1717325606317495,1.6774387270561097,0.7588755799922109,-6.086694089394166,-1.2187740132980731,0.6166537152732814,0.22272744628113772,1.0092495495293186,-0.4019438080279552,2.495271089497452,1.0214798504949147,-1.5892008233046466,-1.9186507184485713,-1.4723301249414673,-0.17126564464019756,5.072913329378219,3.160703787030789,-0.2693309489092375
59.0,2.6850292311449895,2.478374420901141,1.897734930315723,-7.804144532725793,-3.5983195518350444,2.5981887746535564,3.5691053767678924,1.3895013704853056,-1.2093971711621736,4.1566372238791125,-1.0917785563542437,-2.525792716426494,-6.485255011532185,-0.8963772957108636,1.2271984224327939,6.784306612674172,-1.94963326047574,-1.0934319467894635
60.0,3.0841331829569434,2.513141901262022,1.2738825394700664,-7.443399552946927,-1.7564603530005605,0.20919102012525803,3.4267493054396336,1.3602985601410849,-1.369781017944874,3.366728868823931,-1.2541522724497391,-1.9999614430972246,-5.423413926186896,-1.6151983589762802,-0.314791842651738,6.638975148257053,-1.9068659977302165,-1.0314883742297947
61.0,3.262255306855341,2.5520402412395677,1.3402520974198673,-6.945244215168181,-2.0359584702634677,2.018709864227011,3.3245945477189602,1.3428615966474338,-1.492096689622994,2.9221464030295303,-1.2921609707947828,-1.6404637231669899,-4.783014050542608,-1.3768274752357335,0.7647009838257605,6.504368767928996,-1.876546621390418,-0.9841127600324304
62.0,3.3653633397074003,2.534424128762531,1.0951428391288869,-6.568664145719527,-1.9261217916921018,0.6440517860069255,3.243884994437447,1.3164381453276093,-1.5773296952275244,2.7241994879395115,-1.3420180859788555,-1.6737751464277029,-4.285473654549083,-1.3472287666143323,-0.051419277101654504,6.379734040405095,-1.8363620279351367,-0.9514886791807098
63.0,3.338477602186277,2.5284393129770653,1.21673178164037,-6.270405374463801,-1.8949394390168268,1.6653660872885219,3.184734360305466,1.2969586084168179,-1.6388114539855174,2.5957179019532663,-1.3465656806809418,-1.622449671669279,-3.8744119875915644,-1.2995809432351635,0.5410849061688592,6.262230748994092,-1.8045724305423394,-0.9138606814968973
64.0,3.311195569700974,2.4974908552101205,1.1213718954003409,-5.991066234849663,-1.8576471275481299,0.8739175327901516,3.138709735474866,1.2716293259891978,-1.6743397898123487,2.5718476644386037,-1.3694228907881159,-1.7103491950182201,-3.5378984774372135,-1.2596903835776874,0.1021026754855533,6.150325071332379,-1.7674956864547076,-0.8798910809140992
65.0,3.22377576638986,2.4773847644091207,1.2155385475799716,-5.75745953618225,-1.8217399925003175,1.448474723265647,3.102976176353364,1.2503929265838645,-1.6975203397050223,2.5656383158948497,-1.3719551585318923,-1.716100944527457,-3.237501490374992,-1.2282250922063431,0.42408366076738685,6.043515503567816,-1.7357695546540075,-0.8400992172041994
66.0,3.146309296848857,2.445429984783868,1.1744996866248392,-5.531129885793328,-1.7905309333574633,0.992481551912634,3.0729034437716147,1.2261300522872607,-1.707441844222306,2.6074009411435224,-1.3870982057187287,-1.7773249617410416,-2.977304916314953,-1.1962839056552008,0.18688798133885987,5.940691753003314,-1.7016007654495828,-0.8010821172224039
67.0,3.0401766630195954,2.4212461456516956,1.2336845355748145,-5.331578054234017,-1.7581124915155297,1.3132066948176897,3.0471412851272097,1.2044834238904336,-1.711774501317899,2.653597571188712,-1.3916724033621355,-1.7857544715503009,-2.7385006643849223,-1.1695448543838851,0.3604765004926376,5.841557549854841,-1.6709526138435922,-0.7582820711511058
68.0,2.9437814429535116,2.391181247574729,1.2119518440892252,-5.137424036184168,-1.7290238644269773,1.0493671417427848,3.0234319614884337,1.181440511928498,-1.7096291559850396,2.722678244572262,-1.4035803307842256,-1.818294145471155,-2.524470330777511,-1.1424821236296254,0.2319514652163579,5.745292517083662,-1.6393947165463847,-0.7159024424375879
69.0,1.997486671407092,3.641835521596861,1.6731486555273922,-8.462289024097633,-2.6518428157233047,2.7729969582232092,4.305473624533455,2.0600589483521534,-2.1280449115104654,6.47763794678994,0.9189377015638187,-2.7277722092039314,-2.8552890786580214,-0.16547498173315578,1.0452642517942823,6.550039069905166,-4.792596071336776,-0.6724773991915101
70.0,2.6465919594370373,3.617383203909326,1.1631972492584137,-7.7978613404924815,-2.0669422149468546,0.7428057661649294,4.275437931084444,1.9899814968760756,-2.0550127516868204,5.735188780798529,0.7085653796329612,-1.9561093557591969,-2.014175278895923,-0.9899047156151939,0.1459019938917403,6.340555945148086,-4.669243253763188,-0.7089346151172149
71.0,2.9721820998753348,3.5979190066881737,1.2671852828486645,-7.262986452393179,-2.0897240115266746,2.262200584440245,4.224981410527046,1.9386976148288109,-2.0455307975342447,5.387472576318882,0.6269500044353316,-1.6231312486721663,-1.6197124064480626,-0.7499017202552545,0.7485878588861861,6.16896751200804,-4.562058921706559,-0.7246956102135518
72.0,3.2089850276282164,3.536329003662725,1.1028758376559464,-6.819702676072726,-2.0227080790675385,1.1046067912070692,4.169814326713952,1.8849016575705302,-2.0464349983028733,5.229873353783789,0.5472133294424579,-1.5898409737434678,-1.3206693871698043,-0.7470258799165153,0.285163211873402,6.021149646588279,-4.4518832426375745,-0.7279851205423784
73.0,3.301811374874026,3.489081857349496,1.2368797412742971,-6.475232370612151,-1.9751747842960348,1.9481880425922773,4.119084739164208,1.8393746104154727,-2.0528660026521863,5.136207831846352,0.5059267621306849,-1.5578231910115052,-1.0889300637264192,-0.7148937527735502,0.6153132249145323,5.889047078201353,-4.351674314654585,-0.7130654430602072
74.0,3.372970834194099,3.4238895542928693,1.1878207344149314,-6.161585779639893,-1.9364277253525022,1.287877358552758,4.071775832144253,1.7916834625083737,-2.05271679707012,5.110286302661473,0.454334712280132,-1.6042864754496557,-0.9022214058413667,-0.6926386784425791,0.36794729557107764,5.767246276141551,-4.250541980267528,-0.6913877049526826
75.0,3.374074441953452,3.370873894885584,1.2871273124867155,-5.90226482159933,-1.895682292074167,1.7534200227892112,4.02872113912362,1.7487789987008706,-2.051159447528608,5.096114828952002,0.41914420473369374,-1.6126726885188445,-0.7370548420755689,-0.674717329943509,0.5453834569294949,5.65379650604692,-4.156132573405141,-0.6591970713441739
76.0,3.3689845239882406,3.3100147236917508,1.272497731184373,-5.659656281971277,-1.8623745222138113,1.375662870862886,3.987886843781321,1.705102566471433,-2.0443267219960966,5.108817759051064,0.37647917965654587,-1.6456532443683907,-0.5938967166888638,-0.6566351938764292,0.4115171768420718,5.546184934939358,-4.062344927324982,-0.62364473682134
77.0,3.3270975464313928,3.257692493239749,1.3334372394114085,-5.449476599265283,-1.8271635210416806,1.6294136980243912,3.9492955211792267,1.6646154557009432,-2.036165032906986,5.122403377573744,0.3424712531901859,-1.6514541758976016,-0.4622839438568178,-0.6414681250446874,0.5055113230130489,5.443654585343168,-3.973437282368345,-0.5827763514471294
78.0,3.283353874803135,3.2019304370711716,1.3262421460755962,-5.250871938370283,-1.7966775125929102,1.4114720004679402,3.9117029128812377,1.6242259267347698,-2.0248686469015205,5.147101112221624,0.304362559543069,-1.6665715684974867,-0.34383874281368776,-0.6260010012932784,0.4322005577156024,5.344827297057405,-3.8859532021121748,-0.5407155094079537
79.0,4.250378308915552,2.783052869936689,0.8574564968543399,-4.300201972192804,-2.5102653925511236,1.8110384444846996,4.17283834293724,1.2918953845914496,-2.2425098570230704,4.42981226842058,-2.490385090040493,-1.2832002555954904,-1.228167200357646,1.274828163126299,1.3484994038648397,5.700974307884193,-5.424463689549299,-1.2848610767175925
80.0,3.8834290078866154,2.7139333164513584,1.0328978432452511,-4.427565911187768,-1.8308257380739201,1.423595244678832,4.127284844271104,1.267111919452291,-2.2575755765820453,4.509105382204718,-2.4770276024419133,-1.6311614734878033,-0.9006752863224108,-0.2754166564703753,0.34092423881956524,5.6664114403947625,-5.3150032203096025,-1.1306348005772093
81.0,3.6219091152695544,2.6747546726641587,1.1666462097758856,-4.383405052139231,-1.9361831934181368,1.6656472461522096,4.092167884527899,1.2449991853193856,-2.2506699905424252,4.602099073910161,-2.4372533414472106,-1.7315830913632153,-0.8580895232013148,0.030413749159439285,1.0667887957375803,5.6080671615471775,-5.211305128236432,-1.0107385020590274
82.0,3.4251744404883855,2.6331347428694034,1.1923120959624245,-4.322190981864631,-1.8930918163511974,1.4462520660386367,4.058964744150203,1.2185009518237546,-2.231868428176633,4.6544166685160056,-2.4416852939687175,-1.8203530121647207,-0.7349716856482438,-0.026984066492995673,0.5406370213902143,5.537782517151246,-5.1050647460912115,-0.9136983520764386
83.0,3.2486934297302295,2.6053056985465934,1.2279919025263641,-4.246235666157045,-1.8713470088252246,1.579434707984726,4.024768861671658,1.195490911947505,-2.2128066083805207,4.669262811059529,-2.4282758480371767,-1.8010232542049023,-0.618813776892825,-0.00993270797865986,0.9102169863980878,5.461975830878432,-5.004337711631433,-0.8279373645348513
84.0,3.103047187893111,2.5735029490086023,1.2146001312060783,-4.156236055810053,-1.84709025421474,1.449749939398159,3.989530426423949,1.170756047873279,-2.1912151816222183,4.6967186268810135,-2.4322924978208578,-1.8207555101363733,-0.5105038706250902,-0.005765427372505405,0.6338635706928879,5.381371713358217,-4.903292855488404,-0.7562573874023539
85.0,2.9651716923584823,2.5479801126483137,1.2153908286253028,-4.065107639684495,-1.8204621413337505,1.519948121962329,3.953113079161345,1.148311458805785,-2.1706717108913702,4.707376310163126,-2.4252379018486336,-1.7958583337654686,-0.4061996644802939,-0.00018434583878484956,0.8216131575451302,5.299244725696553,-4.806343937688148,-0.6905586306564291
86.0,2.844234034721554,2.519513902015553,1.1931558387953816,-3.9687182046435385,-1.7957251359872086,1.440800140461476,3.9159426968472104,1.1252537733826373,-2.149049401074941,4.727108009417556,-2.426518852351662,-1.7953010379933838,-0.31164827607488377,0.005376896953403598,0.6755108650673451,5.215479096588551,-4.710288184317804,-0.6326632330584339
87.0,2.728352486690987,2.4940438929890436,1.181869357576399,-3.87402066275369,-1.7694045694789482,1.474695060330654,3.8780637768857353,1.1036968453099725,-2.1280032919001015,4.738196335097699,-2.4214522885149834,-1.7739992858585056,-0.22199903662832554,0.0099558267869998,0.7693649687040922,5.1317513293739285,-4.617462149628543,-0.578167377348592
88.0,2.623174542333002,2.4667207199390537,1.1594098547353666,-3.778109757937047,-1.7445183936235185,1.4241961698468106,3.8397257670376073,1.0820822455892918,-2.1063177104037143,4.753354009037763,-2.4204693276674263,-1.7652054534369928,-0.13980727386597103,0.014585723519485783,0.6908651335243488,5.047897714413034,-4.526131912981365,-0.5280857754529154
89.0,4.91634112720423,0.5326444397471644,-0.30660714305966597,-4.195846896118873,-3.078524849172201,2.0410165335879316,3.015208713882699,1.5710958694294233,-2.170601700680998,2.48193928271147,-3.958736766372234,-0.14996982999381459,2.3178157899447545,2.1725089089754666,1.7384008752355637,5.390221648329764,-7.546931820961555,-1.4475183259283553
90.0,4.302886032963108,0.44006174334837866,0.06437878694084143,-4.473129890274933,-1.9755237823104181,1.419608447984133,3.020448872445698,1.5455098787859463,-2.1347909662006614,3.402246267142422,-3.83070275431017,-1.3366880777993204,1.9106656397912296,0.6386260801463537,0.5103088489276235,5.400204447029806,-7.392585399997052,-1.294519829957669
91.0,3.9532583217147597,0.4120360229564868,0.3092029919754571,-4.430534052224116,-2.1642257921538945,1.8143085457356247,3.044714260432655,1.5194493026215623,-2.0595278717986796,3.9220915104430105,-3.7288588303371806,-1.6428306976785652,1.528086354832622,0.8529662841676976,1.4188495434759678,5.364327123875793,-7.247329912131287,-1.1651765467202333
92.0,3.729003893046775,0.3864683868095278,0.37036098154286057,-4.356856459658543,-2.10548031844118,1.4760462699514614,3.060865948590476,1.4871766081567275,-1.9862993789061087,4.230058586577781,-3.7032811039285436,-1.7375022342963686,1.3534680139846351,0.7598668939529807,0.7676214263437804,5.305433088390961,-7.099272655413625,-1.0602014897056553
93.0,3.542252299911361,0.3852268029628405,0.44094539369778385,-4.260841159070255,-2.0811707976593157,1.6933083275307088,3.0647892114097472,1.4603074183715905,-1.9310758690763845,4.4020621406249125,-3.6575931611496384,-1.6711133314464561,1.244789356816426,0.7472284811458848,1.2216550882146315,5.237809290883678,-6.9596331603056285,-0.9645994680838639
94.0,3.401002892345536,0.3800066013868739,0.4364580690234019,-4.146330145090676,-2.053365665810163,1.4998437764799153,3.0592035961812742,1.4316675231589744,-1.886219000960033,4.534703482207362,-3.636535944616293,-1.6369442874924216,1.174014659195036,0.7277382100233865,0.8802049885584597,5.162203248184781,-6.820144008773093,-0.8853394889338009
95.0,3.266764260725,0.3850516966698476,0.4547752395926843,-4.034296000355791,-2.0215170798986755,1.6156059668411804,3.0463229507373017,1.4065280585186009,-1.8526387819330976,4.611251128081394,-3.6002200980644776,-1.565570169414499,1.131039430705453,0.7136428962790283,1.1077279733926049,5.0837878040644835,-6.6866508411034165,-0.8124176149856339
96.0,3.1528310732315434,0.38634157574198524,0.44024871356874673,-3.917510479261429,-1.993346209837921,1.5017427951081381,3.0287028056312013,1.3807675999859934,-1.82404993790065,4.672573668848549,-3.574959006588129,-1.5272989848956553,1.1023357232499755,0.7014552336830189,0.9275781935923806,5.00203141931922,-6.554648385481222,-0.7492481900984178
97.0,3.040930021947636,0.3923015413298945,0.44330888388485623,-3.806362463117507,-1.9625414890696224,1.5598355613996038,3.0075990878861427,1.3571032408126413,-1.8006367939859198,4.705156162344359,-3.54103074935155,-1.4772145079457846,1.0868975256401612,0.6904584774949606,1.0396126826229766,4.919553545006316,-6.4271981781154,-0.6901385403893735
98.0,2.939931379022938,0.3957118920495728,0.4308267446343437,-3.695474641232325,-1.9343787318632928,1.4902131375914345,2.9842171380215032,1.33334845616639,-1.779194569743138,4.728691712912063,-3.5125698968032255,-1.4462598624522243,1.0784723841215165,0.6805943910813471,0.9426275204914754,4.836021662686694,-6.301885596404396,-0.6367366596579421
99.0,1.4807114765950606,-3.4291557725281754,-1.3798063474842976,-3.5766867723687668,-2.654259821650377,2.174301916469448,2.781278179658448,2.275580750893579,-1.6068127568630008,4.167140716240368,-3.225468417890521,-0.6387310766059096,4.372332319795577,1.954203811785331,2.2019513999175757,4.4323965359470865,-8.747451587708241,-0.7744392386547562
100.0,1.3920339470895637,-3.4553641635532983,-1.1513888150304394,-3.5194891640438417,-2.03601100188628,1.4912306035228338,2.7251494464218706,2.237850294374626,-1.6364974939214645,4.731079731198154,-3.1583011092449924,-1.2853792203890277,3.9326311405826733,1.135297493382609,0.7339339891302492,4.412333006646778,-8.567248843772587,-0.664786431070946
101.0,1.375331345924237,-3.429484595465064,-0.9268375972014393,-3.3439463007802015,-2.1075568135503397,1.9465876982196155,2.6952343134460595,2.2052009628078872,-1.6257746265276936,5.000777010505448,-3.063166917070098,-1.3648783764311139,3.5532161720088418,1.2230182900045612,1.7806306282142241,4.366300778304396,-8.401156092657628,-0.5665513710980354
102.0,1.406599452446084,-3.414285071485165,-0.8501778889216112,-3.1731054334053184,-2.059073422558277,1.5684160005170624,2.671578289848827,2.165552183025917,-1.599377698903637,5.1628239636689806,-3.0357268398380954,-1.3833535206781127,3.304433295634647,1.154089599596719,1.0165538428593663,4.302658225377076,-8.23184701384753,-0.492410065722006
103.0,1.4149147769433945,-3.3757383019085174,-0.7389864803554717,-3.023155148450167,-2.0232317948960565,1.814536175550073,2.6469219550465364,2.1321094784220764,-1.577381039439254,5.220061109357367,-2.9749291101348376,-1.2972816845282473,3.1107647634083504,1.1306117945628114,1.5413995599081884,4.235467706067229,-8.072704604502434,-0.42178661165656284
104.0,1.434580698831743,-3.3447879952283968,-0.7001180371035125,-2.8767176532874714,-1.9931574907207494,1.598482258470694,2.621550855245164,2.0961417238355677,-1.554225673922564,5.2589706660427415,-2.941383902704379,-1.2597117491743544,2.9509560808926505,1.103591724033503,1.1439128411840098,4.162244019028163,-7.913654236571109,-0.3650307104593789
105.0,1.4323319820600995,-3.3022494624306606,-0.6362083273334527,-2.7513950473937356,-1.9578612379493707,1.7276337698403936,2.5946534638274277,2.064015275860169,-1.5354407361875846,5.250393163917678,-2.8883343742857983,-1.1936258057444475,2.819362261293147,1.0816255960475278,1.4052908042457073,4.0887554734799565,-7.761644310271425,-0.310663490490208
106.0,1.43178479463511,-3.2642534513168995,-0.6097696533058913,-2.632468705017679,-1.9289219427686422,1.601226734665182,2.5672013558238596,2.0309537896637417,-1.516500310285531,5.234107017825019,-2.8486018674869107,-1.1604326826528024,2.705279705564088,1.060803382597832,1.1959458015609048,4.013078592339264,-7.611287562993953,-0.26414028241880727
107.0,1.4165185453806552,-3.220265164429149,-0.568635395006589,-2.528799450427748,-1.8970392806007226,1.6652039901327518,2.5389741305833957,2.0002281863984477,-1.4998847553900188,5.1932542857504025,-2.798524393175354,-1.1167413874377838,2.6073573489807504,1.0420709890167383,1.3231565101003775,3.938136292119708,-7.466176525044419,-0.21932813789300376
108.0,1.4004801708801917,-3.178847216388508,-0.5478789942850921,-2.431352594326256,-1.8691463927963783,1.588517147776054,2.510480888679176,1.9693143725241216,-1.4831205965868626,5.147728189066404,-2.7552697184130217,-1.090910370699441,2.5202118210263205,1.024137358859089,1.2100630565229262,3.862841102397489,-7.323433951747067,-0.17906145643147894
109.0,1.124532798946139,-8.635351058974088,-3.1145710973625844,-4.044673134047955,-3.1919851195906834,2.681361697030352,2.0648426228847736,2.3176320629245426,-1.3360885039645751,1.5457627870031287,-3.2429893685209756,0.3276392156975616,5.046424474262434,1.6227339779606633,1.7603197716655208,4.245186099868848,-9.030087095691613,-0.7516622647844995
110.0,0.6759480816317325,-8.340679655214554,-2.954848421363973,-3.8288347980642063,-2.269626871791008,1.6925598058179627,1.9224772837101196,2.354074732816303,-1.432678387717272,3.4876638764665584,-2.569367443380024,-2.372413725182615,7.504584320856784,-10.5757738573866,2.723869916856424,4.7810317132618145,-8.924387140343411,0.043839551141328315
111.0,0.32135495009901405,-7.94500303158585,-2.7399730223175927,-3.376804773598753,-2.4219944398942124,2.3709201809458107,1.8745710037037868,2.3730960820822693,-1.365683204238506,6.9933639759938035,-1.8457592996288028,-5.014324098505734,7.483875962302651,-18.0,3.4286166072779496,5.298402937119013,-8.822519170413972,0.8150404508266544
112.0,0.20179388823258382,-7.519794982485721,-2.70052761443042,-2.890340978540575,-2.357653256364081,1.844146405170921,1.9124102774762894,2.367757210614754,-1.1683948377382478,10.562039395944504,-1.1606995398093947,-7.160544540476544,6.279337575054591,-18.0,4.013041691027695,5.672070831440478,-8.719461533626243,1.444931607888464
113.0,0.30560683215159834,-7.095080329268898,-2.538200997936932,-2.4313232693062226,-2.2906796068529056,2.1796662229086112,2.017132786897499,2.3377447603004673,-0.9007413213900305,13.078635785170636,-0.6315468124905026,-8.418342980794062,5.07135944882268,-18.0,4.4848205473117835,5.805661421693157,-8.611491644375729,1.820183951862967
114.0,0.5674869777281062,-6.689920083712323,-2.4292675990704153,-2.0052732076982664,-2.231454367301243,1.8884507580674237,2.136223602752735,2.2917663057701834,-0.6384694660085015,14.811933612110638,-0.21069598907017673,-9.062577206050225,3.8482735797357237,-18.0,4.862865801202698,5.782324559913567,-8.49933866782422,2.0317398888966602
115.0,0.8854259185302196,-6.289075592853182,-2.2545688778502866,-1.6483644613045847,-2.167108469479709,2.0549729282975058,2.2469984621897945,2.2386729680740425,-0.4153981236785578,15.947588845690996,0.13681260795142336,-9.2772070358095,2.6217170096245277,-18.0,5.157941627306879,5.6585503289091035,-8.387826752184122,2.14248222848725
116.0,1.2398128014221834,-5.902631710537399,-2.112083365391643,-1.3481592903322603,-2.1133786805954236,1.888324301885485,2.3385423783889743,2.1813022038286736,-0.24090532994310143,16.6226426747935,0.4305785766829313,-9.19263150825541,1.41477524851934,-18.0,5.385362636994245,5.47247569029582,-8.276583175746502,2.1914211121623905
117.0,1.5847255326461935,-5.522335185725683,-1.941129231610968,-1.1150179293179594,-2.059819433964438,1.9645073999095337,2.408719397752846,2.1233109833613257,-0.11478949879594547,16.941862352141207,0.6865147319180336,-8.901137974691316,0.24830949833614646,-18.0,5.555015236938395,5.250495242748224,-8.167638204301479,2.2054491235705926
118.0,1.9158582670447855,-5.153724531603137,-1.793866375741532,-0.9349957653254322,-2.0147280557555165,1.864223436914032,2.4576939938384283,2.065530952058894,-0.031010707001561943,16.988537561150668,0.9138672416178437,-8.471110448956958,-0.8597448111909254,-18.0,5.678361271380645,5.010409853437858,-8.060350086597978,2.200422082412679
119.0,10.727554736671827,-10.092227336233224,-1.1638733465522848,-17.244097990472255,-6.688805139032695,5.919204732841862,-2.258307740046523,6.117386569509877,1.129515700842603,10.534643713635518,2.4611496659086276,-2.5880230873430596,15.105502561443181,-18.0,8.508093190150284,3.8880060787001334,-11.258698349091564,1.478941078799709
120.0,11.235396018540435,-9.64577964140857,-2.3638103022570434,-16.04813559864626,-3.8085471676710707,1.2107419746800971,-2.229395471704419,6.0185823923937765,1.1419441380451447,14.28568557335782,3.0590812580947753,-4.309047463111305,11.318558362316319,-18.0,8.528418914723808,4.004201808134427,-11.059762664484802,1.6709995904660635
121.0,11.674522190051077,-9.131688055693532,-2.3279649008186123,-14.734936990617495,-4.108427515877835,4.594473235077464,-2.0639680669767295,5.904729283529875,1.3003591984311509,16.374468387191598,3.4705717346886824,-4.996729364302846,8.620477579178607,-18.0,8.509534002304175,3.9420739914380682,-10.884238862826905,1.7626544541973699
122.0,12.17314754015905,-8.746922938472924,-2.6458202421012205,-13.630522815497631,-3.937412734992277,2.1228815907482144,-1.88342209032009,5.771390597891116,1.4580768117729348,17.473057451502576,3.763637878717291,-5.113420731243927,6.622359864883787,-18.0,8.495598658744807,3.784504218182377,-10.702116983504016,1.786333516444903
123.0,9.855661203645674,-8.593494939143612,1.6090343716934266,-12.603384306120898,-14.122050051349225,10.09952303918585,-1.3526515915535664,5.574984994958481,2.0882656618558304,18.202924410378287,3.8512700089517993,-4.844644307091465,5.040057579744303,-18.0,8.436563386039381,3.592418186442302,-10.541745647722696,1.8595756011492577
124.0,5.858469041607033,-8.574939565387503,3.053394706275988,-13.3618251349202,-18.0,14.65782770914911,-0.841457694253744,5.341278524901266,2.7773289764191222,18.48896247745962,3.7739206703845865,-4.367651129358325,3.825886655495786,-18.0,8.379562284177004,3.438865023038538,-10.365511995144091,1.999143085714861
125.0,1.8763810057437116,-8.628665948017707,2.4949746775538633,-14.968989313322705,-18.0,16.374875436472287,-0.5111719383774376,5.1042459849571635,3.2793586340869445,18.33782500391172,3.6071099055218507,-3.749622508343418,2.905751198908904,-18.0,8.31932178637408,3.3052628637151606,-10.174882260028054,2.1545820313701842
126.0,-1.410034433022318,-8.729769016400343,1.243119400662731,-16.70875038491849,-18.0,16.429777129462217,-0.3669159986376993,4.878354528722464,3.5643859156647872,17.869324786795392,3.4004425035841774,-3.096803288997532,2.1644889591362357,-18.0,8.217920517732502,3.1747738143739994,-9.975974166800398,2.2937429966449123
127.0,-3.9868062681416587,-8.881138097185012,0.38848373094270316,-18.610750713443785,-18.0,16.071515611311845,-0.36941888044129767,4.669047184115923,3.6769423330659396,17.195916916441327,3.17976446426738,-2.4666714222489943,1.5338920529127051,-18.0,8.051749789493552,3.044457050462814,-9.77435993449074,2.4085053096905873
128.0,-5.838589379284147,-9.038369500515305,-0.16484644008873373,-20.510674089879217,-18.0,15.56980083004631,-0.482587489820407,4.478634728455772,3.675167843002041,16.38062916202213,2.96346044394523,-1.888806605765211,0.985470689214198,-18.0,7.842323842735668,2.92347286335432,-9.573787189927586,2.508372331054982
129.0,1.882359567475401,-27.827254678884646,-3.491094787928173,-26.907396728789053,-18.0,17.44579278483604,-3.191403336463751,0.5345181980602156,4.136856901348065,2.327443976095312,-6.865507926065185,2.6261570601160398,32.834259940952144,-18.0,11.098015130812463,-4.1066068229829025,-13.860867203664618,0.8848501176899792
130.0,-0.6154413561352268,-27.696772413890447,-4.900083635228081,-28.849069897200838,-18.0,15.930977067483518,-3.6982308837318687,0.5872179022347925,3.4922350154181787,8.730307660109025,-5.831384159600999,-3.262671556206857,26.887252733467616,-18.0,10.078305686295085,-3.113025167381318,-13.624795041309365,1.9725576550492017
131.0,-1.7168041624873052,-27.548616569260815,-5.398280071580378,-30.453762199748127,-18.0,15.308500905284525,-3.9011600450464625,0.5869761709640358,3.360686064369499,11.792289984977518,-5.318778363122527,-4.773678325970207,23.18546773385603,-18.0,10.502577789655744,-2.582431884994235,-13.398509354888306,2.6545559945133306
132.0,-1.7207349178500522,-27.592628335924058,-5.72046912494619,-31.72247959548441,-18.0,14.87887442078282,-3.94632765942953,0.5003644489136594,3.45538136921872,12.419321577462615,-5.732377522210326,-3.6106594984584683,18.951487510448686,1.2225649272191,-2.1927850431890494,-2.697426403576526,-13.10996395148104,2.585633452263383
133.0,-1.509026661399723,-27.404015043645494,-6.252050264195828,-32.76301773712394,-18.0,14.488907269495876,-4.10494193306926,0.4985476064919414,3.4081733966231282,10.72470528701151,-5.827507909400044,0.414841097722769,20.499316367067436,-5.972012669651391,3.7758770741648293,-2.5753256823263637,-12.905373768607095,2.830854391235202
134.0,-1.2944541597213917,-27.20569101898003,-6.799364720946256,-33.65950371397482,-18.0,14.15224975620117,-4.3395033072025235,0.5139804926687468,3.2626350867407075,11.059352584722605,-5.531766388208784,-1.7402482795910053,20.12398993861298,-8.824870333228901,5.1097677584807775,-2.3607086611682986,-12.692402048790505,3.048557472387735
135.0,-0.8131764833586743,-26.986410206502207,-7.343113093818782,-34.362126664042634,-18.0,13.852690748728973,-4.493440140976272,0.5179598110582209,3.232732486799914,11.410499658744783,-5.280056064916733,-3.114417257592352,19.45734274202962,-10.929899047924907,6.21607761671169,-2.204925913828247,-12.485114386075729,3.215623412803025
136.0,-0.15542389660072153,-26.756030209488177,-7.858045397963583,-34.91375552821857,-18.0,13.591277274542204,-4.599712671793569,0.514100921964153,3.2589367515061016,11.75180521451002,-5.062643834334316,-3.9567098159567866,18.579445462660473,-12.403983629497253,7.141088746758007,-2.0992124355149437,-12.283137505848668,3.334581154807709
137.0,0.6128691980393377,-26.520707683418266,-8.333592470138477,-35.3473184595333,-18.0,13.36287966737703,-4.676589723323055,0.5050061150931446,3.308376499381481,12.042745591282817,-4.870487926700452,-4.449158877131232,17.576611034418974,-13.352602590990102,7.909995334927244,-2.03589801300844,-12.08674391146407,3.411230638070186
138.0,1.4427146350648687,-26.285495540996223,-8.763108928696779,-35.68974833728363,-18.0,13.162287053284128,-4.733990866057001,0.4921849447081872,3.363458197177387,12.250105807203743,-4.700382624051381,-4.6996291769304985,16.52007373988831,-13.874625707202227,8.54333147727885,-2.008666481981523,-11.895964054710689,3.4516772433027274
139.0,21.056120089387093,-24.055649257638805,-14.916514834832238,-46.38807618154663,-18.0,12.086169079529245,-7.9248732910522195,-8.210868207424276,4.9851511694374135,0.7415448174906487,-8.953033862677371,-4.549041626344756,43.73225620075566,-11.602458453254425,5.798698489457445,-11.524755694320795,-8.126160308251407,4.37378276087078
140.0,19.39618529274014,-24.151009067601425,-13.130837088584316,-47.73195768170143,-18.0,12.883982660104563,-8.059241169911989,-8.019450081258224,4.4795391715925055,6.905335262205419,-8.060388362173985,-7.492000947937909,38.58578149310975,-10.455648377708307,6.300341169497902,-10.829327200999723,-8.034813809426103,4.829554751869027
141.0,15.524471382364126,-24.016718841275956,-7.845004844187978,-52.43557243367608,-18.0,18.0,-7.709582239011993,-7.873771471471179,4.789638688818478,10.554547686914276,-7.608995079954197,-8.850981252796615,35.148098006611974,-9.18895099324994,6.6876689051689935,-10.345981099652093,-8.01416437336539,5.247095841383295
142.0,13.151142971637203,-23.856730406815426,-4.70925925871504,-55.741814601772184,-18.0,18.0,-7.550470058854699,-7.711902339064219,5.140748963699608,15.67814056399764,-6.745981877485045,-11.062876150704945,30.01359630576662,-6.404838289094894,7.359932765089075,-9.248259927274761,-7.99839242074788,6.399128211124685
143.0,12.573698030709952,-23.70045187330992,-3.0132054250485076,-57.79730863831894,-18.0,18.0,-7.4033680081181,-7.591631932038445,5.581186225838226,17.844319557407328,-6.304824657596832,-11.999352157080327,26.870633179272374,-3.9269899094828715,7.8248618436669615,-8.603918756793542,-7.956171957461673,7.02087864166649
144.0,8.21855477400998,-25.567234534404964,0.04958413523652183,-63.82457453418578,-18.0,18.0,-6.561542343602827,-7.728103147760191,7.073508022977467,18.338805567812184,-6.677228527639885,-12.085960385532562,25.508087619737637,-1.804982589889753,7.967584447732044,-8.439822700997201,-7.797469645514458,7.144672785801198
145.0,6.889070159731919,-26.79867239895128,1.2620407943578975,-67.32447090455676,-15.933879050729928,18.0,-6.319709285916996,-7.7861761962869265,7.767924442947924,17.227031549191338,-7.167849265709775,-11.536535200049787,25.13681064708817,-0.03528313327299948,7.916332342486852,-8.342194101357881,-7.646796731852816,7.164876718214753
146.0,7.396652188356761,-27.59224708640977,1.2832617403127085,-69.08085888647213,-13.068547163561876,18.0,-6.426916946549896,-7.7896958593036,7.97474782523932,15.784370559872858,-7.692386527721124,-10.800351107792702,25.058363050383143,1.3790027343370141,7.536580140544989,-8.235470380734391,-7.499717769642244,7.137759942230637
147.0,8.924470177473847,-28.106351826387034,0.6231391907157349,-69.71061270975837,-10.976461716193846,18.0,-6.6996015569645,-7.75781120006928,7.920108707555701,14.383274069004482,-8.206428209945766,-10.076410428410203,25.05189098588008,2.4886028392153348,6.874575283103572,-8.133462830905751,-7.3573613916865215,7.047842392486947
148.0,10.953021564205976,-28.429129114991184,-0.389014069007235,-69.62998800459006,-9.51963726358629,18.0,-7.040795955067385,-7.696497700971129,7.721296662711074,13.14468278500096,-8.644999873661593,-9.133658605366357,25.106472986068013,3.176264494019091,6.226888771122137,-8.029693289012531,-7.226244630179687,6.912890775532587
149.0,19.146436441872904,-27.74313518408465,-9.246241352208976,-66.49122907811162,5.009738593360968,9.467647121678489,-8.896915144812809,-14.729944332430989,5.637725846658511,0.904176181615231,-6.633726409586307,-0.6569622254520944,23.451955369754934,3.849763533334004,-1.3569363518689093,-8.931093898069703,0.31207939778446914,7.190838999315397
150.0,17.174225021657683,-28.242937100604983,-7.877395575103576,-67.99841556316656,2.0560343304256428,10.215934355304366,-8.535235808773907,-14.517133665537827,6.117837410392613,2.180045503435082,-6.471866062198377,-1.4095923160714294,22.46822271948517,3.299586022822714,-0.6861850305975485,-8.841631376800223,0.19440179665900548,6.828230228944898
151.0,16.27688480244764,-28.651417464722055,-7.238277026445365,-68.70631137995892,-0.6759154021580258,10.629147237096003,-8.37361858995963,-14.30358111812855,6.360445574920545,2.9133927285227195,-6.46849996136418,-1.6061052854735465,21.858574951364098,2.6302915695600824,-0.14494598714648854,-8.716799219567338,0.09719375227570115,6.561825305863723
152.0,16.52355777147089,-28.867133550197973,-7.263963977134795,-68.57409005605774,-3.040729191868399,10.93847764643019,-8.403263111871212,-14.072226116374285,6.348511407979023,3.2942096096039606,-6.498516091081189,-1.579377501062309,21.408768575390056,1.9007016553388514,0.31652605582498283,-8.576448185701505,0.010532770271982628,6.331693532039626
153.0,17.42794486252311,-28.951751151078394,-7.675968961513096,-67.94575978880547,-5.078478228654879,11.1778401352418,-8.52397310819411,-13.830520593580523,6.200484804512053,3.4724364588293746,-6.540724144234003,-1.3932896355140167,21.10930507538258,1.0221597714055664,0.8594278099689905,-8.44523171487745,-0.06935135572459572,6.100188120066797
154.0,18.659073262340687,-28.946216354474075,-8.295348827133523,-67.0525324172338,-6.818534235879511,11.36902118886864,-8.676375768362696,-13.583174563284397,5.9876745173069486,3.689449055713471,-6.56458596468986,-1.3484890745583815,20.56766617972552,0.6886897741379281,0.4492971787487051,-8.322280623806197,-0.14531279871425618,5.866307991513471
155.0,19.982322404810798,-28.888940380991023,-8.966984512808692,-66.07822908725808,-8.28030048794971,11.501261025753948,-8.819164147425019,-13.32988865568454,5.760590858624945,3.8164039213875576,-6.531440730634715,-1.2522544014127437,20.014418383091197,0.25548626073084435,0.36779624355391694,-8.206464376882728,-0.22613625329415576,5.641485156747462
156.0,21.295939771254858,-28.804116569444076,-9.636857785797188,-65.09513753757756,-9.506057906892385,11.568444430833582,-8.936057096643912,-13.07601320689035,5.5415000965251595,3.925425205251212,-6.4663388861928155,-1.1531707403425342,19.389727689475087,-0.06069521034155834,0.2562569439903811,-8.100600153872062,-0.308959444224171,5.4214549332828454
157.0,22.62048656982682,-28.660051342370362,-10.333359834660964,-64.0451872657406,-10.597998872497651,11.654555162515415,-9.028618052139517,-12.821061091413528,5.326249591104731,3.9695424225947953,-6.394453211915111,-0.9452389997606714,18.690302378449097,-1.2099975184973961,-0.18568426388458653,-8.015328379015088,-0.3949177383795899,5.196579662246064
158.0,23.732737143934337,-28.529418624531665,-10.911954111738035,-63.15138655190088,-11.48724387260636,11.684326814536808,-9.077914742266245,-12.568528116676157,5.142136060806644,4.057406157826065,-6.276462723520387,-0.7475155373826352,17.822865507363147,-0.998953970595843,0.13703695907261082,-7.932474448523093,-0.4846109697545602,4.988807064597825
159.0,29.04808296691427,-49.237222301326014,-17.467441432446613,-69.29455649376328,-15.073373912125616,14.379284350354316,-14.363807690902897,-12.638893865568585,3.5516435525502486,3.5907773658169795,-2.7041023923255327,1.3512767793075025,28.822626190407433,-3.744211601750715,-2.9440422907826727,-6.21630982367739,0.8301802178285236,6.974211128998147
160.0,29.36473193720639,-49.14190828820644,-17.614059766256144,-68.82610634764526,-15.608957806531462,14.324006194931593,-13.752310185685525,-12.382888298054924,4.282761882070905,4.990822954142196,-2.281344101332698,0.8138417655277808,26.171008774440665,-0.8242710113828169,0.421824471181671,-6.45988340131596,0.6870591540830344,6.197676107690544
161.0,29.73546951886243,-49.02321488007634,-17.77231880633226,-68.38883951498869,-16.01211240702162,14.265308926595015,-13.30271482712398,-12.132241081194092,4.731610692942892,5.689105267523114,-1.9981143061301516,0.07961186144780719,24.647021056729436,-1.5982500912781266,-2.032890008081499,-6.580102011006797,0.54287195152002,5.692465772114611
162.0,30.04605783227087,-48.89969960879786,-17.841897873336773,-68.03920167304867,-16.309063793248534,14.196629118181328,-12.954827423646261,-11.876984881671932,4.989053092646562,6.026415293186794,-1.7205665713667617,0.2923127988584966,23.323285004998553,-1.5388060248774433,-0.09633753231159314,-6.6276252027628955,0.3868494305532213,5.3565088722904175
163.0,30.321915947285913,-48.77296560416329,-17.897255646077433,-67.73688618396527,-16.51783981026974,14.131618601852914,-12.679404423637916,-11.62740066016931,5.118316790401812,6.209896587402138,-1.4758453719505829,0.09336260073545688,22.207992403126504,-1.61386268087218,-1.5560538604340282,-6.630998402252649,0.23555859529312606,5.114860741439976
164.0,30.540307882483155,-48.64404842150339,-17.89473101568809,-67.4902285556876,-16.658313289912794,14.066883424039487,-12.446906322602844,-11.37722333245389,5.166905702119214,6.193964793259884,-1.2274736907928583,0.3750520036497056,21.268216531810275,-1.646095000199657,-0.4198742355378502,-6.601328095978573,0.08003100997729051,4.947243223722876
165.0,30.719174907133755,-48.5149584771612,-17.877799516385306,-67.27659470017585,-16.743805828606945,14.009509149993674,-12.244941814072622,-11.132703598365728,5.16280932452598,6.119946643600908,-0.9895423199456639,0.3571326822544494,20.423367011878973,-1.666043496581998,-1.2900526224234725,-6.554192578122253,-0.07005174398802261,4.815582400275312
166.0,30.85290995378032,-48.386156569816386,-17.824422453466077,-67.09799928402543,-16.785736673382672,13.953633643151495,-12.060250549972167,-10.89026624277905,5.1272315017024415,5.944127230319186,-0.7480453796746609,0.5961168661107044,19.683913801807627,-1.6826348784584377,-0.6168671083785897,-6.492768942078332,-0.22004572290137592,4.71553925162817
167.0,30.954332834584438,-48.25919716518085,-17.760356429351894,-66.94096556029508,-16.79234403399792,13.900645582348382,-11.88835634680716,-10.65350341011673,5.071715135878211,5.744328893437803,-0.5108725733351687,0.6418239233424989,19.002160303280505,-1.6884027346436126,-1.137351366620757,-6.424412445360495,-0.36443069200167955,4.628961735552202
168.0,31.021300614621804,-48.13401853575666,-17.672918554158553,-66.80611606705189,-16.7725190063127,13.848094401213388,-11.723442171544505,-10.420282250335054,5.0053477767530214,5.493116100989468,-0.2723957131198631,0.8313841323766793,18.38728551464181,-1.6934725418777532,-0.7353124767234696,-6.349684570543451,-0.5064325714691735,4.556105254906552
169.0,22.76626318430097,-45.801373804189666,-14.96681899907334,-54.72071044312186,-14.143784237949362,9.549599097588754,-8.30740967356134,-13.426273091899631,6.327139848355435,8.62930472221499,2.6932090499293624,1.66483273827144,12.034009725054311,-2.951349155035018,-4.767758863402805,-14.729706642437092,5.818179024262393,7.236763149479406
170.0,23.119482653774288,-45.53249432492795,-15.113426924702331,-54.5670610287852,-14.094320048434824,9.602858160437346,-8.669352748606933,-13.092792558589888,5.528594752463916,7.203271557495064,2.9302893876974627,2.6338425516851576,12.349549996752764,-2.3256818662330794,-0.1411439424940406,-14.22581928074836,5.518730593593759,7.6095618899448665
171.0,23.367875122234032,-45.31141619911244,-15.23521547090661,-54.44585117647331,-14.025730500099403,9.64645356808921,-8.862103254605284,-12.786157151148084,5.016010533333161,6.176529422490415,3.1583439724402522,2.1980531544029356,12.50254207684604,-2.3440238060525136,-3.7392323258961997,-13.84026042312825,5.250829848225636,7.757849703965403
172.0,23.496125726001985,-45.117381703270496,-15.259408787020035,-54.38545120669412,-13.944828766494291,9.672258740121082,-8.939965447551259,-12.487029274597774,4.68580244259617,5.252396908381943,3.3955344819297744,2.709660868904919,12.565150659126466,-2.2698698554449246,-0.9293222936941987,-13.519446897577819,4.987263323678525,7.798465436206479
173.0,23.522471035169396,-45.018540385613946,-15.16964220865512,-54.43341325098017,-13.799160775044514,9.615611643328272,-8.94343150446591,-12.21104903761151,4.480897514171393,4.589161516176528,3.6128992275169147,2.4059585460361896,12.490854371388778,-2.2155869785854287,-3.1035614059215377,-13.249827149768564,4.749389563094677,7.7470682451705235
174.0,23.538459026124713,-44.90715315060286,-15.07473210243528,-54.45539475162792,-13.672118484881448,9.563577711681981,-8.912178404621098,-11.93821972370342,4.33397855120446,3.955278621229617,3.832571259473884,2.6997579860579,12.397887405418565,-2.1802643167243927,-1.3828398662572603,-12.998007740178194,4.514597793536025,7.669693494052952
175.0,23.553824647762195,-44.788559222155754,-15.013447248798785,-54.44744648861868,-13.56316974669133,9.52469078115682,-8.862137844226838,-11.675213603002527,4.222272835184589,3.4500205581571457,4.051058718060835,2.5116219467957155,12.232765106548456,-2.1378392610335304,-2.6992196616653077,-12.763469397494966,4.292982932339544,7.561889798634563
176.0,23.54747635472208,-44.666382564715896,-14.94053389581799,-54.4345630300021,-13.470319896626306,9.493923852358407,-8.795753825646479,-11.41672358673338,4.136498981683471,2.9689676143785597,4.265702752501307,2.6958162822967413,12.063503270456998,-2.110130998923794,-1.64219879110808,-12.53711509588525,4.0758165644369715,7.447228607798879
177.0,23.52949539108546,-44.54260427071096,-14.881766228638824,-54.41085988457258,-13.392392755361643,9.475544312818881,-8.721294539027918,-11.16656480731561,4.066039089267148,2.569849489319001,4.477440994325184,2.594730083288365,11.855607644108893,-2.0766451499396483,-2.4408274054771355,-12.319624801254726,3.8690381751991465,7.320858613497062
178.0,23.49256208574896,-44.419188974652755,-14.811656515550641,-54.38753390191051,-13.32801794045179,9.465654297653906,-8.639441557739268,-10.921548753278365,4.007325053473133,2.190886643272165,4.682981740560482,2.7245307814054023,11.649937563395852,-2.052355925599044,-1.7870754914997367,-12.106468338163815,3.6674966163166953,7.19503657930624
179.0,25.038397585603583,-27.977656016273606,-8.703230102275038,-47.81857780992583,-11.597856109204596,6.518588222095832,-6.678944813832799,-7.8188035218542336,4.18732750224957,5.404445590709065,3.87347900406526,1.7229240118121423,7.118694596669677,-1.0760053869680286,0.23150789502765035,-11.828668930075914,6.864017808525828,7.522669688736813
180.0,24.909818179664004,-27.883217664595726,-8.59496499566135,-47.89407070130976,-11.550681686984923,6.554964056595617,-6.733242897172527,-7.641959441704691,3.9011889623285576,4.514658601444152,3.945348320285019,1.839359564871022,7.67249166348185,-2.088867579447422,-2.264284282109234,-11.70853381394731,6.627956896043917,7.273226068341502
181.0,24.760900556924792,-27.797523046494785,-8.467610134494674,-47.96805495094996,-11.510377335779243,6.58776973373091,-6.742864649378461,-7.467308508857201,3.6979917721555102,3.826450298565854,4.048181024982479,2.4145414305905932,7.89523466450969,-1.8078142419514474,-0.3398517973113879,-11.568292015471634,6.3967784161715295,7.058162937416416
182.0,24.622095260082435,-27.71405279444791,-8.374736499989119,-48.01629832620757,-11.47667810090056,6.624234433015504,-6.728765812141506,-7.300437638482485,3.547909544023253,3.309092661129382,4.173849370000346,2.3594677255896057,8.02662184066618,-1.7965961393627743,-1.8640657746232312,-11.410085223875155,6.1790008670920455,6.866322162200223
183.0,24.478819360009446,-27.63460243985578,-8.272536425300872,-48.05896774817416,-11.448943341886189,6.658477248235681,-6.693969751471174,-7.136384779938701,3.4383476124684877,2.8569108165506982,4.302442295081837,2.651022991309249,8.10419682279915,-1.7509002262648838,-0.6667417807783824,-11.238876566457268,5.965825667040176,6.700827547262446
184.0,24.34224483784515,-27.558189480330476,-8.190657642325492,-48.08737456803321,-11.426610473920572,6.6948425155251705,-6.648602278579149,-6.979004931009942,3.354498505597196,2.5098854344458594,4.439264612246966,2.578353526627186,8.110665602336965,-1.7113571882916467,-1.6040416398877548,-11.061850734736275,5.763169001311425,6.546082161317335
185.0,24.204473989684256,-27.485147116444537,-8.103585664415462,-48.11211137611639,-11.40908910928063,6.729742476754498,-6.593963427140075,-6.825012298690742,3.290274943327612,2.1983044719801086,4.571402536865415,2.7372707184709886,8.097517196293119,-1.682696586882435,-0.8559924094243363,-10.879610689402782,5.565491832610367,6.406845946200045
186.0,24.071776600465654,-27.414917070989112,-8.02933072707955,-48.12799627648337,-11.395832846012741,6.765750997519019,-6.535435985358077,-6.676653717912589,3.2381570152924386,1.9501035530783586,4.704914262563479,2.6826378304652465,8.044820760510547,-1.6504229771254946,-1.4337551758776566,-10.696185764249913,5.376331439908099,6.273828218126528
187.0,23.939526355871415,-27.347585323721873,-7.952654380351588,-48.14112822925909,-11.38632510664081,6.800676868929231,-6.473245614672429,-6.531855170968166,3.195550783975251,1.7244219656653161,4.831636801163254,2.778218725629358,7.984145922059195,-1.6261001317969148,-0.9642619510175252,-10.511526634750263,5.192250683102532,6.1503556000964
188.0,23.811498865483536,-27.28274733906863,-7.884589713655425,-48.14824394065566,-11.380096005407347,6.836047641121536,-6.41027046935877,-6.391908637893166,3.1586509940775116,1.538614172974217,4.956647553727198,2.7463972446356526,7.901872752320958,-1.5990118615913276,-1.3205305008020845,-10.327806856904719,5.015319753370838,6.031031794687344
189.0,28.139773282755908,-18.83426802653485,-2.290379247980881,-53.77352609623397,-11.87696631361879,6.131668841632271,-7.133211423273946,-2.034686946670483,3.842566348116252,4.680320063771173,2.3554697527109574,2.330475593686463,9.732021348626898,-0.750663176013719,3.1676079644115833,-7.7498223277401035,2.632902869331686,4.956395218948351
190.0,28.242119447623512,-18.779192443590205,-2.412549234001411,-53.62814894360811,-11.889619661782747,6.166697891185084,-7.088680725578495,-1.9887186234746075,3.7928681801612316,4.517226060374931,2.4616397555329925,1.6015724429315048,9.641234283669178,-1.3016420894067298,-2.0440446936152203,-7.644828426009739,2.538816911693835,4.786840706769069
191.0,28.28585278451015,-18.73445264762173,-2.4456106001986657,-53.5253230657338,-11.905164732880767,6.192017331052447,-7.030493911541762,-1.938320343151843,3.754098157708172,4.305182939952006,2.5369736662237297,2.2310328274785602,9.519848497717085,-1.1865625433602855,2.067102269334445,-7.530080939864997,2.4358799088999934,4.654861294175387
192.0,28.315109504899418,-18.693529625979867,-2.49942408109483,-53.42061544938268,-11.923058322471938,6.221565007453872,-6.975192626688085,-1.89499658865455,3.7133072103056755,4.194691173914359,2.6404222565009654,1.7682466096174352,9.345666074061157,-1.1781116467021122,-1.195347957439188,-7.411225350216733,2.3438637819248553,4.528662270758368
193.0,28.31303243787037,-18.65723460821134,-2.5043452872764442,-53.33663458514654,-11.942807548485103,6.244967559367193,-6.91332189082166,-1.8491097085987196,3.6778245181504254,4.035149252742279,2.719432337047898,2.163033103523118,9.223729685611762,-1.1722349620231385,1.3810332829692191,-7.285439607124375,2.247159329457021,4.427592454969409
194.0,28.302807187861696,-18.623579738088125,-2.5244459377442294,-53.25031952438799,-11.963979088647541,6.270757961635581,-6.853694049884307,-1.8081575488042816,3.641028097080274,3.9405618171509094,2.816162614293871,1.8772660697468306,9.058804274270287,-1.1480166427014336,-0.6684639306029183,-7.1599866437204875,2.158255391532602,4.32740515357397
195.0,28.274193287113448,-18.592859089696287,-2.5162506027313327,-53.175192712392956,-11.986286691325967,6.292570497014781,-6.790589476249072,-1.7661179639525697,3.6073293707804543,3.816932612666143,2.8951223154260486,2.1280930037898873,8.931226064056503,-1.142068988645066,0.9496475217375546,-7.03184045287482,2.067439908207178,4.241883179242702
196.0,28.24072994377495,-18.56404574596944,-2.5184028537272862,-53.09768952568815,-12.009450894402947,6.315638462821446,-6.729342906894959,-1.7275977815374448,3.5727691596767985,3.7333304580756757,2.9848367331042764,1.9543466863506715,8.778965406474637,-1.1216598609560111,-0.341448370068025,-6.905326204759761,1.9823535989578431,4.156363684935579
197.0,28.196006681551005,-18.537355019659433,-2.5037458747948564,-53.02621750034794,-12.033304760851404,6.336061589554004,-6.666349011977286,-1.6888749671378545,3.540153364772306,3.6336476271227642,3.0616571373214887,2.116575187252231,8.651784850681974,-1.1129151694726072,0.6765805046709207,-6.778367150982948,1.8969837844570576,4.07971907497135
198.0,28.148089813061382,-18.512204367069916,-2.495840623409933,-52.95265510381915,-12.057677449559444,6.357069431471845,-6.6048921110075725,-1.6527705251884441,3.507067867609324,3.5591633016929105,3.1447006687997807,2.013054183972645,8.511277862910536,-1.0953320000638773,-0.13903399494048585,-6.6534696463706355,1.8160000932542695,4.003125012968383
199.0,23.302989256582077,-17.868644861390834,-3.024701253855503,-49.38810123377943,-11.350429316249643,4.73129524359037,-3.48054806883417,0.061668982861102783,3.410613925867052,9.275767270354736,4.361288045355196,3.239167487285534,3.9599201252469456,-2.594896769722026,1.1030175926554264,-8.57834870982341,-2.5694080260588192,3.3185670325288563
200.0,23.692311580371985,-17.765307547608842,-3.2114886012705486,-49.1934198778354,-11.370303568078043,4.788678227350939,-3.6798790885686,0.08323885218233507,3.089502521988397,8.212893619921488,4.389564881044322,3.242699083354183,4.4793377076508065,-1.6399994469245716,-0.2039056621057651,-8.216043464595165,-2.5749150657971183,3.6780638099171057
201.0,23.959374260513826,-17.684893467453335,-3.3406834078456145,-49.03837315147633,-11.389530678951646,4.834867332061758,-3.800717232712504,0.10029381073210875,2.8816833333898515,7.337446931288071,4.420516566728049,3.4885594679717755,5.002978719613036,-1.7447456190085102,0.8054453049949557,-7.943257530232703,-2.574559194984931,3.8660534902046035
202.0,24.189844599722687,-17.569291437012478,-3.5153782570907373,-48.8261845178158,-11.46220387625617,4.943978880863888,-3.879277251281176,0.1158585952886444,2.73209449261407,6.656504146718271,4.482743356015232,3.3991428200386773,5.347025042229362,-1.645928328915435,-0.01815660978636857,-7.731857909282985,-2.5696065064732245,3.938327136843457
203.0,24.270559188261352,-17.542068170945857,-3.54984801192228,-48.76240891439456,-11.465065105185037,4.962944601305318,-3.908400270073959,0.12148156260233378,2.649457678843464,6.131439329622576,4.5286392788655,3.4774516667177857,5.611070208261957,-1.606297776669035,0.6206953515136674,-7.562464541330735,-2.557099869669255,3.9394432243064483
204.0,24.321998963257474,-17.51709068390464,-3.583617312039318,-48.697063311929114,-11.469943458293262,4.97837991211373,-3.920942516620077,0.1245272017425858,2.5893564026688463,5.715044776298108,4.584438762131476,3.3662942622589136,5.7946321209749065,-1.5603392993416314,0.10263648014298399,-7.4132872878330796,-2.5412316474923675,3.904094460760369
205.0,24.34806400795367,-17.494667964472075,-3.606571296344056,-48.634024873507,-11.47659102145834,4.989744047381569,-3.920754207988142,0.12664631101723778,2.5450563687029817,5.367470302110505,4.63636318612414,3.3729547872603725,5.933873466484652,-1.5248451631974107,0.508993900552334,-7.27594697572418,-2.524918886929399,3.851009895445631
206.0,24.35595914932099,-17.474696080771977,-3.6274664008985997,-48.571006430589186,-11.484779817579433,4.998961038349071,-3.912601478944695,0.1270036524693614,2.510556817555268,5.0859699761335815,4.691763658147741,3.269687062768369,6.026995044816445,-1.4900749125641592,0.18036608869377524,-7.146737622466983,-2.5069165545748295,3.7863450713365343
207.0,24.347524741315148,-17.457198448072365,-3.64009573663584,-48.51021953733985,-11.494345215666483,5.00574191838436,-3.898004012221471,0.12662435408225736,2.4831972615158313,4.847459049928224,4.742193942985216,3.2478759763899823,6.09441831090875,-1.4605633118397883,0.4384747629993493,-7.022395761591081,-2.4889335706274798,3.7179469367966984
208.0,24.326995867926275,-17.44196257882644,-3.6501480909489814,-48.45004203027378,-11.505125870722065,5.011334747572629,-3.879433755675495,0.12499713556404313,2.4601790062863778,4.6505574110964165,4.7928573763752285,3.16183534143849,6.134546147926205,-1.4317186380112488,0.2291325401361577,-6.901784774849961,-2.470125240958575,3.6472550341267107
209.0,21.194482282740427,-17.2520389601996,-4.497099177296153,-44.971104711602436,-11.48314983026873,5.256784428188158,-2.164133261803415,0.5419057448101139,2.2512191434094593,6.420005650847417,2.8114905751256876,0.2840095820589186,1.9972705793607446,-1.3478485321457452,0.22102590910951947,-6.76698345415101,-2.5513985886545685,3.418398337707248
210.0,21.298332532950283,-17.19384466360308,-4.515689396498817,-44.90756096548667,-11.484475681404467,5.259393681657109,-2.2373365787943675,0.5435284563288656,2.1134734072864525,5.608520026412835,2.749370789897707,0.8200070204186871,2.648082261560651,-1.6069705787975503,0.5120173228224523,-6.6214949002713315,-2.548695078707847,3.4610502576789743
211.0,21.339111323905374,-17.148321346051823,-4.521539551330401,-44.85943427670274,-11.486643737494878,5.262620854768044,-2.2866980884818813,0.5428832737218787,2.011816253140745,5.0002610223178205,2.7259178612884054,1.1146945699256472,3.0869453941357907,-1.4802113811589774,0.22431164031464357,-6.499748475957661,-2.5400588247195115,3.4473453405834014
212.0,21.33643477732753,-17.110978695884793,-4.515446034597179,-44.82069714976008,-11.489615569075445,5.265979773140439,-2.319206159344329,0.5413840292984338,1.9362907505371278,4.522423651494549,2.7233537746105676,1.3686313738212532,3.4331640101237344,-1.444527370565487,0.4147008690557614,-6.387471195200845,-2.5285330371368824,3.4073574935473876
213.0,21.30439390558879,-17.08006213546921,-4.504366966741797,-44.78749809054188,-11.493293603326995,5.270214191809103,-2.3396654459821584,0.538545311971995,1.8801900274922871,4.150133966216925,2.738979250432264,1.4950507685088912,3.6930440361483825,-1.3990634944444298,0.23366190194980363,-6.280828069642544,-2.514241649827322,3.3518976013298385
214.0,21.25139765738642,-17.054122631395416,-4.487318762619375,-44.75853358532347,-11.497638680122328,5.274967563764637,-2.351047829990965,0.534922251739502,1.8387502743368582,3.8532373985759745,2.763164824601077,1.6108911835514874,3.894727290421205,-1.3631688118045746,0.35665837420101,-6.176633318545166,-2.4985859794587633,3.290156332705417
215.0,21.18454170276826,-17.032110108801017,-4.468417274673764,-44.7315500964496,-11.502608148410804,5.280635196125555,-2.3562173715608483,0.530291503001779,1.8079210801292582,3.61708083491255,2.795239657605376,1.6572606357928703,4.048286985359695,-1.3301011972657468,0.2419665265039289,-6.073767884580597,-2.4815406390732107,3.2256797870614604
216.0,21.107820399573534,-17.01330299334577,-4.446725440806748,-44.70612122867647,-11.508177750577545,5.286934822029285,-2.3567171342388837,0.5250041186461578,1.7851036628500474,3.4252674669595073,2.829790350142822,1.7051274345412988,4.168007121566044,-1.3008826792474575,0.3207841592335898,-5.971477024843755,-2.463881515853905,3.1616525218091125
217.0,21.024874584996983,-16.99712320432609,-4.424663632966018,-44.68102879065237,-11.514317426308274,5.294064797841171,-2.354142801500447,0.5189381283662016,1.7680280628474394,3.2697740130742576,2.8669784736942954,1.71484523388695,4.2594661709261,-1.273701290720584,0.24749738487193274,-5.869718577289209,-2.445537034355211,3.098800430297052
218.0,20.937665961522566,-16.98317045701474,-4.401511646276366,-44.65614484089082,-11.52100581302485,5.30180205575063,-2.3492967132100793,0.5123305281917476,1.7552916795268665,3.1412155107423154,2.9037400802644466,1.729933484081328,4.330829263994376,-1.2487954156215904,0.297522774680433,-5.76843697093657,-2.426961566989378,3.0381651421796687
219.0,15.782965997868931,-13.004622806916483,-2.75422297911712,-39.329821391918536,-11.592179236120023,4.282850783992357,-0.47371475470976376,2.122102268183351,1.3843108016572088,4.514946872241997,2.3946087245896495,-0.11893763287202996,-1.7191737444520516,-1.6777870852402086,0.1671165204203383,-4.396846682528604,-4.041706275239179,1.8636176451418047
220.0,16.043612103621992,-12.957408214898292,-2.8681748701206997,-39.222787515669154,-11.589933599593248,4.302940702254766,-0.5604256686557438,2.0837940620324362,1.3157016383308378,3.680687872039157,2.2563162333638314,0.42529063961119773,-0.9515337550390743,-1.6101063675679597,0.4359988686532351,-4.266229475186623,-3.989409941823465,1.9779041409773401
221.0,16.20961383804761,-12.92525212158539,-2.9547115938214046,-39.143118704771844,-11.588550481985392,4.319653847394916,-0.6329950500397197,2.0451146663548494,1.2586973818790224,3.0550270790500456,2.162593916245041,0.7334154006978735,-0.3540644775042452,-1.542016440687037,0.167025397030651,-4.166720092199829,-3.9326070841083043,2.0165390050936285
222.0,16.30811561930726,-12.904120399541375,-3.017730731965492,-39.083741581126695,-11.587781760256334,4.333103961793592,-0.6927427952087684,2.0066826423080957,1.2142844530074508,2.579144633382908,2.0952010806537547,0.9873332544887417,0.12360333001777946,-1.4881987695332346,0.34360073745523334,-4.083866346990716,-3.8740202964723354,2.0133019049398513
223.0,16.359543422371065,-12.891170245608164,-3.0666887300094254,-39.03781277794998,-11.587483565258529,4.344425892569147,-0.7423658592003117,1.9680856548125774,1.1809650446579925,2.2193718492633003,2.0505159900811916,1.1128128412875946,0.5053701971064637,-1.4409699665684408,0.17479021022480734,-4.009908674401931,-3.8140941285362686,1.986190082004212
224.0,16.37667967594982,-12.884453378091246,-3.1028774949821627,-39.00224448478677,-11.587533283047247,4.353685121000184,-0.7834516936918239,1.9297387891117683,1.1573526329127786,1.944365018946686,2.0182857720951968,1.2195053845759618,0.8177493180239761,-1.4004467830561294,0.2899924775264031,-3.940142448687446,-3.754192568231899,1.947601596933369
225.0,16.369655501633083,-12.882520924621337,-3.131565062292716,-38.973559349196435,-11.587859791866649,4.361604141327283,-0.8181038399370071,1.891407238286034,1.1414081448654243,1.73621377955413,1.997247762215799,1.2558162024526998,1.0736036268620008,-1.3640085754851774,0.18351302185047613,-3.872320744726469,-3.694375868544672,1.9034115419835822
226.0,16.344758197395198,-12.884362791136788,-3.153087996698516,-38.95036459891834,-11.588396050930339,4.368230426971168,-0.8474948859462563,1.8533723530537958,1.1317120284943094,1.5774181022386333,1.9815713861806308,1.2886819985046656,1.2879509589637141,-1.3315012384600866,0.25824728659761054,-3.805131408676589,-3.6353643417646566,1.8579963140249864
227.0,16.307240572079387,-12.889197471299124,-3.170491658128908,-38.930815893128475,-11.58910218371997,4.374031842233692,-0.8730218888860042,1.815498808313892,1.1267181755457822,1.4580868303647763,1.9710085109353996,1.2830368325819785,1.4678332858650052,-1.3014965590847214,0.19073218750626397,-3.7381653419157885,-3.5771019045523316,1.8129101063430066
228.0,16.260330377146953,-12.896467597439248,-3.183794187901371,-38.91425982381383,-11.589937921988813,4.379046553387466,-0.8954349934243673,1.7779767047170045,1.1254282825766189,1.3681279286015915,1.9622276229286546,1.2800496832890969,1.6220073489383902,-1.2739373764645334,0.2389144666741081,-3.6712132765122476,-3.519982529717172,1.7695681062504476
229.0,14.250200437670351,-13.263899554507605,-3.5484300094427494,-40.13241554195666,-12.821766974290231,4.063276872175831,-1.1645369088920803,2.631617677782471,1.2353199068419813,3.1317309491024066,1.5175369566275532,0.06851227825038991,0.42410968442613406,-1.532459252868139,0.36106277576038026,-2.2007351720822736,-5.751903873090487,1.0266760105492243
230.0,14.458054318987937,-13.24762599406306,-3.64227248315525,-40.01823391539251,-12.820617554057792,4.077068686236646,-1.1547631063563817,2.5716784469949383,1.3091270058878202,2.7056589206952197,1.4226923940561242,0.30764823716772327,0.8016605834832706,-1.3518491476975516,0.27736769570948006,-2.1677848184487134,-5.654777930633413,1.0338783319501859
231.0,14.592161565059355,-13.23950166881075,-3.712738636169455,-39.9323704644311,-12.820823135459882,4.087911422600949,-1.1620089524803168,2.514697842676089,1.3434098638321812,2.3802126147986424,1.3522940356661892,0.48068769226221264,1.1203223016133919,-1.3381923676595684,0.3154046078613545,-2.1376541677887797,-5.558300833821495,1.0234215729452751
232.0,14.674475534076677,-13.237945235875682,-3.766269123393462,-39.86671882117193,-12.822004774026656,4.09654428238337,-1.176535202770649,2.459510296559562,1.3577946439428177,2.1346730260260762,1.3000158249777884,0.5823581608100301,1.3711279050486702,-1.2976807366372074,0.26354996426962285,-2.1093257467995894,-5.4627219978571,1.002478207449223
233.0,14.720127066628475,-13.241206592218317,-3.8066859128324557,-39.8151653880559,-12.823884116135803,4.103318448306912,-1.1936495967231546,2.405822105809141,1.362452565984165,1.9471319790235242,1.2594637943370586,0.6530614166190731,1.575827512862583,-1.2673887697692283,0.28918221235763997,-2.080830184194337,-5.368634100431264,0.9774520991291039
234.0,14.73982598706551,-13.248119410337003,-3.8378574312544895,-39.77335080998137,-12.826249245207187,4.108707866730839,-1.2110841687458067,2.353295483251019,1.3628248959465572,1.8039574827139773,1.2277971384661406,0.6868646259488913,1.7435109327319864,-1.2387041138559711,0.2566982341345092,-2.051602376139086,-5.276160420609362,0.9512195766641967
235.0,14.740836260977561,-13.257818090687566,-3.861722487315278,-39.73849065969379,-12.828935867375924,4.11295942139261,-1.2277235595719873,2.301850669101144,1.3617767035602042,1.6939257508414909,1.2016942383376754,0.706954595649061,1.8833067691163734,-1.2126448831404861,0.2734713160663801,-2.0214032266553,-5.185551915827695,0.925624488966355
236.0,14.728464143033447,-13.26966164998912,-3.8804417212627795,-39.708435760650715,-12.831822249822402,4.116391936521312,-1.2432488586192751,2.2513589316949663,1.3606372810017389,1.6095173021998885,1.1798600077806145,0.7079385410776544,2.0007757241122777,-1.1883091124806686,0.2527802930752229,-1.9903099348851185,-5.096822900251348,0.9013389740721998
237.0,14.706326441981801,-13.283182496599592,-3.8950177145318006,-39.6818547045086,-12.834814851782617,4.119177667332086,-1.257566021709414,2.2018138627437436,1.360039129427673,1.5444643195215795,1.16052553117432,0.703482030582199,2.10101281135345,-1.1655000115424095,0.2634339832137539,-1.9584739238203763,-5.0100835894138935,0.8787709061583127
238.0,14.677136573497354,-13.298026339759312,-3.90666711695195,-39.65766906990464,-12.837846160965858,4.121532310714033,-1.2708177515545622,2.1531589558554605,1.3601560270454347,1.4945223716609366,1.1431118146653507,0.6893349698524556,2.1872066357368487,-1.1438585770684249,0.249968507019801,-1.9261172423683774,-4.925307130505803,0.8578841686850873
239.0,12.472832473830142,-13.680253880986458,-4.9976239353888685,-41.39299487066397,-13.495904132715568,4.171137867240218,0.22732287055821798,2.73774988180194,2.137691978114828,3.5365014520112914,2.985023006066483,-0.480062443351411,-2.751388149094873,-1.382387736614378,-0.8787597734038529,-3.710013284509275,-5.783245626821813,1.0257045226447787
240.0,12.807513975880655,-13.644888469878332,-5.153225464001063,-41.215429445843554,-13.502281329208682,4.178675048637627,0.005254507104274442,2.69043264381743,1.850501593286297,2.841046780734001,2.813207562695264,0.1205672546898261,-1.9939661893553886,-1.4303909250876647,0.5743087976200438,-3.543941444403499,-5.696351633204982,1.243978901646751
241.0,13.035264101178733,-13.628118976585725,-5.274958649370705,-41.07598127978514,-13.510273620617665,4.185235803283442,-0.14513403410692682,2.6372541247487264,1.6707012188783144,2.333861386870838,2.687766505220735,0.24720748273119852,-1.4135736000314196,-1.3474817712820286,-0.6252045570539104,-3.434110087305097,-5.604310652019744,1.3488215664367618
242.0,13.182618110419583,-13.624029545130593,-5.355298209424587,-40.96793509266403,-13.519319355828877,4.1885637211845435,-0.24871040505845143,2.5833091918124094,1.557811025363237,1.9459664998864739,2.5716587747043254,0.5690439094380566,-0.9239476716999975,-1.3037215448396502,0.3084835752429208,-3.3541873116300422,-5.513182064541366,1.394049491508337
243.0,13.27613103223563,-13.628702650366494,-5.420640778354906,-40.87818977448456,-13.528898619610464,4.191572107870026,-0.32462553390928206,2.5276850132675976,1.485127122909427,1.6635913210179023,2.48452548314919,0.5981468463832473,-0.5290574833015764,-1.2593030360796837,-0.4557723541797507,-3.291525366332144,-5.420696130952299,1.40100530700175
244.0,13.32806407915914,-13.63976626585743,-5.46367140256699,-40.80476546115599,-13.538758029076549,4.192765078395794,-0.3809390436291876,2.472825778977013,1.4390658259950642,1.4493906454433247,2.4022805632496613,0.7597806170022494,-0.1907740806481515,-1.2227988744567377,0.1442395386471968,-3.237512477187524,-5.330226060666248,1.3901407613572458
245.0,13.35240633329289,-13.65530054667615,-5.499894566220452,-40.740370691560514,-13.548649622550643,4.193968591831418,-0.42568256008575256,2.4177909694243844,1.4092475765502201,1.2965955372547064,2.3374072333144396,0.7409653249737973,0.08963012741016896,-1.188791207363158,-0.3422653863861205,-3.188197387231833,-5.240103349479043,1.367571403188653
246.0,13.354902957115604,-13.674214550446191,-5.523649908998833,-40.68460601660296,-13.558469910877799,4.194198473762892,-0.46148757037812704,2.3639156295818755,1.390915908937134,1.183154159566417,2.2746198292648336,0.8121950137190128,0.3348553614997741,-1.1590427133494865,0.04345166189944333,-3.140794390733462,-5.152317798312079,1.3414856695497048
247.0,13.34309695214672,-13.69553342916845,-5.5442446304610415,-40.63337816961451,-13.568102619755729,4.194609373109367,-0.49203799859204,2.310468161296472,1.3796908609689766,1.1059462459660434,2.2220023645458813,0.7725240629011385,0.5434344551123869,-1.1309440972806897,-0.2658635767349292,-3.094365947363409,-5.065698297060582,1.3128492746471951
248.0,13.319691004309995,-13.718722655214346,-5.5576349405879855,-40.58683273728401,-13.577514440545484,4.194559045472385,-0.5181596009762124,2.258227401945319,1.3738419438889022,1.0516423174730063,2.169964469457731,0.7939370271801416,0.7293479441673246,-1.1055498333294818,-0.017746817081476934,-3.048121731889305,-4.981442008759289,1.2850504544540517
249.0,11.844056461624293,-14.200179233328711,-4.692051591947201,-40.66673833521785,-13.939800507519102,4.5664638889104605,0.9009883552655149,3.664396771728322,2.3469762548351483,4.068569449328218,4.717917880203755,-0.6140697795164876,-4.773216439542893,-1.8037298100801507,-1.531671778954711,-5.226455093330312,-6.128033532439527,1.6705380461973358
250.0,12.21126407020062,-14.157088952656622,-4.9171525473436235,-40.48304298371377,-13.943544583357474,4.558909817509945,0.6424797366416235,3.6021926650634093,2.0264285795967942,3.261480611778098,4.484670754808911,0.11023232762640989,-3.8636230705164145,-1.5113188942783138,0.3265586244868752,-5.035357106924911,-6.034696279744966,1.8886028850318204
251.0,12.46506733001372,-14.13709536876545,-5.092140899351753,-40.333979094838305,-13.949492363993182,4.553202888881464,0.46311034524064487,3.5335005286644066,1.8239920171058905,2.6670029624744593,4.308826249591379,0.2472751151891992,-3.1084809397413142,-1.4818154730872508,-1.194779971875488,-4.901194265553732,-5.935172587787562,1.9871213565549122
252.0,12.630840461546244,-14.133932831090378,-5.209382338792268,-40.21804509332553,-13.95681536162328,4.5459303481215,0.3375146374730147,3.463942632499746,1.6972408238420549,2.2157225661774635,4.144185378934641,0.6376406567772324,-2.4757673573258243,-1.4168263618467818,-0.002624718735925846,-4.799923897992718,-5.836499644625554,2.0205659004014795
253.0,12.73822323006091,-14.141989621253423,-5.304803383953573,-40.12014065477946,-13.96507862551,4.540646475453628,0.24329716099325743,3.3924082408581855,1.6156397608084414,1.8912356014161116,4.015513993410198,0.6622379267408527,-1.9580676977625,-1.3667990340558251,-0.9686795814789925,-4.716559348464445,-5.735917484574781,2.013113375551913
254.0,12.799170013934944,-14.158157395291772,-5.370048236078319,-40.039954166048,-13.973857279797143,4.5349492445217345,0.1718310778834814,3.3219536377121774,1.5643393640311365,1.6477363153340967,3.893097007172287,0.8575227201167888,-1.5107347232995525,-1.3235702764854107,-0.20322199227392135,-4.6420728054324005,-5.637669716676454,1.9874911836206304
255.0,12.82951084466035,-14.179914063335632,-5.425566832010331,-39.96914647676774,-13.982925430755028,4.530997180918036,0.11375843540491293,3.251331300080996,1.5315359027518185,1.4789575897983696,3.7924216389467826,0.8268252874688109,-1.1361568520793703,-1.2835072284734195,-0.8154068134797998,-4.572155495260512,-5.539634881070203,1.9499335082578086
256.0,12.84447759332172,-14.191617082361383,-5.484367027891651,-39.88918401109105,-14.004339448813788,4.542561868701276,0.0645780811796719,3.183618304016891,1.509083620759678,1.3527048028958273,3.6974636555423617,0.9114097050500516,-0.8054776244967137,-1.2488754827836752,-0.3229470987452234,-4.503487758673376,-5.445372018889483,1.9103652454661124
257.0,12.834923517465771,-14.211749684127115,-5.5292525427557635,-39.8237736998863,-14.022179424620822,4.552497141478013,0.023552355574311346,3.115788084502677,1.4969763204812971,1.274172128073353,3.614417873402508,0.8569490183202157,-0.5224275391065474,-1.2158565322977282,-0.7103033002187926,-4.436640191710804,-5.351863886263891,1.8673041403575807
258.0,12.80747179005081,-14.237312797995557,-5.559231580942141,-39.769592518084565,-14.037358229000871,4.560450698994589,-0.011271789944295119,3.0491359730929277,1.492029679033017,1.2243043272761582,3.53190354696309,0.8803117318645395,-0.26849863765464566,-1.186616661621354,-0.39321970895523073,-4.3701858589755425,-5.260834593592461,1.8256693942603124
259.0,13.635992904383894,-11.29492515574924,-6.254496733373896,-41.30838145992517,-14.010190190643735,4.423383591588784,2.516509261333573,4.540138416323429,1.687591923584087,5.426646736866439,4.171542830417275,-1.8428277450935835,-0.2757832733266783,-1.4903626694874892,-1.573331530334298,-4.783771947148372,-5.3658824492483514,1.6911618033055382
260.0,13.73515575587863,-11.321445314236678,-6.262477121850324,-41.235620486306075,-14.015838137490988,4.421120842526928,2.3059181323193982,4.455572865055102,1.4127852421650808,5.017613100870841,3.965193295513919,-1.2285164141613336,0.21984491902331005,-1.2297269767210368,-0.047646656732527326,-4.695245035576178,-5.279855657391289,1.750847465505891
261.0,13.792520414024693,-11.351182643537067,-6.2774920560220355,-41.17017481003792,-14.02163526350644,4.420272056559481,2.1552382124243916,4.367925474324006,1.2407153646360958,4.715052529975116,3.802754671393541,-1.0808564292877603,0.6388841126091833,-1.2240842097285682,-1.2888782886078418,-4.622519695110061,-5.191927744191521,1.7695058796441914
262.0,13.81345516139591,-11.384533025718317,-6.277047305748745,-41.11734244703957,-14.027444086887185,4.417913847640524,2.0452722974650475,4.281235736455228,1.135014904954958,4.4779789762076,3.6487989864950015,-0.7192602260154497,0.9908242440190884,-1.1792990896205318,-0.31442107763356697,-4.559237503708234,-5.1067312160483045,1.7673417203878974
263.0,13.812279769896929,-11.420195698976753,-6.28131857496991,-41.06883399167588,-14.03309355772585,4.416821981473045,1.958400901298865,4.19418060992801,1.0692987871959199,4.308501790699303,3.5229819565378495,-0.6530674509075012,1.2733835003010396,-1.144995625834524,-1.0994286550923196,-4.500258745882394,-5.021305430111109,1.7503833409891567
264.0,13.791712152224905,-11.457899167847273,-6.276280411005939,-41.027251395723944,-14.038601511721518,4.415022910354084,1.8881579896581988,4.109069168997476,1.0304376075389658,4.1755537460018495,3.4026166086229477,-0.4476758558227112,1.5187152012036451,-1.115563950171961,-0.47620971124376643,-4.44285180479237,-4.938708297749933,1.7286776362994387
265.0,13.760002495623848,-11.496990669690192,-6.274684065191669,-40.98769827639918,-14.043902593385383,4.414246792207726,1.8272574229724277,4.024671154033348,1.0081301787333716,4.082731480574468,3.2997468146566726,-0.4273184135080168,1.7193909620311167,-1.0866400730902437,-0.9710747855951214,-4.385944801476523,-4.856895031159269,1.7025195601293088
266.0,13.718233741283449,-11.537303844259124,-6.267511818986676,-40.9519869160641,-14.049039985404006,4.413184166252472,1.773766201352095,3.9422880240895184,0.9976464866742605,4.010182743771528,3.200064799800615,-0.31598531035415744,1.89679882656998,-1.062150832424873,-0.5717942894099588,-4.328875109056577,-4.777754882669676,1.676464733274882
267.0,13.671226803253132,-11.578442914267887,-6.262871043624327,-40.91709568089584,-14.054000814215998,4.412920886756192,1.7243429035738616,3.8610176841942296,0.9945719919952998,3.9610428964536393,3.111103162367415,-0.31998854703264534,2.045485533268633,-1.0376158098374755,-0.8823435160669151,-4.271622925475066,-4.699927531517809,1.6495280799754917
268.0,13.619260107118897,-11.620302610754717,-6.254994522421071,-40.88433973782916,-14.058793852942545,4.412559622685453,1.678519616000317,3.7816286369287546,0.9971363374505007,3.9227436909035696,3.0239419531902345,-0.264383474896567,2.179055372893419,-1.0161287094144011,-0.6257629132381246,-4.21417389368534,-4.624579009373932,1.6238843861965608
269.0,13.913301654141373,-6.3192073050603765,-5.011882737772453,-38.30838932549664,-13.483402382155727,3.3004537934744054,5.208156835167732,4.4014665293253366,1.645568754893111,10.147526966094219,6.692975596065892,-0.9872983751609921,-1.926902778052078,-2.3448428076714625,-2.1586489745884916,-6.986962596283906,-5.863141512438037,1.6454635000197206
270.0,14.100422586830627,-6.318816626955366,-5.111348992842254,-38.24731164096958,-13.480556637186005,3.3158570250711663,4.809070468155811,4.333468404987364,1.1438378577616222,9.318434465135141,6.4567333161968525,-0.30891287251435706,-1.1634197247341902,-1.485331637625218,-0.3137893460136305,-6.733725030966086,-5.777691399601097,1.9554833698022107
271.0,14.218182081846576,-6.335548297915292,-5.1912158236814046,-38.19547265218214,-13.477429969947776,3.328590187147536,4.531105820351575,4.255305377526696,0.8398277430484136,8.670745934666453,6.2651547198141895,-0.18970585868066614,-0.4508787182059706,-1.5638504435980924,-1.8028087895325338,-6.550688175543419,-5.684883999816767,2.1215030108349207
272.0,14.276726845337375,-6.367355281358162,-5.231988642856478,-38.163056468123564,-13.473845307433994,3.3356566149983005,4.333319193192979,4.1734854703478375,0.6608126924204232,8.154243564018726,6.080093867233264,0.18553100840853265,0.12818119717003018,-1.4791798268566536,-0.6301929782123414,-6.414959956297755,-5.5912525184068205,2.198737574782541
273.0,14.298168406487585,-6.408924759858258,-5.265895495931654,-38.13817163761185,-13.469557559639439,3.3408109261045924,4.181638014366616,4.088081406769487,0.5557932654902564,7.761425364950528,5.9245283252087635,0.20628847719052779,0.5964606469802023,-1.4310310302899505,-1.564678341406616,-6.3046015983090555,-5.494666861611128,2.2213085555431027
274.0,14.288737873973758,-6.457770806378838,-5.280016855032644,-38.1235567542995,-13.46485878064966,3.342264330626025,4.061181496846677,4.002911974924304,0.49817072728518363,7.442357121619985,5.773654651605611,0.3948844603413679,0.9977252930895659,-1.3882150007895753,-0.817206578146271,-6.208407902306326,-5.3996840547841,2.2159139739618867
275.0,14.260642050582938,-6.511702491887248,-5.292984396278211,-38.11268374637387,-13.459722500289285,3.342549040515671,3.95890829797412,3.917020611921435,0.4693267947308186,7.1984845578461325,5.64083270002906,0.36436662393651,1.3259359525050272,-1.3465869908498278,-1.4012232472825663,-6.1197855284822,-5.304350825300878,2.1922701834722913
276.0,14.216703012400677,-6.569508451228416,-5.29559032529498,-38.10743664014927,-13.454418735999273,3.340592445984,3.8699406625305874,3.832426834472594,0.45983120249683473,6.997806610607551,5.510371642948117,0.44483595883913374,1.6123389028298174,-1.312727851663976,-0.9236311907133521,-6.035083999063305,-5.211353018328375,2.161271747769542
277.0,14.163745854640418,-6.630128722600036,-5.298959587375601,-38.10394612330306,-13.448922894001097,3.3379959837956816,3.788752177492235,3.7482401949001876,0.46230081675055557,6.842761083255887,5.390400627510653,0.39130572057082436,1.851509856807203,-1.2785247941726134,-1.2863791882777569,-5.952374176452619,-5.1192743321166345,2.1251412664955898
278.0,14.102896507670968,-6.69297968764302,-5.296762994700378,-38.103603487717336,-13.443397637118757,3.3340679412038696,3.71382266303322,3.6655981456781497,0.4732789536815405,6.713130658928071,5.271235576550874,0.41164181927410315,2.0633602691957194,-1.2496722269757563,-0.9800506127040864,-5.8706974136547645,-5.029714002445116,2.088384789638989
279.0,15.901859339474964,-0.12172174778628042,-2.9197036973363204,-34.773162335559576,-12.6278723756529,2.335202191099874,6.911954731660018,3.8738984837256187,0.6839732195792081,14.735626499870373,7.5959900519314765,-0.3414569404767933,-5.154895457513737,-2.74912911921196,-1.192350962405293,-6.7655244493745,-5.19808930648783,2.250552124840403
280.0,16.036813555737307,-0.12922686580728157,-2.9877080177379365,-34.77210926721636,-12.612342676772343,2.34221338447984,6.588076235564891,3.805944968009364,0.34492587000560615,13.44637784090386,7.324050698701619,0.2205401734048591,-3.941760481342568,-1.9045958235960967,-0.9279713406876398,-6.647431252393366,-5.123250721930775,2.350035397092488
281.0,16.094189283027905,-0.1568312438872987,-3.0258565196743343,-34.78375865389398,-12.595614695009932,2.3449748894851075,6.341350268011342,3.7332492323038418,0.13071683541230428,12.411413273423332,7.098400117641901,0.5381938589434725,-2.846525380434038,-1.9504421829244314,-1.1709587002145398,-6.5511621775483775,-5.043143218153938,2.3803005122413308
282.0,16.0938843206417,-0.20166377160089363,-3.0394560196212783,-34.809962295396346,-12.578066536350448,2.3442542513634255,6.14779431117373,3.6573416264467378,0.000466560300604435,11.591888285842286,6.902752016237097,0.7740641742682746,-1.96162365776755,-1.842548667033912,-0.9972468726179802,-6.470518729693163,-4.959446259816071,2.365033935569706
283.0,16.054645325855333,-0.2585216281566733,-3.0411405282836137,-34.84435324916401,-12.560013304890244,2.3413556219872707,5.988187701312629,3.5795341753371437,-0.07555256238545027,10.94054134641491,6.732100557064961,0.8690331897396639,-1.224196160839627,-1.7772503087971065,-1.1401492172489105,-6.394563065963986,-4.873539197792171,2.3269208270343937
