xqsrdtd/agibot_x1_dof_lag/sim_data/20260107_154851/20260107_154851_joint_torque_data.csv
Time (s),left_hip_pitch_joint,left_hip_roll_joint,left_hip_yaw_joint,left_knee_pitch_joint,left_ankle_pitch_joint,left_ankle_roll_joint,left_shoulder_pitch_joint,left_shoulder_roll_joint,left_elbow_pitch_joint,right_hip_pitch_joint,right_hip_roll_joint,right_hip_yaw_joint,right_knee_pitch_joint,right_ankle_pitch_joint,right_ankle_roll_joint,right_shoulder_pitch_joint,right_shoulder_roll_joint,right_elbow_pitch_joint
0.0,-2.4404668881718546e-16,-4.569101053916318e-17,1.4237498812193983e-16,-1.650263597573118e-16,7.628826416523797e-17,7.474763146233446e-17,-2.7304429659910873e-17,1.052877964664664e-17,-1.0528856144915948e-16,2.8880534818667916e-16,4.8904637605545935e-17,-1.3088038798710134e-16,-2.0781263658509129e-16,4.911957697541893e-17,-2.5639602118486907e-17,-7.271600065882317e-18,1.253232039582484e-17,-7.199123651734224e-17
1.0,-4.332346645932944e-16,-6.35389282403401e-17,1.8198215418599566e-16,-2.75427950673278e-16,5.90557670380254e-17,9.555709764462008e-18,-5.407630046041152e-17,2.5429690288996387e-17,-1.923596362323134e-16,5.140543135958899e-16,1.0375225351804503e-16,-2.3816614931006737e-16,-3.676662924288752e-16,2.6770301991295686e-17,8.613602806669384e-18,-2.506372407495657e-17,2.0043430940823902e-17,-1.5959216093854253e-16
2.0,-4.781042883544063e-16,-6.633050378263048e-17,1.7460888825029078e-16,-3.323835099023435e-16,5.720587631876594e-17,5.4038924680391625e-17,-4.3208050666989504e-17,3.84514403038334e-17,-1.9195627572249665e-16,5.970804601847622e-16,1.196174960766037e-16,-2.215517872937125e-16,-4.741391861220857e-16,3.128672798559592e-17,-9.318912569035111e-18,-6.785630946862861e-17,3.352481510379077e-17,-2.453021913874224e-16
3.0,-6.150189546050302e-16,-8.491645048630527e-17,2.108062102825135e-16,-4.1174316598427643e-16,5.261486533239822e-17,1.963096111267125e-17,-6.471589686719357e-17,5.181118690111714e-17,-2.5456746411429505e-16,7.301330899020576e-16,1.5610769054360657e-16,-2.664123728524942e-16,-5.391302004616283e-16,-3.823445209472031e-18,6.38633399523682e-18,-2.6707508032016422e-17,3.7147747245832014e-17,-2.3342497291713747e-16
4.0,-6.324075487670526e-16,-8.558750361477223e-17,1.795925375251852e-16,-4.168887287876247e-16,4.3381325580577496e-17,4.215577353573686e-17,-6.476358936424875e-17,6.355167919974366e-17,-2.825122598709711e-16,7.88522591827973e-16,1.7201938439830985e-16,-2.5433069935337255e-16,-5.868387581164637e-16,8.755850830319078e-18,-2.16943035834707e-18,-3.787254596485687e-17,4.704441953697762e-17,-2.7213268748221267e-16
5.0,-6.956982557434972e-16,-9.320805127638706e-17,1.9663225721728117e-16,-4.577253258402775e-16,3.626075928436672e-17,2.980906219407352e-17,-5.38460587954109e-17,8.14112121874917e-17,-3.098675287286843e-16,8.436397358812382e-16,1.8898260137838037e-16,-2.1796649675342456e-16,-6.414941418408013e-16,5.014241799518805e-18,3.761896466887412e-18,-5.992960214281071e-17,5.860779923547226e-17,-3.3280692573514395e-16
6.0,-6.908757926124001e-16,-8.315163596641563e-17,1.5172100137104168e-16,-4.553466335375106e-16,2.4318958219145363e-17,3.952266248291192e-17,-4.812949225691627e-17,9.295450402712641e-17,-3.1651328896385106e-16,8.318861063524187e-16,2.0008229383137142e-16,-1.7393542486341436e-16,-6.529791824865347e-16,-5.3635219712222595e-18,-3.3967952011843942e-18,-5.46240430288125e-17,6.530966569744046e-17,-3.4086844400880445e-16
7.0,-7.352291718468568e-16,-9.185785779057838e-17,1.6138741643762854e-16,-5.051708868624541e-16,4.424640813942956e-17,3.427161855930905e-17,-6.928415220893427e-17,1.0809534107527099e-16,-3.908099989034179e-16,8.727963768808404e-16,2.1536079032922468e-16,-1.5582607587109448e-16,-7.097391269851854e-16,1.1125881789998979e-17,-3.366532929306182e-18,-4.408899526015411e-17,7.93693177200155e-17,-3.412106764377797e-16
8.0,-7.521015214822239e-16,-1.0377262771911847e-16,1.707501528046453e-16,-5.102905711192814e-16,2.748032117704856e-17,3.343541657150643e-17,-4.806404926942195e-17,1.1396131462990393e-16,-3.6555717267265965e-16,8.890700027463051e-16,2.2802120286412216e-16,-1.3958488013690745e-16,-7.14840162803062e-16,-1.0063033017845456e-17,-4.067374272150084e-18,-1.926400030664092e-18,8.451518735256852e-17,-2.7323431091014735e-16
9.0,-4.958192110061646,-1.3423153012990952,6.583794951438904,-7.25036382675171,-2.4671389162540436,-2.373904064297676,-2.8348150849342346,9.841282367706299,0.5094947293400761,-1.791999489068984,2.2058907151222233,-1.3823315501213074,-32.2389554977417,-0.6720858067274094,1.9202417135238647,9.256473183631897,11.760412454605103,0.11651910841464966
10.0,-3.021776359649473,-0.8380144033947604,4.782473323250556,-5.742008059529416,-1.0018099434749879,-0.054024895059506584,-2.509295458132356,9.612823211339974,1.1124578531560334,-5.589779102104086,1.503877540372595,0.7714987262297885,-28.069546998636675,-1.9085515735217697,-0.22669769567968112,8.531339864774747,11.55938408934532,-0.5404639948386811
11.0,-1.8310336841180392,-0.5357899642331942,3.25521531882913,-4.548969835023112,-1.1215997626119028,-1.621312298225223,-2.3528001814471335,9.415213173862933,1.3567292442958196,-8.003783871108961,1.0952236054326607,2.141146883917622,-25.193921072307592,-1.3634928515202835,1.167858534589699,8.007311177322679,11.35814332804067,-1.0294191867137823
12.0,-1.2464385280037655,-0.35958451564370353,2.6649215495941587,-3.803148486569367,-0.9887339367975814,-0.2967681066721206,-2.2817917213329655,9.238670878226786,1.4091844485171414,-9.521888794054865,0.8560221057859478,2.4527884691540653,-22.954458708809867,-1.248812486357769,-0.02138866507393411,7.629957103733023,11.155106196791902,-1.3791691718741768
13.0,-0.942543986073253,-0.26412601559610516,2.0698649534506073,-3.250426981137224,-0.9401818813722063,-1.2264789519287134,-2.244116904317778,9.071638138161932,1.383568928309821,-10.499180440376975,0.7101125533286365,2.6624279702052864,-21.16205220770756,-1.1101604320718481,0.8236916265707868,7.3508346538553795,10.953797984082044,-1.623009808745969
14.0,-0.8630714330218687,-0.21919283387692245,1.904240750458186,-2.8579477335830195,-0.8959741031358728,-0.4653766723152515,-2.217291032070384,8.910837750276437,1.3236810003547226,-11.064137320044715,0.6164128048914832,2.452056627436581,-19.697888366062497,-1.0099040682227085,0.15289082960313505,7.138851887308519,10.755201411060137,-1.7926737566353443
15.0,-0.8740622914197864,-0.2070808870576979,1.6671414840077485,-2.5386776900078365,-0.8637125732247697,-1.010634106622252,-2.190763279381436,8.75303593481182,1.2584442205222897,-11.385245758259595,0.5485495147017261,2.3080295595517946,-18.449902681221463,-0.9299322510044022,0.6582713322690479,6.97322634570908,10.5600171953474,-1.905036873165249
16.0,-0.9679555791927328,-0.2152562779737892,1.6357280170715045,-2.285158204812788,-0.8369456001389177,-0.5701288360218864,-2.1610554544076432,8.597877122020986,1.194555466665053,-11.505189920201548,0.49318456071148775,1.9988566289959557,-17.37767045222246,-0.8619367487060817,0.2770119666329922,6.8392512163897985,10.368472065303866,-1.9784526453580114
17.0,-1.0838180438212008,-0.2368421032292437,1.5353773390792975,-2.0592267628211633,-0.8138109953145509,-0.8866920097226874,-2.1272969331705935,8.444457309902274,1.1384208947218077,-11.506021177220292,0.44202323606435945,1.7799428120586511,-16.42659689077494,-0.8058046886927855,0.5762278583737119,6.727317434143512,10.180621376991084,-2.0218006003095796
18.0,-1.227308193594625,-0.26642316047236625,1.5368785840834125,-1.862928497974826,-0.7930815302139622,-0.6297372392405323,-2.090173454974683,8.293090629886143,1.0884609247615709,-11.402717039378393,0.39122427083707056,1.4995046353230816,-15.5800822883673,-0.7559621599364499,0.35857444850197817,6.63046553367068,9.99638977128145,-2.04497026278455
19.0,-18.91552618575941,-0.6322177243371514,4.025970166431783,17.12377226879713,-3.303669525437832,-0.7087970801556456,-4.5918597375505685,4.099264213657921,0.6715254444460953,-7.364045507261912,-1.7812557049812507,-1.8311082628048165,-23.578164981516913,-2.9233511220479684,0.34122959642396156,12.429095271264007,12.166368484757232,-1.9759478057345932
20.0,-18.638174012391925,-0.6779984619407806,3.8485368551514263,16.047190438821996,-0.3352615452520915,-0.8768213223532493,-4.248031811729803,3.974213515129647,1.162131358065943,-9.219932961222451,-2.1845899957719306,-0.4422540742455907,-21.489297910730123,-1.593906982799815,0.6913609948461044,11.822541693005675,11.97836115375056,-2.4560588558329277
21.0,-18.316532968824834,-0.7109064667698426,3.6398704842365817,15.55327604703856,-0.9241022165194703,-0.7225098229847644,-4.063164181483774,3.872278767895954,1.408415252863001,-10.472995989802293,-2.4469905951144506,0.17061375787978328,-19.71986215307345,-1.6774241972481394,0.29220523205310367,11.407839683024271,11.773746681233165,-2.722689140974944
22.0,-18.0937578514097,-0.7554345357920902,3.441711038376768,14.960713415854155,-0.8157395156392764,-0.8123890141459138,-3.9756658999916783,3.787961867534156,1.5030341234913176,-11.282936728981117,-2.6101063326765734,0.44934120507537667,-18.36451182286028,-1.522957104952891,0.5246862974524416,11.103723296357652,11.561501307522365,-2.8727715154627558
23.0,-17.888640969998804,-0.8071152391132644,3.2844784143435932,14.41916756737984,-0.8467087382681417,-0.7206129263258338,-3.9328630506593782,3.711301106506455,1.5301908814217375,-11.787727670089062,-2.7246288932491707,0.44241953425357394,-17.260303852883286,-1.4460888970033767,0.31387109457635587,10.868224432266027,11.348026383734119,-2.950661881461254
24.0,-17.683803577295492,-0.8637765424488493,3.1239041803714445,13.908201524509895,-0.8492310753031731,-0.7676820707307621,-3.9109679373153683,3.6393922040015148,1.5263304322648505,-12.091343656768261,-2.8107198342540114,0.36797614455229866,-16.337025266810286,-1.3752844074365653,0.4606098700798924,10.674763013604542,11.135296047844164,-2.983590634180333
25.0,-17.470276839524402,-0.9250633293554754,2.9908029863973145,13.431571333080523,-0.8560316362350302,-0.7107704253813008,-3.8975941201530944,3.569657123597271,1.5102788723520795,-12.241280266056764,-2.8842577930735827,0.20242678566728234,-15.549651955849164,-1.3173908487319639,0.346875853439667,10.507824988430848,10.925473264649915,-2.9891894909014294
26.0,-17.241851895789132,-0.9887019091311476,2.8573081187545437,12.987856483865007,-0.8598566479092131,-0.7331386341143458,-3.8866225830182692,3.501655784630685,1.4908237832553444,-12.287750061513686,-2.950673814337817,0.04622561820225135,-14.861134663102408,-1.2680139208099912,0.43640535540973424,10.35775199910912,10.718681542237718,-2.976776933513349
27.0,-16.999635285261686,-1.05436302501924,2.7415507931281278,12.573324545022816,-0.8624843266899505,-0.6961160245074833,-3.875475901431864,3.434701071584418,1.471459558033898,-12.250955520759968,-3.0151581054386796,-0.13095949982106347,-14.252166297079864,-1.2245402437375688,0.3741996180965501,10.218760470696813,10.515593327640854,-2.953190024909553
28.0,-16.743341323175247,-1.1205459759101153,2.627509944421994,12.185668539452973,-0.8634047055465999,-0.7043764980073597,-3.8629829284297275,3.368984580744961,1.453498830858646,-12.156603426137773,-3.0782445171340957,-0.2817188686513785,-13.703916389933557,-1.1862139405938286,0.4275515816940616,10.087146540447295,10.315907376519434,-2.9217841359264836
29.0,-16.086144695066587,-1.3092692625517894,0.47502530978616697,3.7691758534010362,-0.9489237854189456,0.727957143550103,-3.826529099889192,0.64974743062103,1.613197627460256,-6.517943036551279,0.9106284878681961,-3.882295236584309,-9.168199679141537,-2.7821863681242944,-0.0952069542116526,10.36276744833092,6.739217322491609,-2.051508200606596
30.0,-14.838190729305468,-1.4004779207734344,0.2680131187947685,4.344683333258017,-1.3135891402838884,-0.8144310959294283,-3.734919359120449,0.5825235743540258,1.7091953391223693,-6.8307965362340965,0.5600985005772192,-2.6684203217172655,-8.713841585077208,-1.270564743033673,0.7140823268099685,9.994142057198935,6.659551167442595,-2.2698553407235313
31.0,-13.939786008237576,-1.483987049254468,0.49759876283484505,4.648768724061516,-1.17624460351285,0.3700658454309291,-3.7005835464741605,0.5375943734960988,1.7017037924827219,-6.939622882841939,0.31736294762121764,-2.107630140730344,-8.20515376996973,-1.4988903439883554,0.016051515966076346,9.725224571543595,6.561821455552239,-2.375049045367164
32.0,-13.182272472879824,-1.5720101296694666,0.45614697723964603,4.876187531401263,-1.1481138157820383,-0.5250241768850615,-3.68591643921965,0.5017441957669875,1.6602140898488709,-6.892375032368909,0.146217842358908,-1.682018037140451,-7.875372235540919,-1.402311895869194,0.48440013090126177,9.50997830129484,6.458021309059167,-2.421128749120177
33.0,-12.582328820317201,-1.6518172167392544,0.6349261516467948,5.006452187227649,-1.1113326768660587,0.15596055019959104,-3.676163509864403,0.4739887908803029,1.6046674122483826,-6.745475346388072,0.016400316466323783,-1.538868422222099,-7.615864493308639,-1.381906473766291,0.10315985373295544,9.328707977008017,6.3486590527299525,-2.428896341150428
34.0,-12.051588514921628,-1.7291332079092183,0.6402472588562542,5.092165762844445,-1.0818783494001813,-0.3610889447715812,-3.664627978542581,0.4498853742526663,1.551467694470169,-6.5646588772421275,-0.08672250516698243,-1.3990631484037381,-7.395719578040321,-1.3537129319509664,0.37159212444626505,9.168881311082195,6.2373830748008725,-2.4114119638795493
35.0,-11.605305221622757,-1.7982084942631347,0.7601007825856705,5.126897851313443,-1.0572539157724088,0.031039603708635732,-3.648977947488809,0.4297056169810456,1.5014257234360864,-6.351331753164375,-0.17348773171169452,-1.3791697584057774,-7.203681807635835,-1.3307562903397971,0.16167929140709347,9.022352346266185,6.1242627675142085,-2.3789330302603036
36.0,-11.197807090242861,-1.8631358081636238,0.772092959667722,5.136675824332092,-1.0345601030871667,-0.2665700434000299,-3.6289302206314504,0.411479530658597,1.4581107082071871,-6.135807568521836,-0.24857075990267807,-1.337914287054467,-7.022711248622759,-1.3093170620810857,0.3133777434590681,8.884783852827201,6.010992171243881,-2.3361415631206377
37.0,-10.840191993911695,-1.9210323690792883,0.8443277993783616,5.11702503883623,-1.0150591414939032,-0.040251425027896526,-3.6048730284314368,0.39564227694376175,1.4191089891299904,-5.912450042319714,-0.31598734736203804,-1.3496592541259709,-6.852433674781565,-1.2887707410892357,0.19750424352864193,8.752979794669821,5.897421506302772,-2.2875250835308383
38.0,-10.507302887437643,-1.9747250244405032,0.8506818576331039,5.082326441212765,-0.9966363474014619,-0.21081219384041394,-3.5775455981827853,0.38118170171101884,1.3850341935251258,-5.6951579179191105,-0.3771079894439011,-1.3414161877052333,-6.685686783213413,-1.2689976326900765,0.28221120780592057,8.62538211591438,5.784441745754956,-2.234865191279214
39.0,-9.383252152374139,-1.4679906487162893,-0.906171769918092,-8.16297299679038,-1.2184975749434437,1.8251059158280418,-1.1812181008043243,1.1756856609258826,1.2787344906392393,-4.250594648477229,2.075191452290201,-3.158203767869299,-9.017116052821834,-2.918491902268595,-1.2550384447352982,9.633687099915083,6.546592129980725,-1.8539209549233147
40.0,-7.712087153506289,-1.465400799085972,-1.4001367927981172,-6.688863483102188,-1.7291214650968598,-0.42353614310706433,-1.2766257169517174,1.1281911635938409,1.1403417183154398,-4.708330159697422,1.8021653743181578,-2.0244458710130617,-8.39917045784658,-1.7310051040003929,0.5929287046391937,9.358987836077201,6.439766335445852,-1.9480874519455003
41.0,-6.601855867140237,-1.4973151850847257,-1.1183439539564777,-5.697276931732815,-1.5094053063669173,1.2974503203870533,-1.3554262412783933,1.0928739455976824,0.9921847673918874,-4.838087821597122,1.6085814960097817,-1.7556001739881388,-7.831170084546919,-1.876792012853119,-0.8423628349545154,9.136041406710655,6.326847848739341,-2.003854386518722
42.0,-5.735553705700777,-1.5526108111197416,-1.155463743607117,-4.8775157739479855,-1.4518341039114397,-0.00875184912677529,-1.4086395289471576,1.0626676551553023,0.8696458452091681,-4.821858760230984,1.487399526646608,-1.4058367567572168,-7.425267242555421,-1.7848510255869376,0.19659921320937424,8.9437230001391,6.211387719924053,-2.0295082645698126
43.0,-5.120064095954692,-1.6106592498594874,-0.8370190047623951,-4.242260067151442,-1.3861803737126541,0.9663930226028542,-1.44016775791756,1.036683934763933,0.767175194013954,-4.662634125609435,1.3890949805801998,-1.4274717766965734,-7.106413430300325,-1.7515328115922015,-0.5824165256241326,8.773080426105416,6.09444314965805,-2.0345616004904477
44.0,-4.622855799954779,-1.67049249449758,-0.7503483825908832,-3.706779519180829,-1.3318294235817936,0.2102758339079165,-1.454349607914665,1.0132386512076201,0.6878863040353262,-4.481512170866639,1.3184071740744265,-1.3280318714271626,-6.822039864137675,-1.7163435858821776,-0.0027974632081848583,8.618371292309513,5.976452063008491,-2.0190955456600364
45.0,-4.257661846248677,-1.7239482357905138,-0.49361075091353523,-3.2721725096469765,-1.287131026608237,0.7625180732133534,-1.4553917574342077,0.9922115859125702,0.6236046363987268,-4.2483154398313125,1.2538390630413723,-1.392048302526459,-6.573902523851331,-1.68441227446367,-0.42556479386884083,8.474520789919792,5.858193136434247,-1.9917943183605917
46.0,-3.956186484589672,-1.7733072901251996,-0.3911594970939891,-2.896842867948477,-1.2458514776634235,0.3252327802244399,-1.4470253867303418,0.9728409304791823,0.5734039813394118,-4.021598077679433,1.2017935320587076,-1.3673048706905568,-6.335651712667353,-1.655585548023348,-0.10446381258781146,8.339079088770037,5.739970805685722,-1.9532611665274413
47.0,-3.730049619417329,-1.8151017314773088,-0.20648290489943344,-2.58315943921943,-1.2106546861021004,0.6371842897960405,-1.4318413912265204,0.9551768548541588,0.531768333319656,-3.777667004814039,1.1517243284733762,-1.4184003382284605,-6.113986290258374,-1.6268454555772975,-0.3327642010923334,8.209434227977075,5.622192260540605,-1.9087533744351526
48.0,-3.541493003583671,-1.851955660819172,-0.1202877091628598,-2.3080964840654623,-1.1776443964948213,0.38404678591766384,-1.4120424971790408,0.938737149169611,0.49788518513989577,-3.545573797009965,1.1083858200630576,-1.414068647219521,-5.896780110708633,-1.5997821586468106,-0.15553778743221802,8.084469542709167,5.505127434726762,-1.8587329229192215
49.0,2.1959555508360467,1.884454145050734,0.402733435731248,-10.091846351079209,-1.4067666865778325,1.444134627704933,-0.10372701203353785,1.1978394633670595,-0.08913923238893531,1.3007967091726567,1.3535258281038676,-1.8907354945733967,-3.64145415384041,-2.2128195858477637,-0.24017800875528394,6.146859423261866,3.8614138254968813,-1.4308394645299742
50.0,2.6913895988652765,1.8724207990169779,0.16594788986831777,-9.277967241687158,-1.5696462998759682,0.21420835028596175,-0.08681512731732277,1.1678240870284062,-0.08917113294617979,1.3289911406538968,1.2742099367236346,-1.7122903131133258,-3.4236609464041905,-1.6089167147419459,-0.14637695661255484,6.0835715936497365,3.780696075075003,-1.291034709388159
51.0,2.955661041289831,1.854597236962083,0.3215978106450894,-8.671276354675225,-1.46729283392634,1.1419754726191118,-0.06890250063786962,1.1443997795630407,-0.10917188332131963,1.4013946674244604,1.2205816586604339,-1.636620983997565,-3.154089698572694,-1.6818110527818995,-0.21679516855490444,6.00648700024718,3.6984165349188904,-1.1870739115531599
52.0,3.140982265497179,1.819362680209575,0.2965525874957411,-8.137507316897235,-1.4264653174777049,0.42741855801026984,-0.04851515680516716,1.1201058760077083,-0.1309417848595642,1.5298975291761465,1.176122485747721,-1.5996152501829872,-2.946328612941066,-1.625605400325147,-0.16760326576919987,5.920560802861074,3.620592758087273,-1.1090330733464202
53.0,3.221935810645915,1.788494282688959,0.455340686432367,-7.691007007425017,-1.3825579571834932,0.9514983213803798,-0.02513222608426524,1.0991134820915431,-0.15550868633113038,1.6766479526285973,1.142186436084251,-1.594821964311386,-2.7549690456603813,-1.600341444161109,-0.19728611998589268,5.830163835694471,3.5420530050261627,-1.0432949080806364
54.0,3.2679881483693,1.7527821438895739,0.4875344785343958,-7.288700527446111,-1.3448222088599464,0.5371646108831278,-0.00027169482099576037,1.0777597857797248,-0.17744762279815315,1.831042845031007,1.1098189051594156,-1.589356037909904,-2.577922773501083,-1.5704996585181084,-0.17151756199936896,5.738307609477663,3.4659360960536434,-0.9853177778975484
55.0,3.260222829469498,1.722968697118691,0.6093420206324605,-6.937229966074644,-1.3104066526451716,0.8319769416533218,0.026000285352342,1.0584659561033551,-0.19901956874135845,1.9847909162011774,1.0822653218783724,-1.5913398699595636,-2.4094620267589058,-1.5435590767583323,-0.18318309955680273,5.64598352259585,3.3895475566632207,-0.9309950512989862
56.0,3.2356682471905316,1.6923785809493688,0.6489770019741372,-6.614376775901373,-1.2787306476537714,0.5912653941464552,0.05256756608324653,1.0391305573285923,-0.21802297194554562,2.13488904541825,1.0549628679325531,-1.5883328314666212,-2.248048913230587,-1.5165526913467624,-0.16972202909498652,5.554272229955963,3.3148346821074153,-0.8793296711810012
57.0,3.1819703778038537,1.6666413135099245,0.7329453352061202,-6.3246449793964175,-1.2492308678022024,0.7557593264955793,0.07938631746593683,1.021143925940382,-0.23613021315260296,2.2787935064358544,1.030308006409955,-1.58640699116052,-2.0922784098085003,-1.4906095179787253,-0.17322152810440755,5.463313445922353,3.240310211273604,-0.8289232777664441
58.0,3.1198805172103246,1.6413114831130309,0.765469216290513,-6.055462119693834,-1.2216172591946894,0.6150912556432753,0.10581049751527893,1.0032673861873374,-0.2522772992910246,2.4161768468624487,1.0057635251892285,-1.5808009470175053,-1.9419229597228274,-1.4647950443666136,-0.16592628372671864,5.373464361107793,3.1671676845858405,-0.7797805881271103
59.0,2.609391641321741,2.404938043796924,1.9125746854414603,-7.807385530195319,-3.6327708141036834,2.6088279628370725,3.4412843841955425,1.3820802304855633,-0.6664838423846282,4.070431500529608,-1.0698699931164195,-2.4950085594237965,-6.4952835522370584,-0.8897415240707804,1.2383913852448238,7.08952678176065,-1.9449930459444618,-1.163583911706087
60.0,3.0008723086229274,2.439787810022223,1.2863106452893214,-7.448352511788594,-1.7664612134036668,0.20481631564124836,3.256376923881045,1.3552727503828077,-0.9164072580200906,3.297321484609136,-1.2304365507543298,-1.9838219533658954,-5.44241528882128,-1.6058058436556992,-0.3118599310247121,6.895076116569898,-1.898080180342153,-1.1837051848001483
61.0,3.177749098442229,2.4796285699160268,1.3514489573078001,-6.945568623822778,-2.050873455489511,2.0257350309366933,3.1298318057687506,1.3388710101070584,-1.0945780517478347,2.8589771156636825,-1.268155583940564,-1.626583096211033,-4.804489616244766,-1.3695042925178642,0.7746031537501015,6.72610033161363,-1.86488963466874,-1.1888220649365602
62.0,3.2819770035460625,2.4629246642770006,1.102515562412779,-6.564798150287142,-1.9399129643185686,0.6426739850869936,3.035528234583166,1.312663976707054,-1.2153753731779364,2.6634915569418443,-1.3184398130074297,-1.6605461708399147,-4.307826214395071,-1.3401964275928226,-0.046548203910041996,6.577116543923033,-1.8226524817972072,-1.1892917312102962
63.0,3.2566230360561796,2.4580259052602997,1.2226653435021397,-6.2626304186173805,-1.9085945921102874,1.6705689774596366,2.96943001855464,1.2930061712431176,-1.2999257114558194,2.535379575495833,-1.3233477950434671,-1.608099283192141,-3.8968327932665545,-1.2928868994249578,0.5496130315506949,6.441955839765882,-1.789440222241192,-1.1720430211290433
64.0,3.2312198808479895,2.4280383856539274,1.1248790297580769,-5.979753905625325,-1.8709368906310835,0.8743331765054037,2.9204966934964003,1.2672226900756676,-1.3507814832454081,2.5113770076613617,-1.3466564082304795,-1.6958420215737284,-3.5603202175947573,-1.2531658257150071,0.10778563835182864,6.3169273207539,-1.7513357868845731,-1.1500998751738472
65.0,3.145264116534845,2.4089291861295825,1.2182582920408302,-5.743217463161606,-1.834685484503166,1.4526419285795105,2.8843458512186553,1.245421958919128,-1.3844941449989516,2.5046885423067655,-1.3494764491684896,-1.7011814345893859,-3.259910582215518,-1.2218481035400877,0.4317471203368815,6.200021411282039,-1.7188983864794696,-1.1168911675830016
66.0,3.0691545299490492,2.3778692034485136,1.1759674082614042,-5.514336174359949,-1.8031564407020295,0.9939048844165872,2.8553661785679902,1.2205054688108903,-1.401932180803886,2.546078067634207,-1.3649280980189398,-1.7627138477426296,-2.999818665091045,-1.1900274297073734,0.19296992682167957,6.089170262470571,-1.684221472535223,-1.0808970880403623
67.0,2.9639761277165153,2.354587930176062,1.2348504137024885,-5.312691906286156,-1.7704234864973847,1.3167483677207557,2.8316200152844884,1.1981861959844307,-1.4118989096510322,2.59190373178439,-1.369719592702808,-1.771326614996787,-2.761169207418696,-1.1634060767725911,0.36762995064427983,5.983406742036891,-1.6532381555121214,-1.0388224763726366
68.0,2.8683937222069193,2.32536053913238,1.2125381008037106,-5.116724243062302,-1.7410528265045975,1.0513321915177296,2.810471548528597,1.1744490156225873,-1.4141840532195302,2.6607713899881213,-1.381869875400657,-1.804395006263264,-2.5473692747968144,-1.1364546806648104,0.23822065249419966,5.881489840140082,-1.6214631229144736,-0.9956838046784986
69.0,1.8365169170545421,3.51171407403293,1.6801896654792472,-8.412005498121715,-2.678965626680642,2.771964661534387,4.142763376722433,2.043730479670265,-1.63463430806901,6.394979395316351,0.9361358533820177,-2.6779594149185213,-2.8885595583816723,-0.16790684218167806,1.030740467797345,6.684876584883748,-4.768811509308563,-0.9544307758309392
70.0,2.4905004788380634,3.4919467433859044,1.1601001262652164,-7.7446702679114345,-2.079730133549846,0.7459730560720041,4.08594118868284,1.9759970065120598,-1.6161943979644597,5.658994892391711,0.7303557977038375,-1.9260997318191029,-2.052890732713088,-0.9858970467631893,0.1546148389574149,6.474069391131996,-4.646979983371804,-0.9869387587573129
71.0,2.821427787011615,3.475363344897408,1.2585874546065825,-7.205790338711488,-2.1049311879037274,2.262804238664555,4.021126098541905,1.9256297826410407,-1.6402512287492144,5.312437923488021,0.6499057338548075,-1.6019604173400275,-1.6585656950363692,-0.7477664121933587,0.7414488922788439,6.299482687698639,-4.540809413561027,-0.9996252722474079
72.0,3.062218050384475,3.415965006580458,1.0925910860630959,-6.760416540968432,-2.0370552266526283,1.107519786231887,3.9587199416564554,1.872142269132702,-1.6625599726962763,5.153476120894635,0.5709237411186723,-1.5697888500303367,-1.358676646351281,-0.7447010503400171,0.2897328247889752,6.148117069516651,-4.431605949039783,-0.9998634237088404
73.0,3.158450878790566,3.370280072667997,1.2259800788124045,-6.414463742080496,-1.9893652091454799,1.9494263605537352,3.904960561930375,1.8264827565541188,-1.6830226389689462,5.058739628978813,0.5295437814861632,-1.5392133406846042,-1.1261120950325036,-0.7125609539403694,0.6114456449174892,6.012290258839709,-4.332241866106521,-0.9819770899708788
74.0,3.2323233378968457,3.306519471187798,1.1773721207378323,-6.099940600502556,-1.950312711965839,1.2904067126345717,3.857115692143547,1.7784916691030404,-1.6924921655172325,5.031423571337795,0.477999008688617,-1.5853314780684755,-0.9386322518228845,-0.6902995971009862,0.370147661062602,5.886832483075805,-4.232007728578545,-0.9571692396947529
75.0,3.2358150058901956,3.254722823589577,1.2771272666040172,-5.840031076253611,-1.9093328035163015,1.7549101115266623,3.8150109768735962,1.73514035616917,-1.697810406202592,5.016493813065885,0.44254973954040056,-1.5943807074618244,-0.7730310634040087,-0.6723410890286536,0.5431806988195232,5.769812177753016,-4.13846991562563,-0.9218673604597631
76.0,3.232753607267112,3.1950846917083084,1.2632168170046185,-5.597108739370313,-1.8757708685221508,1.3778888155663616,3.776010499856346,1.6909779875793673,-1.6961815169980348,5.028469979572602,0.39975540976437074,-1.6274053373151691,-0.6295632962825408,-0.6542834759820808,0.4124795371914102,5.6587681559238625,-4.045608519605935,-0.8831437271213396
77.0,3.192727005805942,3.1439082551659983,1.3246692567444964,-5.3867553758358575,-1.8403347223234903,1.631009650433954,3.7397717833772113,1.649957796526325,-1.6921600680950508,5.041758469578646,0.36546918596597955,-1.6338250618868653,-0.4978454447085241,-0.6391258985049548,0.5041952909331052,5.5529164223622285,-3.9576304206514124,-0.8391659733171792
78.0,3.150647989631123,3.089314112259524,1.3180359911261341,-5.188126665245646,-1.8096167316570848,1.4134908156148125,3.7048307878975426,1.6090347600975,-1.6843451658568867,5.066229710359888,0.32715278219265453,-1.6492504753927113,-0.3793628049648383,-0.6237035992459199,0.43253571993207507,5.450890982090799,-3.871118584813049,-0.7940202395211355
79.0,4.119178249153036,2.654433420835817,0.8401154079019051,-4.234716807686707,-2.5272004428518104,1.8067673606871035,3.952997700239647,1.2605582530394397,-1.792699108738883,4.281214768967578,-2.4834901799672,-1.256949563933155,-1.2671844744334102,1.2775687972825989,1.3307089276821489,5.825043854047006,-5.4041403000621715,-1.1430178657517776
80.0,3.740818933244771,2.583068563050765,1.0262125558727,-4.3676503923484145,-1.8437330120395714,1.426671281437312,3.899752713106454,1.23586932653087,-1.8345947738671011,4.378826036244504,-2.4699548585106683,-1.614103556359848,-0.9486627568553807,-0.2711868018942529,0.3422146189835358,5.748120368213355,-5.294032969355303,-1.0664191665275715
81.0,3.4755626519503817,2.543355614225063,1.1615589147806502,-4.3241627030585175,-1.9502244681065326,1.6626101660013135,3.8609137869176706,1.213675819069933,-1.8453162283238216,4.482502539198316,-2.4312405839274955,-1.718815805445261,-0.9098647280098753,0.03287020834708415,1.0554261536933602,5.661455129521212,-5.1905894199846845,-0.9974721443040127
82.0,3.2778965133192557,2.502434027645177,1.1871710740204806,-4.262496314227429,-1.9067900769856787,1.4478057029750646,3.8264244780744323,1.1871648245740305,-1.8386406197094765,4.540914755905366,-2.436101107011843,-1.8079025623131466,-0.7884129953627692,-0.025040485636028953,0.5388749813720126,5.572199491370544,-5.085364848986152,-0.9337289359681492
83.0,3.102259636079417,2.4756041033536156,1.220831522264231,-4.1854099416764505,-1.8848841957387537,1.5776934363419537,3.7925011104784154,1.1640755614293656,-1.8281405932288566,4.560315943602333,-2.4234080320124183,-1.789370277108107,-0.6729677909058189,-0.008341737707073416,0.901879611262036,5.48354726054685,-4.9859847645808735,-0.8698605098868725
84.0,2.957880475763801,2.445150223030856,1.206054418129559,-4.0943742581421585,-1.8603068413625992,1.4507020686707763,3.7585339522276824,1.1393005634205173,-1.8128953371420342,4.5908485368743275,-2.427706110975764,-1.8088653984706466,-0.5647192494030087,-0.004421549642709133,0.6304568861436963,5.394197064697785,-4.886589170955381,-0.8124320021456872
85.0,2.8216495922293117,2.4209646727984486,1.2051578064418456,-4.002276941506194,-1.8334188230953155,1.5190718676053931,3.724022759903012,1.1167816270144417,-1.7972329799878348,4.604234903750061,-2.421055142155389,-1.7843213480933482,-0.4602313295251399,0.0010278947828201712,0.8148389609696711,5.306025026221015,-4.791395194658477,-0.7560329140666111
86.0,2.7022832228849536,2.393934385144272,1.1819882567345577,-3.9051966330070833,-1.8083839735495277,1.4414598050796874,3.6891597946316623,1.0936705862293143,-1.7795751458128528,4.626134890081322,-2.422507700132174,-1.7837249020725725,-0.36525914164151096,0.006473164146804489,0.6712900053464135,5.218042200526842,-4.69720431320558,-0.7040865237066165
87.0,2.588026729661343,2.3698458416193633,1.1697789404655534,-3.809967572100721,-1.7818147066782632,1.4743261172714175,3.653833437298237,1.0720428262830164,-1.761877656589031,4.639303123067025,-2.4176830918225947,-1.762697092917204,-0.27510482805547376,0.010986915777067952,0.7634392635804108,5.131311950925975,-4.606260482437066,-0.6533677052766335
88.0,2.48435588936768,2.3439329112802905,1.1468962535547416,-3.713748020213849,-1.7566687390340747,1.4246899694145214,3.618194132923114,1.0503693833511134,-1.7431547187327439,4.656294665261058,-2.416826420866405,-1.7539904564386468,-0.1923062531210764,0.015555486195527546,0.6862733190901791,5.045289535281771,-4.516839461580967,-0.6055841395840083
89.0,4.76621554012162,0.40644817172539516,-0.2784780198244281,-4.1008416359092905,-3.1037053605424947,2.0358980062384373,2.789091113300259,1.5503779917376939,-1.7673498097443205,2.31672038628607,-3.965641864898614,-0.11504475571629325,2.255688710282186,2.1648264793268526,1.707021597812116,5.38873745583129,-7.516615789284055,-1.0452726008939766
90.0,4.142172977667723,0.3127008313184192,0.0904703513601981,-4.384646099016248,-1.9884499978811618,1.417776672950838,2.7934181675222716,1.5244214132645917,-1.7443830461112615,3.256366770079694,-3.837542026789138,-1.315239993316748,1.8392857709276367,0.6397276906310729,0.5072151348836673,5.351669846041714,-7.3631138382259085,-0.9877220233150996
91.0,3.7893733457557586,0.28482465196568674,0.32862233900971183,-4.34297458418307,-2.1795917991229654,1.810318207342589,2.8180105951498065,1.4979899549532325,-1.6778871195308862,3.787888450085907,-3.7372647091062055,-1.6281784370389625,1.4543778610307196,0.8507816465061737,1.397035599125917,5.285134108959529,-7.219525991960145,-0.9226270287414082
92.0,3.564311553913228,0.2603452863060791,0.3833658833690514,-4.269835995132988,-2.120134770915028,1.4744615076288867,2.8351968577241604,1.4655693776639427,-1.611196330044673,4.103129044042033,-3.7121785378340597,-1.7246859935009349,1.2791854447059468,0.7575302682859584,0.7599828696166684,5.20658903820569,-7.073863561031686,-0.8609908953386011
93.0,3.378327816490261,0.2602860137443057,0.44800285440449117,-4.173902496070449,-2.0956840200534694,1.690517448007935,2.8406831432923676,1.4385462222748018,-1.5609178714478658,4.281040765516815,-3.667430346605488,-1.6600501734203812,1.1709940701120765,0.7445090253369115,1.2044641690411233,5.126541064791995,-6.936851018851784,-0.7950797307138667
94.0,3.2383038356836646,0.25647874168048523,0.43903370376070106,-4.059632207081199,-2.067547980783643,1.4985455927446663,2.837008252646192,1.4098453574901613,-1.5200385675535588,4.417986906078436,-3.6466695267183367,-1.6261084865307152,1.1013460152868717,0.7248651368376975,0.8702286165350626,5.04338088407734,-6.800228503375184,-0.7362365592445969
95.0,3.105688519993853,0.26284114184694696,0.45375935182549476,-3.9479235969945705,-2.035457327216167,1.6135944289814632,2.82627734556151,1.384627109611377,-1.4897459036832266,4.498524992527857,-3.610843881410226,-1.5553479551873282,1.0597447645569869,0.7107019517985959,1.0929448985643109,4.960610551268003,-6.669619609392671,-0.6776618766790334
96.0,2.9934288744039703,0.2654996145839248,0.43675515746816385,-3.8316720837362563,-2.0070132707178954,1.5006129411161213,2.810957664694871,1.3588244815243815,-1.4640244852106519,4.563169835224961,-3.585731885332809,-1.5171175807061061,1.0326272131801773,0.6984905614362121,0.9165067313260078,4.876666539987461,-6.540542711739524,-0.6246688869217643
97.0,2.883334349832073,0.27274370601246956,0.43793384927368373,-3.721156970360971,-1.9759858190311985,1.5582778141013485,2.7922501472467003,1.3351004249830347,-1.443175317369976,4.598966497824881,-3.5520515672794764,-1.4673149769168718,1.018837175405178,0.6875087908297148,1.0261602827021497,4.793423778638896,-6.415955982195346,-0.5729952379927726
98.0,2.784139608467365,0.27745063266390635,0.4242303756159467,-3.61103377330482,-1.9475898116394057,1.489166293822187,2.771318284004998,1.311298387972934,-1.424114112449577,4.62539079158575,-3.5236627055620273,-1.4363951114138742,1.0121252800230653,0.677676562172921,0.9311143377704236,4.7100925925039565,-6.293464753118611,-0.5251274092068359
99.0,1.3445861151184912,-3.447175448042154,-1.3182504380129214,-3.4822374722656395,-2.655195633829421,2.1751853333352247,2.561095070272603,2.262799767910312,-1.33445246319604,4.082076577392932,-3.2180239711693677,-0.6522021697145033,4.210282025824009,1.9302421496557751,2.168493286357444,4.2913044870179355,-8.686555877473083,-0.5617963076277366
100.0,1.2604380364795986,-3.472316594706467,-1.1034268815355415,-3.4243544894622335,-2.046298375610112,1.4848559781031243,2.5187275139684857,2.22376479398217,-1.3458687765957864,4.629157248812163,-3.154337942560537,-1.27532758931883,3.7884095492895398,1.1219870546785544,0.724880277999624,4.262444147960114,-8.510267271162581,-0.4740095245881133
101.0,1.2445675005804304,-3.445861338707064,-0.8866227536591227,-3.251516497670181,-2.115617844854678,1.9464746963975177,2.497373006302115,2.1902861438426777,-1.3257153750932458,4.893373643475405,-3.06165495965984,-1.3513165362305637,3.420906886104829,1.209627780394638,1.7541728721082834,4.2118769347457246,-8.348052284460028,-0.39162151804515577
102.0,1.2761225325680696,-3.4302275497853807,-0.8166681328041119,-3.083234452280662,-2.0673841459012614,1.5644462580039908,2.4795606536141177,2.1501210352144495,-1.2945389015726139,5.053769928401284,-3.0350741257892393,-1.3704414451044973,3.180649788510811,1.1418180488828344,1.0027211257365685,4.146355140311266,-8.182687883255618,-0.3289878701398107
103.0,1.2844761113701466,-3.3914492858282497,-0.7095563291521568,-2.9360246619026427,-2.031372439594831,1.8137774468072143,2.459252056710602,2.1162380682819206,-1.270318554520788,5.1117845364965895,-2.9754443324785944,-1.286625667010111,2.994025338256204,1.1188097149097773,1.5190354462649864,4.078890039736942,-8.0273307406054,-0.2671107836146587
104.0,1.3043996372060667,-3.3603376832468608,-0.6742562934678746,-2.792139656950134,-2.001268645954429,1.595747612727386,2.4373272206590286,2.079925457179998,-1.2464729769077867,5.152116052582526,-2.942531044271333,-1.250593298969413,2.8403526311756266,1.0922706910711077,1.1279895127254824,4.0064935381977005,-7.872001907761015,-0.21705136289121219
105.0,1.3025643115640309,-3.3177310871686734,-0.612614848972948,-2.6692522041311655,-1.9659097386510522,1.7265433735695255,2.4133384613611124,2.047464863113055,-1.2278942418111554,5.1458230449758915,-2.890344992214147,-1.1860044123286597,2.714227952411097,1.0706803999291283,1.385198666013126,3.934522097869557,-7.723551755921834,-0.16806555185021235
106.0,1.3027078808750048,-3.2796989562934957,-0.5881843246721148,-2.5525504539940567,-1.9369298001655366,1.5991369596629381,2.3884511286116528,2.0141021519105857,-1.209722671157741,5.132026386673399,-2.8512248619216507,-1.1537172461448706,2.6051169307962727,1.050225311947746,1.1791733839150296,3.860843361481461,-7.57664826372058,-0.12593216231125587
107.0,1.2883259834472298,-3.2357140571963803,-0.5483959503815152,-2.4509578743228797,-1.9049872842358448,1.6639598791138073,2.36257711842405,1.9830722901010613,-1.1942081246986884,5.0940437173372874,-2.801876696574965,-1.110826845112181,2.511753133143648,1.0318078071807744,1.3043944836242427,3.7881936214654157,-7.434838817541105,-0.08486750321009563
108.0,1.2733995965794085,-3.194309911266928,-0.5288408236490636,-2.355413923853643,-1.8770403246100038,1.586775272105724,2.3362971826640235,1.951864864811161,-1.1787559498633335,5.051462791239287,-2.759219389830734,-1.085488052590533,2.428831003042145,1.014182110792377,1.1930566122060111,3.7153900140406986,-7.2952769835664775,-0.047857146061503014
109.0,1.056828458726324,-8.479351384064252,-2.9840532161662225,-3.9698322835721775,-3.194329625966518,2.693442186033614,1.8923482995091636,2.293095974891679,-1.0992252990510225,1.5264651748520142,-3.2381254902188648,0.2950996667792678,4.804803157342565,1.608318144422508,1.7423500331729889,4.085951688481913,-8.925442405833683,-0.30412355455155954
110.0,0.6159040813494236,-8.190860402877508,-2.842440623140479,-3.7591837407118964,-2.2745949186974785,1.6791566055318485,1.7637866377183518,2.3274375514548016,-1.1790671543609743,3.4291861255643563,-2.5736462694583664,-2.3395605304349605,7.177479594900367,-10.467713213023226,2.6942692086469195,4.583055101841021,-8.821987033914663,0.4126347984410623
111.0,0.26474377382718206,-7.799793420685689,-2.6391456903194954,-3.313075121972796,-2.4265717282769845,2.3775299653166124,1.7229483335700806,2.3452839863047696,-1.1050834576316446,6.884792179821769,-1.8596979309616848,-4.927555773235441,7.148067271298489,-18.0,3.3850742169376087,5.077449938164554,-8.72313286979139,1.128185721073997
112.0,0.14398097782622266,-7.378076897421974,-2.6134965859481647,-2.8314121560182564,-2.3632442936787763,1.8378370272902838,1.7634036837298597,2.3395630778747485,-0.9070515485465487,10.43326977736755,-1.178693933903562,-7.052034214327038,5.93669963419348,-18.0,3.95851532916644,5.441103755108285,-8.623920698792354,1.7196808891564737
113.0,0.24430251775685097,-6.9561065606565196,-2.459855354938566,-2.3772621527126887,-2.296333580253214,2.183829324034723,1.8693311502979273,2.3094179740153136,-0.6409605763577435,12.936582202832026,-0.6519646928793392,-8.301127252708248,4.73384795296769,-18.0,4.421629005278306,5.5709980010215165,-8.520405795132223,2.0658834355831592
114.0,0.5025171730135387,-6.5536686537796855,-2.3594853200312267,-1.9551178366480464,-2.2375534694589065,1.885784044925015,1.9892766853482253,2.263334051962776,-0.38079005533100585,14.66245577554943,-0.23255946995352872,-8.944945197187947,3.522221210366979,-18.0,4.7930684528098135,5.548416336436393,-8.41295684957183,2.2554703681987363
115.0,0.816253683376555,-6.155191040743428,-2.1902649712204356,-1.6017406002096166,-2.173338836506286,2.0578522954496803,2.1010368032385216,2.2101438966160645,-0.15970625326336563,15.79531357442968,0.11419137796067336,-9.164228935339057,2.3099768775596776,-18.0,5.08317150361201,5.428469528364385,-8.306283006260458,2.3495783858680723
116.0,1.1669620571727561,-5.771103210982523,-2.0529591944538503,-1.3042395926665247,-2.1198701354751606,1.8875953339604554,2.19384272323803,2.1526025419620503,0.013194519186219389,16.471064502243866,0.40759751891593465,-9.08728680975508,1.1181737603442876,-18.0,5.307020678687282,5.248246509378497,-8.199841773861769,2.385782710090568
117.0,1.5084495416021255,-5.392948574940439,-1.8854238517053168,-1.0733503415862202,-2.066380721959132,1.96670417341122,2.265581256475146,2.0943802580771282,0.13809890951118475,16.793455994006127,0.6634528028788265,-8.804965164205864,-0.03353071770714955,-18.0,5.474201932708025,5.033390820344938,-8.095617042759745,2.3899171182894605
118.0,1.8368883735737338,-5.026441327230822,-1.7413154782155114,-0.8949525188794478,-2.0214087594790735,1.864515674510057,2.316364802250835,2.0362808316097754,0.22099837896029895,16.844951449411155,0.890871560531358,-8.384723842182552,-1.1278246065903796,-18.0,5.595996082317068,4.801150267056638,-7.992887183668089,2.377004651834512
119.0,10.67071279319707,-9.703133439454811,-1.0610663380011471,-17.157980970913325,-6.666161926743991,5.884234191420843,-2.4079863196016946,6.051015393098896,0.8318284562402865,10.594622264530797,2.4451259874222058,-2.549920083828101,14.671180088134586,-18.0,8.417538422019666,3.68287485189315,-11.133040352792253,2.020877733109219
120.0,11.181592679928423,-9.266777867629763,-2.249187564921479,-15.968673915907416,-3.807796596641655,1.2106435600285916,-2.306690519182176,5.946579759875427,0.970693882196346,14.282396262109325,3.0303148019077666,-4.235465425369857,10.940029458901146,-18.0,8.437105229998254,3.7644742177710597,-10.937987787863653,2.1356514872995875
121.0,11.620762274886477,-8.760652834547898,-2.2176935558589848,-14.663565932280918,-4.103730909468814,4.569364483294867,-2.0996063691798623,5.829607368973844,1.203128658105153,16.34220559513238,3.4350069624962005,-4.911700144611798,8.276238236974775,-18.0,8.41814559551906,3.684613805588734,-10.767031528142324,2.1740267416588086
122.0,12.117378573955106,-8.3816716138655,-2.5385756577988956,-13.565761488740554,-3.9334072430861857,2.1165215788893876,-1.8944579491824824,5.6945938429210425,1.4053561127065604,17.429344754158784,3.7244001361354147,-5.028772281191499,6.300714800937508,-18.0,8.40441075711199,3.519633762665743,-10.589908500137257,2.160542154257668
123.0,9.747708326501959,-8.236883392900674,1.8065711708835313,-12.500541039214598,-14.20577669132361,10.123306525589523,-1.3404017871008933,5.495650575606016,2.075232226649698,18.160403083640478,3.8065503939866816,-4.76381861986248,4.734369907011386,-18.0,8.34646242601009,3.327137364867255,-10.435130623087364,2.2088591695182354
124.0,5.702311046046924,-8.22263890912053,3.2968611490347586,-13.25094354898675,-18.0,14.700180186506596,-0.8162260286701843,5.260651523671186,2.7891535239840417,18.44605464215983,3.724798851695576,-4.292865115463013,3.533879053878307,-18.0,8.291175489111467,3.1784456238987175,-10.264129588785165,2.331262886148213
125.0,1.698452493215021,-8.275793118356155,2.723930062146364,-14.842151696467669,-18.0,16.394407974496694,-0.4801176782923453,5.023414822810349,3.3057705830466055,18.291805703015342,3.555627735268066,-3.6876713401153824,2.6229113904182295,-18.0,8.232015108716578,3.0520849284362868,-10.078192098389199,2.473225101948127
126.0,-1.6017996080399648,-8.376885186907428,1.46966644087704,-16.580614869703396,-18.0,16.43995133821342,-0.3335309193023601,4.797820600545725,3.5993406334057894,17.81962826595336,3.3462042446013696,-3.0449662724193716,1.8909113295777846,-18.0,8.129147183289067,2.9293032188675863,-9.883344747346735,2.600180379637889
127.0,-4.184301037956761,-8.527866354820853,0.6097079342126364,-18.48679970592624,-18.0,16.074940770691136,-0.3360723056197279,4.5891904849052025,3.7165962075764436,17.1421469272838,3.122640626119488,-2.421854827868901,1.270422149458339,-18.0,7.960899670248089,2.8071648698148834,-9.685240322783862,2.7039616532660276
128.0,-6.035717283027028,-8.684229247026218,0.04791511468281673,-20.393151679492803,-18.0,15.567606309375488,-0.45080305848710056,4.399843483718367,3.7169506423460867,16.322677863059504,2.9048234953226433,-1.8513045514032807,0.7317700795754707,-18.0,7.752426613132751,2.694699336367396,-9.487753951736558,2.7938768754559873
129.0,1.9224169538154268,-27.4575669964216,-3.3798489582640654,-26.920884465345104,-18.0,17.50439922874606,-3.1620512125010602,0.6058178794478097,3.917317383367638,2.5882622491548712,-6.9661842851526945,2.622790366400743,32.71390577192611,-18.0,11.185177543520716,-4.3286759401306245,-13.848733555107163,2.0178115332178033
130.0,-0.5879346300068935,-27.338342025407037,-4.789681229436534,-28.88126121663504,-18.0,15.954823981989138,-3.632988351834606,0.6544920214901309,3.3357459086922687,8.973222291593618,-5.942240135782161,-3.3067750073818285,26.79263701909776,-18.0,10.122793189815422,-3.4122548386200062,-13.608212805616056,2.93350195785776
131.0,-1.6898468198471797,-27.19702354151551,-5.279337273535655,-30.50053572193677,-18.0,15.320211969095695,-3.8181771392364254,0.6517362067421972,3.237409262764192,12.01830445889316,-5.4363274530275385,-4.810450438174393,23.10953767799354,-18.0,10.546442284660879,-2.93035667731031,-13.379794310107966,3.4931432592970735
132.0,-1.686532265433792,-27.245292153686936,-5.598753947353071,-31.778561928996922,-18.0,14.883734849248327,-3.8553371475388643,0.5632309992949693,3.349092171886133,12.630549165461911,-5.855671803647181,-3.6428164327427437,18.88633966975911,1.192135091601494,-2.193610043953374,-3.0761436803122066,-13.090852413930964,3.3360806036690236
133.0,-1.4653380379583467,-27.05796716685476,-6.133337928691299,-32.8250041648715,-18.0,14.488803411660268,-4.011198995754744,0.5607831952307132,3.3112464109451345,10.931819942352233,-5.95250715951763,0.3626739396432197,20.44800449177112,-6.028602207180124,3.76572270598418,-2.9678354124420796,-12.885715485533115,3.5217737238012305
134.0,-1.2395889498679988,-26.859645294387622,-6.6857755458754955,-33.72511009865802,-18.0,14.14893959952817,-4.245211695665965,0.5761772240888625,3.17176409103699,11.266370458487609,-5.657586435876623,-1.7951642073509406,20.08113776458275,-8.912948497633682,5.1055544568446996,-2.7583857456763354,-12.671942363235797,3.696019119710994
135.0,-0.7468497003801673,-26.63973673369075,-7.235897205759581,-34.429856566300145,-18.0,13.847146383551651,-4.400353178099589,0.5801440976602326,3.1447077907726397,11.623161719976478,-5.405809675000216,-3.1740847636811975,19.417022351998444,-11.042530624797628,6.217221167449684,-2.6018291665546753,-12.46406082389931,3.830194103013271
136.0,-0.07783822861533629,-26.408338234555362,-7.757476196691934,-34.98266113925484,-18.0,13.584197202364544,-4.508355064194046,0.5762399315934967,3.1724024235994075,11.972103308084595,-5.187483145600369,-4.022990992142887,18.53847941731273,-12.53475679011595,7.147111473678899,-2.4915565942657434,-12.261660810183066,3.9234896258953746
137.0,0.7012451466730933,-26.171829319731312,-8.239356042153167,-35.416815994275964,-18.0,13.354697807956706,-4.586908290081846,0.5670097491486512,3.2228351468181926,12.270626783259889,-4.993982146553964,-4.522388917323624,17.533523474866637,-13.496294368741086,7.920519753604278,-2.4213344409177804,-12.064951576524304,3.9794525845318924
138.0,1.541203316700436,-25.93540367808118,-8.674540241768767,-35.75952138736059,-18.0,13.153271005991957,-4.645724919713315,0.55394174541917,3.278719951455806,12.484521091150059,-4.8223404984596465,-4.779348590399906,16.474404595479733,-14.027058856494632,8.558029920472507,-2.3857546586190113,-11.873920436685466,4.002712430764992
139.0,21.132440074169203,-23.980146170267837,-14.99176885313663,-46.758490980104554,-18.0,12.16689790199279,-7.793170366010822,-7.989323270184338,4.115525684241147,0.9757036795577747,-9.100368877261923,-4.620279914074868,44.124445280972054,-11.74871502839806,5.836392842816371,-11.924997700002997,-8.295870165131463,4.446086739813574
140.0,19.51781592927624,-24.073840746376145,-13.246067557258398,-48.06854208230135,-18.0,12.923466188850384,-7.841646443075225,-7.803270922580033,3.780497388850069,7.1740140479081305,-8.205243486796807,-7.578810824168443,38.938529802934,-10.589854057944233,6.340923969766822,-11.172233114613448,-8.200968832710656,4.990789677086955
141.0,15.665310725640044,-23.94004494590764,-7.931073626363277,-52.76936166642862,-18.0,18.0,-7.439840463295825,-7.661744307096374,4.1974437442468435,10.85217621296717,-7.750659030445917,-8.95182373367837,35.468618119904534,-9.30938166459033,6.731435409000314,-10.647930111334146,-8.17708089595599,5.462909206070702
142.0,13.31319984471206,-23.771715637891575,-4.789183079363824,-56.05827199799168,-18.0,18.0,-7.253056820232997,-7.50060454219893,4.615827834394187,16.076533774093097,-6.868014030345266,-11.210984510317227,30.2422470533061,-6.477200843175174,7.41356719782183,-9.500727614719636,-8.156965909711726,6.666532137676417
143.0,12.75946882284828,-23.605750172964605,-3.0963200183593464,-58.095063835814386,-18.0,18.0,-7.0889605410992464,-7.380805291046062,5.102169638656891,18.316240227394985,-6.406361892027842,-12.188220733493372,27.022880293990923,-3.94530009319473,7.890667478818706,-8.819568837649564,-8.111230290967667,7.317342979323157
144.0,8.436343336032088,-25.452848763125896,-0.046954167090582644,-64.0825392722654,-18.0,18.0,-6.24048006848331,-7.517191182836046,6.622710199533437,18.931118663082803,-6.752791021271823,-12.374130325043913,25.540618369225527,-1.750539233933794,7.976875155669889,-8.614061675430671,-7.951399598622388,7.470402432422812
145.0,7.154447781795437,-26.669873946498342,1.1518651838712568,-67.55291976573034,-15.913774938003112,18.0,-5.9856555822536235,-7.576923331125982,7.346510938045874,17.72163032983508,-7.246584372044642,-11.760723385547044,25.222619178997853,0.03285886060671217,7.94016543373858,-8.519370593255289,-7.798330119780955,7.4700451259844955
146.0,7.690842570894503,-27.45379321426121,1.1654728348658043,-69.29151083389101,-13.048558377417972,18.0,-6.085352743986494,-7.5816719987401795,7.570568827233671,16.198286264775568,-7.774096410266537,-10.964317638557507,25.194228846185666,1.452402572153666,7.5801503403871955,-8.415973565017655,-7.647646670810266,7.420804139882877
147.0,9.234170871252733,-27.96041798941461,0.500383054364443,-69.90931459558338,-10.95857100078944,18.0,-6.355716593909498,-7.550554984317165,7.523430009122039,14.752863063142996,-8.288443546230624,-10.202906549412177,25.21611387122561,2.563547829050944,6.932033942182078,-8.312730948393595,-7.501005751770509,7.313453489459699
148.0,11.270128886473213,-28.277029217098487,-0.5150264258533728,-69.8202889160544,-9.505155520618313,18.0,-6.697618735208033,-7.489764140072756,7.326488182045657,13.491461513154796,-8.725254115146306,-9.234685745353701,25.288334203327338,3.247975755349077,6.295665645758927,-8.20453430286393,-7.365348992412484,7.164947821238493
149.0,19.475079672582922,-27.49482541305325,-9.363003611867528,-66.61708539046447,5.052204381823621,9.56211303172473,-8.489327411135998,-14.633197439072402,5.7423989763597385,0.9850593113049548,-6.651808783906687,-0.6786051316659041,23.48684062183905,3.907963172723526,-1.358170223234145,-9.14204246530143,0.19616566409018787,7.0598615687856405
150.0,17.489175734684416,-27.983236806772304,-8.012692979173007,-68.12505479040558,2.0980772628365933,10.31541035970112,-8.203170961911953,-14.414877811486104,6.087785275267411,2.279051413862476,-6.476318361822898,-1.460237927472015,22.499922666483506,3.347738519614248,-0.6841562005469959,-9.000592601120843,0.08145537060589358,6.7668031010496605
151.0,16.584995471863365,-28.382489270543562,-7.385924592429381,-68.82945534472478,-0.6337859587183452,10.735278296519454,-8.08561740826461,-14.197979259266889,6.24989930259026,3.0198814627961568,-6.465161124732215,-1.660980643803021,21.89194164040994,2.671475961139145,-0.138089725989743,-8.841220120115594,-0.012394593977209212,6.543824981515632
152.0,16.824758464927815,-28.591680374575862,-7.417435980721117,-68.69432246088076,-2.998862598060887,11.050963068905546,-8.140579621087737,-13.96456985868653,6.189522805023901,3.404437785057432,-6.4897952040449916,-1.6300123014781267,21.445039330090694,1.9362498896466498,0.32933863299439337,-8.677470609369584,-0.09540437045251249,6.340245047551273
153.0,17.717465740262675,-28.673346550923856,-7.82889822609422,-68.06744135625831,-5.037955260991051,11.293505633373199,-8.275225217734063,-13.721889608877664,6.012445205444028,3.584155347922522,-6.52934140207789,-1.4345610078183935,21.15639411375036,1.048470715893302,0.8706978268364626,-8.53009855770798,-0.17142872428191414,6.124430430378975
154.0,18.934634424079427,-28.666905847472048,-8.44426778056062,-67.17779080672119,-6.780327652943482,11.485707002271852,-8.435403587097756,-13.474208397539954,5.7813652353234986,3.8058468897149034,-6.551313790594913,-1.3816441282754877,20.618189560965696,0.710087405582704,0.4580258970971651,-8.395307878138834,-0.24350426036127093,5.899689186655306
155.0,20.242217299107033,-28.60986400426434,-9.109451978845868,-66.20914639629946,-8.244239385508404,11.618078474553595,-8.582455382177608,-13.22098456755997,5.542365189189879,3.936794338137531,-6.5162829799171815,-1.2804929995176497,20.067950516769983,0.2728026865135149,0.3692230409405708,-8.270291368166507,-0.32062031173206496,5.680181897245709
156.0,21.540205980173035,-28.526035963149095,-9.771527978195834,-65.23270669708187,-9.471577875034061,11.685074108126317,-8.701655160043542,-12.967502531024532,5.315179673157858,4.049309760266642,-6.449757542067487,-1.175588963484027,19.44492339771945,-0.04919122277517474,0.2592821303688536,-8.157013319636592,-0.39990714772993385,5.463045027975524
157.0,22.84744811704578,-28.38550298329976,-10.457213365023048,-64.1934525350299,-10.562195305641398,11.767551922301033,-8.795054240904223,-12.713407408837636,5.094794481025392,4.097348889448824,-6.377226435676768,-0.9635842438554523,18.74564051412179,-1.2016503800380685,-0.18720327092549005,-8.065615360508934,-0.482380588927648,5.239500798894092
158.0,23.9499738740125,-28.256784022319316,-11.02952240844887,-63.303379999655526,-11.453098493165157,11.793446288112635,-8.845546364954426,-12.46172625730995,4.9058144447469125,4.187407010011885,-6.258282291304242,-0.76217659392844,17.877942903991155,-0.9899820828440813,0.13864195028144932,-7.977167710442193,-0.5688445835097138,5.032422075572194
159.0,29.17278316569468,-48.907179534255086,-17.586829981673745,-69.2807586650882,-15.040949479978693,14.474646297222806,-14.21444189711311,-12.548131342549837,4.021561484449882,3.731999992844571,-2.6769604491430354,1.3734058634053472,28.836485592407605,-3.786163009633462,-2.9346223489323138,-6.141026092074087,0.7515588919924747,5.924179076002769
160.0,29.475153521718276,-48.80369433826744,-17.73400047910471,-68.81909961881351,-15.578306852121386,14.416295143885774,-13.688135148079414,-12.288750461811558,4.588209064762051,5.1226052462764,-2.239738723735155,0.817061558067051,26.18655011054865,-0.8300277399437688,0.42125689164049396,-6.272711548960302,0.6052982511421443,5.36199228620036
161.0,29.833805441866357,-48.68077573313838,-17.887753734068795,-68.38727984850256,-15.983469576864813,14.354307639456918,-13.285232694767956,-12.037288765389658,4.938489869100675,5.80773251837369,-1.9494563590705791,0.08428303401571213,24.671729654412403,-1.6096884215145195,-2.025930914157837,-6.323246249985592,0.4596897546394434,4.997878858412482
162.0,30.132846294990845,-48.555585440369555,-17.949858573260574,-68.04258884878972,-16.28251289089491,14.282313927899771,-12.961745134975871,-11.782714326127193,5.135694553288001,6.135394270688721,-1.668467965530449,0.3006289399041222,23.352984309423547,-1.547155502134828,-0.09629464652408748,-6.328297543049007,0.30346857959579054,4.754928478614845
163.0,30.39758418787062,-48.42875999113173,-17.99607980495825,-67.74496732218019,-16.493399004670316,14.214025189236727,-12.697762531000068,-11.53462287508348,5.2273242698787135,6.311286110618138,-1.4223766502969646,0.10787478989908372,22.241149148661044,-1.6215662582519546,-1.55178566205,-6.306646456845378,0.15275538035359082,4.57511734116502
164.0,30.605390291780584,-48.30070845545572,-17.983801751245206,-67.50270594826867,-16.63594669917671,14.14611422812115,-12.46928855277588,-11.286406092301753,5.251539083191071,6.289907434911363,-1.1737905049611186,0.3937845450322257,21.303048519687785,-1.6529835931259864,-0.4198676425809369,-6.26310715441193,-0.0016464515170411254,4.449026565118388
165.0,30.774336587738738,-48.173067316539566,-17.956982092790614,-67.29321300124452,-16.723458430487792,14.085688987405879,-12.267118388328775,-11.044076402064173,5.230977626353179,6.211663185887499,-0.936358683975369,0.3800859518881774,20.458880100945336,-1.6724893925509985,-1.2875049302184687,-6.209263376699486,-0.1502725247348886,4.345703029737345
166.0,30.898963360506713,-48.0460396971161,-17.89400833756282,-67.11841489846279,-16.767322994464532,14.026910686163497,-12.079909554618311,-10.80394780938052,5.183608547980531,6.0326060510082655,-0.695793930052341,0.621541236955208,19.719316843653438,-1.6887357925721052,-0.6168916718012469,-6.145685080935753,-0.29857797397700336,4.265382029218214
167.0,30.99215692008936,-47.92103446214986,-17.820784708745563,-66.96484595996938,-16.775758248458843,13.97116042729849,-11.904268876869958,-10.569525636641268,5.119143123716231,5.830042622031623,-0.4598590206424751,0.6695263427401823,19.03706253499788,-1.6942985822565015,-1.1358090007118333,-6.078081643535143,-0.44114632029666145,4.19291091029659
168.0,31.051809455460475,-47.7978819247082,-17.724782244172793,-66.83308113425385,-16.757640789329326,13.916000028291256,-11.735037180534613,-10.338642502900777,5.0455363531831114,5.576447999734018,-0.22281635367277008,0.8602567839996587,18.421380481583164,-1.69920287916461,-0.7353257847909753,-6.005933272810047,-0.5812451188680812,4.130463404820604
169.0,22.601387002999825,-45.538584735288616,-14.973650754068846,-54.69690600173348,-14.14625224414379,9.59146187239859,-8.33717353546622,-13.35672860149562,5.654208844909724,8.66189537223812,2.760923939158278,1.7421645298650787,12.09265607651119,-2.969711441456462,-4.742576974618853,-14.301393235430526,5.69282235385618,5.427395607116678
170.0,22.99953536108644,-45.26242414863247,-15.133338014589137,-54.521387788828974,-14.100114932265416,9.643508344258272,-8.607910368847264,-13.026546308352632,5.025719517871891,7.192130035826445,2.9957574263489324,2.7159385339102187,12.416877342349252,-2.3340833848179665,-0.14897893314404165,-13.665896803585735,5.388731692909303,6.0933609283355
171.0,23.27211633447312,-45.03809606385857,-15.259482082773077,-54.38833394313161,-14.0344249214698,9.685531710933171,-8.745862226150134,-12.722597841275766,4.613596993282553,6.144978288781072,3.222951930888976,2.2817857851933976,12.568499327646293,-2.3517300307978193,-3.7230426921091984,-13.200645432813747,5.1194843943524475,6.4321734120833085
172.0,23.413147104223825,-44.84320456018022,-15.283417509903725,-54.32160989396228,-13.956034643688701,9.709671673565444,-8.790584895955343,-12.425952900934986,4.342515335952921,5.213769697639073,3.4594274014533504,2.784764127220387,12.623919124111517,-2.2764946336489693,-0.9323380280772993,-12.833576366419148,4.85676774435108,6.597539291948008
173.0,23.446858863046167,-44.74339861453454,-15.192598410519476,-54.36457123375024,-13.813828206081709,9.653006196966764,-8.77392666073763,-12.152168114468768,4.172033444463082,4.54833486534913,3.675842929216537,2.4775174217850404,12.541245432388358,-2.22227689303822,-3.091289777220574,-12.539115012175431,4.620859399565623,6.629106151217449
174.0,23.466032684556573,-44.6323483711369,-15.094502645116542,-54.3843041416692,-13.689536748356003,9.600798127406609,-8.730087692942694,-11.881536278950772,4.045206706894151,3.915615183859078,3.89397640981237,2.7646994419560773,12.439401699501296,-2.1870169857495148,-1.3823461730970186,-12.276344217771726,4.3889412519267434,6.607616308566989
175.0,23.481392987199413,-44.514521963754405,-15.029164569437194,-54.376398393458004,-13.58239533073032,9.561748663025488,-8.671974672095832,-11.620660487686116,3.945116983964322,3.4121190845010254,4.110331134019988,2.5744049684412973,12.266307260617594,-2.144976389545125,-2.6892287225939464,-12.039689836411254,4.170636941609855,6.5385131658546385
176.0,23.474425176662354,-44.39368861082135,-14.951559782315005,-54.364189051375874,-13.490923325093737,9.530714054814839,-8.600416150887245,-11.36431306393709,3.865748181814314,2.9332513343732067,4.32242108928087,2.754920024103953,12.089663796714277,-2.1174825685854666,-1.6395573837841173,-11.816868359696693,3.9571376908511433,6.451372682869424
177.0,23.4556843107141,-44.271596025376205,-14.887724540452643,-54.34152509485946,-13.414016259710106,9.511962686297435,-8.522582544076908,-11.116266893110733,3.7986024079041107,2.5358344509079345,4.53121690433299,2.6529067934387767,11.875408102363437,-2.084329539936661,-2.4323241566054064,-11.606463323666686,3.7541891898186828,6.345403396946558
178.0,23.418138924644992,-44.15004388201088,-14.812569947272838,-54.31932358283323,-13.350370685718389,9.501637146240505,-8.438542823790844,-10.873349187910932,3.7413080575083386,2.1583192215287497,4.733625520526714,2.7807001422153474,11.664033623739542,-2.0602338722392695,-1.78318562627791,-11.402604595624563,3.5565926583008016,6.235334656986247
179.0,25.056036193294315,-27.781165588383434,-8.634920144783095,-47.72504765896098,-11.630341395530301,6.540166137721318,-6.4511994679400875,-7.947769615594251,3.8184689190938075,5.316333423817959,3.9225469910391544,1.7594712179207699,7.156922419980127,-1.0961069454095185,0.19137212851932084,-11.220595337632773,6.808213202539066,6.361305726354693
180.0,24.927042650889412,-27.68591683607884,-8.524919278902887,-47.80137488254292,-11.583254847949163,6.5764044207897285,-6.495782428162682,-7.769756763575757,3.552185317094991,4.428548216192533,3.9934514670505177,1.883231696118628,7.701953650372808,-2.0985542805176562,-2.2485797164611254,-11.082540943884485,6.573267658913118,6.176952846772837
181.0,24.776821783070275,-27.60026680631355,-8.395049874419694,-47.87655954822685,-11.542897111522269,6.609075194397448,-6.500135550944235,-7.594056496208966,3.3606359753233352,3.7445392170301055,4.0950146903235405,2.4508414823668305,7.917010161395293,-1.8194351470374466,-0.3679210460257818,-10.935029682300488,6.344103084389971,6.006543718186941
182.0,24.636249249057194,-27.517410723882083,-8.298475139582765,-47.92648625263016,-11.50903125478412,6.645274858885436,-6.483313559392652,-7.4260946573086475,3.2175125324126332,3.2305967144922114,4.218785480799944,2.4002650143785473,8.041745495104927,-1.808177868563582,-1.8574834525473853,-10.776392274010288,6.128729494492774,5.846408309377159
183.0,24.49141176007394,-27.438868063891306,-8.192680283726425,-47.97073450823773,-11.481048113656453,6.679260624655148,-6.447462621833415,-7.2610267967368305,3.112036745462965,2.782402299677255,4.345364307432244,2.687237157641354,8.112795844086339,-1.7625462493649162,-0.6873078423589916,-10.60918184487193,5.9183641401922165,5.703960912100966
184.0,24.35346873519484,-27.36353734250159,-8.106886162342773,-48.00076754610199,-11.458406491426285,6.715295784229287,-6.402005346742631,-7.102602671939482,3.030659930695891,2.4381698052487426,4.479805921613196,2.6175234438519706,8.114023753380376,-1.7233040845732135,-1.603013995353815,-10.438922134954513,5.718647014492865,5.566843673758493
185.0,24.214736898028686,-27.291646446223616,-8.01623563367487,-48.02691862196478,-11.440536649280018,6.749875809890699,-6.347956717130191,-6.947606883413557,2.967901176589926,2.1293572843624755,4.609567087249916,2.773715471168506,8.0959003391533,-1.6946589472591334,-0.8718652405993597,-10.26523060246794,5.524089798232106,5.441510363080345
186.0,24.08137301997778,-27.22259770730186,-7.938400360404964,-48.044145080984535,-11.426906344323488,6.785525724632845,-6.290419765591656,-6.79822196782629,2.916706922098256,1.8829825386089727,4.740521025237811,2.7209447258575987,8.039182804101198,-1.6625918639645514,-1.4361204669118912,-10.091423643877684,5.338082200170433,5.320073517699566
187.0,23.948814061459643,-27.156435784809847,-7.858489848333747,-48.05842078476591,-11.417011723405588,6.820104806386216,-6.229531424742295,-6.652417540103709,2.8746781743817307,1.6589825170682406,4.86475086247737,2.8147718667711694,7.974747598659974,-1.6382706558868678,-0.9771652191533562,-9.917048020206392,5.157232349868409,5.20652091032055
188.0,23.820727914602056,-27.09274575632137,-7.787296454390094,-48.066585836869905,-11.410391416537252,6.855111128057819,-6.168048702668539,-6.511446899007221,2.838189360131681,1.4742142094923594,4.987197299853099,2.783969963900353,7.8893766791088105,-1.6112993498915293,-1.3249452565247672,-9.743967898937623,4.983528260019252,5.096078509876391
189.0,28.23189747043924,-18.535817158492378,-2.051914177475893,-53.620280228231266,-11.910372142325986,6.1463563507972,-6.898872756569247,-2.2421705540677452,3.1776345565938615,4.623984604415188,2.2697834644346484,2.3008121457014976,9.732311274312437,-0.7225196652655606,3.1524287705178615,-7.226166936020342,2.73203813691529,4.527967330900962
190.0,28.331481240975695,-18.48546545124794,-2.1681315149171683,-53.47759813769477,-11.92284213644475,6.180511980218553,-6.812262520501771,-2.195815336193176,3.209193424905667,4.466965289780999,2.3684212473117716,1.5817531392175503,9.639085080070007,-1.3037801737193968,-2.0442491062415624,-7.182643370056573,2.640333497929305,4.264424177775847
191.0,28.37352824453153,-18.44347257651362,-2.198203378595293,-53.37709432996341,-11.93800284560767,6.205181750553612,-6.731646339197722,-2.143837634617652,3.2182371307792157,4.26034905924883,2.440134183884333,2.211320913615226,9.510849619031546,-1.1838062089181927,2.054606643560233,-7.108479985156582,2.5389269261201592,4.074686069704269
192.0,28.402100653070175,-18.404030913152376,-2.25077001775049,-53.27432899202741,-11.955378380269158,6.234224470768036,-6.665310987510775,-2.0981753368042826,3.205965111679567,4.152586833620003,2.5416950867985135,1.7496611419671284,9.332717113232782,-1.177516937373444,-1.1977240135362721,-7.016952265910902,2.447798707354326,3.913896053902951
193.0,28.39997076807387,-18.36846149660568,-2.25556535292489,-53.19196446379811,-11.97452053518223,6.257242490713966,-6.599002704057352,-2.0495756934998814,3.1878188929881794,3.994665584447505,2.6200760975006,2.14208369242022,9.207318583550858,-1.1717811065962622,1.3708216499794796,-6.910348701991109,2.3516574587312267,3.792442721854345
194.0,28.390101228963957,-18.335088020339636,-2.2760999391081667,-53.107114025482474,-11.995022140953068,6.282729485492248,-6.538724373460696,-2.0056798653049155,3.1619342925558533,3.9005567600483317,2.7166489960584466,1.85574414872838,9.039965058714706,-1.1480999544820198,-0.6720363955583429,-6.798978855751347,2.263055589191138,3.680871099988628
195.0,28.362070224622332,-18.304377117778678,-2.268723328902653,-53.03329770696545,-12.016618012736966,6.3043105910050725,-6.477160358805308,-1.9606113711750988,3.1354056708727702,3.776970050367135,2.795883120001232,2.1044005901743503,8.910286903969787,-1.1423104498620513,0.9410603006028869,-6.681760115641279,2.17242967652073,3.589455784345334
196.0,28.329298816394314,-18.27542008691205,-2.2718384370049485,-52.95705705967192,-12.03904071290335,6.32719700113868,-6.418696864866383,-1.9190131361944296,3.105869560510927,3.69294673578527,2.885971717099182,1.9299556164969376,8.75645047218638,-1.122164807494101,-0.34571019314867246,-6.56418031325833,2.087427506015632,3.5015456655921926
197.0,28.285298930669256,-18.24849162097389,-2.258259163907165,-52.88678459662769,-12.062133860065337,6.347484909034596,-6.359196886196949,-1.8772229350631724,3.0770209477671875,3.592751810858724,2.9633279135017747,2.0906191130128753,8.627837730661508,-1.1135058092681671,0.669111489269954,-6.444913214923117,2.0021092322826326,3.4246159628053174
198.0,28.238086452012812,-18.223053571957706,-2.2514397810512197,-52.81441644723447,-12.085732713719633,6.3683902742770515,-6.301624671202795,-1.8380647948289512,3.0469821429849624,3.5176053213647105,3.0469115309023955,1.9865573601094288,8.486179983873246,-1.0960787085092898,-0.14368724955659307,-6.326903120614213,1.921134868541476,3.349099863361878
199.0,23.42929371295557,-17.544572522791434,-2.7442656220371258,-49.32139125202248,-11.37659580246125,4.738809634630541,-3.228167341263968,-0.07334143606139865,2.9906909340669765,9.196310236656576,4.194769671017156,3.215911960388999,3.999863561472285,-2.577906574749246,1.1256865320513272,-8.28131724269412,-2.492332313532917,2.9737689528007385
200.0,23.870352753952503,-17.383994907942146,-3.010905922877533,-49.034914282690934,-11.455956329944938,4.8730577543329225,-3.4414282806572154,-0.044288004157202465,2.6544680596443393,8.131920890299,4.237123506031585,3.2038221905593907,4.506003353131124,-1.6321207904183748,-0.21323533268075345,-7.95045587182551,-2.499641099548599,3.2788700875906165
201.0,24.095494853418575,-17.327915632239346,-3.1028544781110736,-48.92613163745088,-11.458406226715402,4.904874038690501,-3.558548609465581,-0.027662235068742547,2.4571474033043854,7.282730860192483,4.265743100276062,3.446822190847168,5.016468521415508,-1.7371870905580473,0.8194993281196494,-7.705661787282237,-2.496581166736312,3.423049740838271
202.0,24.25338928946784,-17.281995142142616,-3.183704753264065,-48.82835704118697,-11.462957082712158,4.9316151486308195,-3.629971431747067,-0.016488783414691177,2.3262268300525006,6.634086383934093,4.315946645444104,3.351214194981524,5.3525685097371785,-1.6404459803900497,-0.02385501800296752,-7.5145921644142835,-2.486437821819264,3.4661338154808163
203.0,24.358207290558624,-17.243523651764548,-3.240906395893705,-48.742475516942,-11.469281011967642,4.952042767801507,-3.6699454908535847,-0.007270976103598059,2.2382260496650455,6.102841339190913,4.36484217149204,3.42957492864352,5.61512566729651,-1.6010352546062956,0.6340624724837631,-7.35312551847444,-2.4747083003537345,3.4567614669391533
204.0,24.426237590788883,-17.210965844413376,-3.291117424687626,-48.662190973316825,-11.477070555125508,4.969087122920512,-3.690402680187197,-0.0011409411957572502,2.1765720770028496,5.683275483078187,4.423350185964571,3.3143557848975216,5.796446448929139,-1.5551851917047244,0.10095260930122851,-7.210809168395814,-2.4595918754443953,3.4135801465613564
205.0,24.46346670190023,-17.183379959266414,-3.3257070466468655,-48.589241767595354,-11.48613977537999,4.982071437777846,-3.696382562637881,0.003756769949169403,2.132786065746038,5.333985369001276,4.477562962829309,3.321387013515861,5.933519570278879,-1.5199316487796661,0.5193888676750558,-7.07931461483434,-2.4440804036325794,3.3550574415771095
206.0,24.478766939390123,-17.159835310949937,-3.3550365880165707,-48.519721328432496,-11.496312952334524,4.992897711752361,-3.693411415587093,0.006665040189777649,2.0998487762742153,5.0519339473251925,4.535191338807577,3.2158664782455086,6.024350488005371,-1.4853523034190173,0.1811995999417393,-6.95511686912984,-2.4268872783230764,3.2868385981808705
207.0,24.475078006176258,-17.13981606629532,-3.3736969964365615,-48.45481984047493,-11.507474248823318,5.0012124610899145,-3.683396017525909,0.008695376009339562,2.07458495585807,4.813318747700521,4.587640947329058,3.1945848077178667,6.089748813429615,-1.4560673994060847,0.4469613053698561,-6.835118701649193,-2.409751953590838,3.2163894967075963
208.0,24.457503582391396,-17.122752706678046,-3.388249329020575,-48.39212566681506,-11.5195065927969,5.008262580643455,-3.669075101128456,0.009360448131073618,2.0538871285274944,4.616726097655856,4.640318509395329,3.1074084136558584,6.127927950564018,-1.4274060084389757,0.23152324088971898,-6.718355556977609,-2.3917955878871022,3.1447399827470077
209.0,21.28173043716546,-16.96642360404165,-4.282057830930386,-44.87292019173762,-11.482671775841219,5.2451251821893905,-1.993806489070022,0.41959179043337436,1.9460434740630954,6.383586602650893,2.6712992149626125,0.23657810132549262,1.9459074671549779,-1.3553146483287604,0.2192487659215967,-6.6136142553902,-2.460864393778546,3.005866208034014
210.0,21.383200075140895,-16.907514788788966,-4.3011985362654155,-44.810465368951995,-11.484610848655391,5.249279870736379,-2.0798890793424474,0.42391080024162875,1.7920146495093436,5.572220637824247,2.6113003291167116,0.7731426800704715,2.597151373041136,-1.6074167168159996,0.5168076085499049,-6.4786547454834995,-2.458905122808057,3.032328078354966
211.0,21.422315938067342,-16.86128877955648,-4.307738556056046,-44.76323456320237,-11.487174268269154,5.253902360948705,-2.1380516036836164,0.42573379779038767,1.6816334380242126,4.963024549403123,2.589728664432832,1.0675835682047259,3.037985384758775,-1.4820326660363143,0.22391727916460213,-6.364582479410547,-2.4512641858114304,3.0081646878239683
212.0,21.41833672588575,-16.823285660482814,-4.30234230555408,-44.72536537270327,-11.490354882479187,5.258496353938738,-2.176954047787595,0.4265611426672038,1.6018258572360227,4.483980250167376,2.5888694291646432,1.3227862472703502,3.3860039259895274,-1.4460095890483604,0.41840922229356325,-6.258027803955496,-2.440874923211937,2.961662857710663
213.0,21.385209584344953,-16.79174243493609,-4.292039873785275,-44.693010283495,-11.494084512729184,5.263822730998632,-2.2024115529372126,0.4259472943332403,1.5440267237248104,4.110519569299844,2.6061986997594513,1.4494711413102688,3.6475753715618264,-1.4005284977453747,0.23403827088614304,-6.155757960026013,-2.4277873619059434,2.902392288109003
214.0,21.331237183685428,-16.765211947726407,-4.275777334490186,-44.664897441011554,-11.498350416630979,5.269523977356033,-2.2179556849061632,0.42447874590985357,1.502410055366785,3.8125662579506527,2.63204109319472,1.5663384217926526,3.850808101210621,-1.3645543738830965,0.3596393982953805,-6.055026252369085,-2.413371187577499,2.838675019681305
215.0,21.263483056138238,-16.74264300788228,-4.257717191125038,-44.63876295246708,-11.50313283602248,5.276011930093937,-2.2267921107228474,0.4219415208316466,1.4722875649077742,3.575581979401299,2.6658007488645534,1.6129929191933647,4.00570833010662,-1.33142258183085,0.24281244296410986,-5.955022097426329,-2.397567860810873,2.7734396600041156
216.0,21.185908597715184,-16.723313270759256,-4.236879897890507,-44.61418872111399,-11.50842767634562,5.283008777750702,-2.2306484312256907,0.4186984889679932,1.450698155603344,3.383139899194633,2.7020127526828546,1.6615841337031374,4.126620477865119,-1.3021475523147572,0.3232927677021684,-5.855199697444868,-2.3811447443905287,2.709461314295582
217.0,21.102151812951824,-16.706642672791418,-4.215715511987016,-44.58994575480317,-11.514221945875962,5.290727855677953,-2.2312384901812785,0.41462929652864133,1.4351480237079484,3.2272440071730446,2.7408777219945795,1.6715388291338167,4.219101423720559,-1.2749164527818153,0.2486389572323422,-5.755659788108347,-2.3640165645776454,2.647179293306778
218.0,21.014162544359653,-16.692229075126875,-4.193476751984091,-44.565909518758275,-11.520508986360289,5.298952990169771,-2.2294246678970002,0.4099762252383021,1.424110134543977,3.0984637393156422,2.77929357963371,1.687143284384211,4.291371876248867,-1.249969859572968,0.2997280263926947,-5.656439578469515,-2.346637261159943,2.587452340845439
219.0,15.837541746136184,-12.66688349996058,-2.554024238643006,-39.175270095396044,-11.568195382611288,4.27124259505541,-0.3376411230268297,2.044874595348319,1.2406110655187632,4.522244031797419,2.3101046556293263,-0.18236421166074157,-1.8704161864233608,-1.6689053772735103,0.17508482129672487,-4.303184847497764,-3.908570009438594,1.9831821028440793
220.0,16.08668818269268,-12.622808982758055,-2.663164639556464,-39.07515772956493,-11.564904617095232,4.29132412763542,-0.45010328265634936,2.008724665768831,1.1278347448669899,3.6903272003034173,2.169871706937533,0.36573680151048404,-1.0930250633646157,-1.6138371900016946,0.43812192394681504,-4.232882029593004,-3.8557847474891362,1.9786257051254708
221.0,16.247040821574,-12.592247341927019,-2.748091432294855,-38.999602337723914,-11.562530748876775,4.308064800091936,-0.5392720762515784,1.9720224515572173,1.045085214191352,3.0623916622533045,2.0747988569756433,0.6791574754646501,-0.48625484051657963,-1.5435284784156904,0.17346198807524482,-4.171395740555193,-3.79985965809911,1.94085859160247
222.0,16.343132877627145,-12.571765151040672,-2.811458858596704,-38.942646637906776,-11.560831972256823,4.321556667904816,-0.6101937910403015,1.9354622216537223,0.9858710162453551,2.5820747947575704,2.006730507105229,0.9367101581829478,0.0012546114641960315,-1.4900289743160071,0.34620606785074703,-4.112149413214656,-3.742960401576288,1.8885459846775225
223.0,16.393802404180203,-12.558939752174773,-2.861797813112127,-38.89823469683914,-11.559663357011019,4.332908660707171,-0.6676954528388097,1.8986679650355067,0.9443205292075612,2.217305597322093,1.961862348004505,1.0658821933602354,0.3923089744329431,-1.4424459412337658,0.18008409456464958,-4.052591279873619,-3.685201538868364,1.829867878709212
224.0,16.410959300944835,-12.552066190114106,-2.8999467266585692,-38.86369186377971,-11.558898866367578,4.342185461876513,-0.7146441519517881,1.862060378134947,0.9164274540043955,1.9376112605181253,1.929902305008068,1.174740366984604,0.7131244406462063,-1.401611034355538,0.2928277011143332,-3.9913491999101245,-3.62772196111887,1.7709102408242154
225.0,16.404230396243655,-12.549843998685896,-2.9308278558163874,-38.835810282552494,-11.558461974740556,4.350100297969725,-0.7538972449786243,1.8254164828177784,0.8985879335725967,1.7253966592711654,1.9094257728741686,1.213067319699521,0.9765393680656045,-1.3648531153574575,0.18806398405663483,-3.9283147785215,-3.570461382277886,1.713536269693571
226.0,16.3796537473606,-12.551347995287411,-2.9546404650902534,-38.81332749772079,-11.558279692952473,4.35670519967275,-0.7870861561209435,1.7890143170445878,0.8884398481939789,1.5633400904820691,1.894559318289211,1.246926494229087,1.1975441579149324,-1.3320364880286122,0.26124043566219746,-3.8635530651654566,-3.5140520900223438,1.6595227623560227
227.0,16.34234954801014,-12.55584540575401,-2.974307832131054,-38.794487252069125,-11.558305894392157,4.362465387251473,-0.8158824107064468,1.7527237227134398,0.8838671643254715,1.4415111693800577,1.8849469187430217,1.2421971307391138,1.3833102735545726,-1.301761958629629,0.1948307720192225,-3.797531526681852,-3.4583964912923046,1.608786790730578
228.0,16.295502053814875,-12.562804122778644,-2.9898231903101076,-38.778668253860296,-11.558494393578712,4.367424051773295,-0.8412082954438367,1.7167321250285577,0.8835244789309964,1.349785945845178,1.8772314643107781,1.2395234733869183,1.5426550205759186,-1.2739567253642203,0.24203055614696678,-3.730604775998918,-3.4038549156089264,1.561677113750315
229.0,14.204509562093385,-13.00100066237508,-3.338786393737585,-39.97238500010009,-12.822084136996327,4.0319907542906215,-1.140230935704868,2.575324015740745,0.9411945239271404,3.1569224909290536,1.4647782410984123,0.035322427263832556,0.3057673169291064,-1.5431654790562006,0.37499100516582884,-2.224379891429896,-5.630926588684976,1.1662599846575428
230.0,14.41586336491088,-12.98629189404179,-3.4348128882286693,-39.85834889271555,-12.820176086046509,4.045979346386697,-1.1227630860841662,2.5156883266022074,1.0338677935426166,2.726800360145045,1.3668518828983518,0.276606762006267,0.6902749219668642,-1.354485415290025,0.2777855401932152,-2.230932952404677,-5.535555177052947,1.092477664671093
231.0,14.57396610273877,-12.952817300217653,-3.54524371174305,-39.73695247903521,-12.842394728830088,4.0862361887361915,-1.1307662715590254,2.4621088799303603,1.0734869570318673,2.388005208035163,1.3000486928034685,0.4533979078929887,1.0176090125767319,-1.3423846434345772,0.3271879533392382,-2.2231748760509973,-5.443368510571301,1.031825337070221
232.0,14.64502797597188,-12.960934808966663,-3.5866081397041163,-39.68816811979572,-12.836505636143894,4.0894740019566,-1.1418263174311807,2.406997338841007,1.0985077119935038,2.1435434370280952,1.2458671076614625,0.5544166299205505,1.27441215409337,-1.3014818751747557,0.26488944841160456,-2.210093067972611,-5.349917437371191,0.9752363406380167
233.0,14.685811953371305,-12.970076435812532,-3.6213681815373073,-39.64729531971598,-12.832588836392313,4.091410552359548,-1.1587866390897388,2.3540129702978856,1.1092800567748742,1.9544210309521488,1.2044398365923175,0.6262933528042813,1.4855978077623044,-1.2712121638647784,0.29886238058536874,-2.1893250126415786,-5.258452737299656,0.928158324158886
234.0,14.704517831445413,-12.980470488798046,-3.651123786799664,-39.612125802734205,-12.830225156129206,4.092531097025316,-1.1777571126730404,2.3025279510015038,1.113447970615983,1.8086698957735128,1.1727131441386955,0.6588204267912586,1.6594261640870487,-1.2422897659141028,0.2596969815374902,-2.1633850645975157,-5.1688509532257445,0.8880044379433765
235.0,14.70671117830125,-12.99214370015374,-3.6760765758583704,-39.581371497384005,-12.829069756748957,4.093037991152673,-1.196705859397826,2.2523165030971484,1.11505366695036,1.6957817161794089,1.1469224046661046,0.6789949923632719,1.8049771625739472,-1.2159889593044255,0.2818186991566881,-2.13386441241414,-5.0812545128078135,0.8534044919034208
236.0,14.696652250602144,-13.005022967723221,-3.697416275881435,-39.553823781796794,-12.828845875249867,4.093228704106034,-1.2148488747020973,2.203142310576285,1.1160109486123653,1.6087849562413012,1.1257469404447287,0.6786438749021377,1.9275851125732135,-1.1913878163496805,0.25685409135087245,-2.1019443037683274,-4.995578603886011,0.8230505896117987
237.0,14.677266874542223,-13.019003903977236,-3.7153772206173135,-39.52881188144432,-12.82932631116199,4.093224472772476,-1.2318300231957555,2.15495175305751,1.1172576818175581,1.5415468137668675,1.1071978496542967,0.673837747024721,2.032450456366285,-1.1683362693242216,0.27093533694458116,-2.0684255551448647,-4.911899675122226,0.7962085093997819
238.0,14.650879403690169,-13.033961319747732,-3.730799362374712,-39.50565471132661,-12.830329995072407,4.09320870356296,-1.2476794504222606,2.1076474047967135,1.1190999121273943,1.489959342458246,1.0907166929962764,0.6585306191199505,2.1227163276419714,-1.1464657574178623,0.2547329550088858,-2.033919510104628,-4.830149342107464,0.772129365330381
239.0,12.404816006072169,-13.449956553205475,-4.906531200588477,-41.3027517500877,-13.493283289722967,4.143393149543256,0.2381614834766277,2.7143430560520723,1.5112527689702653,3.5594272940651104,2.941021053031206,-0.5255003659913675,-2.836817541589083,-1.3811000256188382,-0.8761519521923683,-3.787602919447604,-5.7235356525462615,0.8488095290260033
240.0,12.756502651732076,-13.415093459753367,-5.066271827964,-41.118843338810905,-13.499497331485102,4.149507160392971,0.06449331508022316,2.6643061706861673,1.3203512133152426,2.8507867861901683,2.764058499888333,0.08630186173345167,-2.068175756825084,-1.4327551543067862,0.5811364699242572,-3.6127837570744807,-5.639583108035028,1.0851138747161784
241.0,12.994761711138421,-13.398436006038786,-5.191910348635387,-40.975841644691876,-13.507321195420564,4.154886741194237,-0.05916562333648845,2.6100172777466666,1.198075139181616,2.336124597359206,2.6365376933488696,0.21703700680711857,-1.4807737233594032,-1.348682249629488,-0.6226699458595186,-3.497389442591782,-5.55027832262224,1.1989808955520191
242.0,13.148680001640287,-13.394216197583672,-5.275870470959032,-40.86591706651247,-13.51618655711725,4.157238325851811,-0.1485729428329391,2.5558930896531438,1.1201227956916628,1.9440201470342497,2.5199728901314686,0.5408370504582827,-0.9860352302041329,-1.3048088267046647,0.3140848810419206,-3.4135610584062555,-5.461752056394899,1.2484645055286712
243.0,13.246307263368045,-13.398627909869798,-5.344584485833284,-40.77535625507979,-13.525563447739069,4.159457326746753,-0.2176147488270237,2.5006161514151533,1.0691481262436555,1.6593661300226223,2.433334739944087,0.5695899400058464,-0.5872407795676944,-1.2602110993145343,-0.4527868030122496,-3.347885317993036,-5.371766733630443,1.2572212975671984
244.0,13.300794382497296,-13.409364802985417,-5.3907087854163676,-40.70179894124165,-13.535191409943106,4.160018061993309,-0.27124323321265154,2.446394033350529,1.037080084335697,1.4440824861879484,2.352024298797803,0.7307997140252989,-0.2457861463508666,-1.2235500350131683,0.1493130318383667,-3.291348027769823,-5.283712244613747,1.2468955177368217
245.0,13.326673397447287,-13.42454839321296,-5.429794195882858,-40.63773345937405,-13.544815981537708,4.160729666702965,-0.31572455761324436,2.392147874806981,1.0166891123135526,1.290932491363944,2.2883365086901364,0.7108216291630209,0.037340698522324245,-1.1894438699425764,-0.3388401888451795,-3.2397892260013723,-5.195924990579089,1.2242753209287205
246.0,13.330021267058985,-13.443112405376064,-5.456177202667811,-40.58261785668687,-13.554330059370233,4.160583965567534,-0.35263061743119306,2.3391318328656507,1.0051034784113906,1.1776218010202895,2.226799330761394,0.7812899900576604,0.2849767472611812,-1.1595771343210508,0.04825154675606319,-3.190323455162023,-5.110398821018961,1.1978547083253268
247.0,13.318594690709297,-13.46409666640283,-5.479208661244881,-40.532273785785904,-13.563614740918947,4.160720692235137,-0.38505770967002273,2.286567244410525,0.9990029108178767,1.100857138465238,2.1754582026394473,0.7406432899218673,0.49575926682145427,-1.1313981941760347,-0.2621247486961354,-3.1419609923816934,-5.025962580809725,1.168781093840966
248.0,13.295232853086665,-13.486974749102622,-5.494852304804803,-40.48678717397893,-13.572636200310157,4.160478492871147,-0.4134679681933691,2.2352060115942103,0.9973100446734103,1.0472210139157418,2.1246530367983922,0.7615003309461668,0.6837107712832157,-1.105908220110292,-0.01312321376120859,-3.093888496888079,-4.943815469334808,1.1405043711119125
249.0,11.803278899078315,-13.95726535432469,-4.705651444258895,-40.64507020252692,-13.927103557934636,4.520756002833874,1.020886228335954,3.6294618023718157,1.4952013700456726,4.085737898078708,4.709688980232063,-0.6457028327162888,-4.887401945777441,-1.7859614689586132,-1.5374500962831434,-5.280326376552991,-6.103828040260133,1.3233664239252774
250.0,12.189299269874827,-13.913774593430492,-4.9352657035884935,-40.453150523146434,-13.931955672418889,4.513729257232649,0.8184334556387549,3.5641319304838808,1.2893737462535282,3.261719578869842,4.470946130985054,0.09226291306652756,-3.960748550089571,-1.5116949551802001,0.3328174288648724,-5.066046726084175,-6.013639908045003,1.5906009055523282
251.0,12.453315486262012,-13.89355838128539,-5.113548456042144,-40.299795101575704,-13.938678744958947,4.50846914072443,0.6699942785450762,3.4941449473088855,1.1562820681142556,2.6587443624527296,4.292861219293352,0.2329424601969725,-3.1966479528032963,-1.4778814102466944,-1.1991609372655703,-4.917968027468122,-5.916725512762004,1.7175691326251563
252.0,12.62427413674509,-13.890219818377739,-5.2332326578360675,-40.18181596608757,-13.94650224942061,4.501548305799926,0.5606381096439631,3.4243842676029743,1.0722633988173476,2.2032653051691344,4.127574229484114,0.62591563705063,-2.5570152890340094,-1.4132254653263567,0.0011187122825015994,-4.80804118500067,-5.820369123851812,1.7676820566841005
253.0,12.733919189627565,-13.898149584214616,-5.330652417679692,-40.0832141278795,-13.955037318124427,4.49655895142149,0.4740382804191737,3.3532543597552804,1.0176937538461683,1.8771890715401067,3.999245687959324,0.6493521226374965,-2.034132946825176,-1.3628549900236244,-0.9715363990091849,-4.719153076883114,-5.721878718295222,1.7700993707996169
254.0,12.795402505838783,-13.91422752343398,-5.3975146695164415,-40.003148867213916,-13.963896118500083,4.491089590895339,0.40519905523882177,3.283549248664884,0.9842200273270114,1.6335512276601003,3.8775393267141753,0.8442864394118397,-1.5825056810698794,-1.3194696428219093,-0.20075214652089213,-4.641010846471471,-5.62557244035369,1.7504099605567371
255.0,12.825291196212648,-13.93592863000425,-5.4544643042689325,-39.93295188750695,-13.972885211349093,4.487321462101454,0.34681323321167934,3.213853622992346,0.963740557571814,1.4655064662731068,3.7778176705512228,0.811694900042025,-1.2042262277645008,-1.2793077165831863,-0.8170843953051018,-4.568575379953673,-5.529347511986092,1.716526013762464
256.0,12.829573465854988,-13.961826170741224,-5.494572800423004,-39.872991537146135,-13.981799843853427,4.483606102595168,0.297385692706167,3.1457747115239263,0.953299805553159,1.344719627464464,3.681066845142823,0.8952225822164728,-0.8704442955981087,-1.2446370207047956,-0.32166578958874537,-4.498607751296087,-5.43575459735787,1.6785551570491464
257.0,12.826416073923973,-13.977225712548005,-5.5489489410860084,-39.8002626863484,-14.00216732288833,4.495824409213042,0.2516067983528031,3.079592721678894,0.9463585657453717,1.2645777005012047,3.599779410323311,0.8392841887075737,-0.58349970871914,-1.2115793154502907,-0.710626070624286,-4.4294268155567185,-5.344277960093605,1.6384266097090516
258.0,12.802026360087286,-13.999657602172771,-5.5853541375891425,-39.74177111251742,-14.01934456390965,4.505948587202468,0.21245235513431338,3.0143736660169766,0.9464474704487602,1.214742721010757,3.518740096037778,0.8617437405968471,-0.32638638358122574,-1.182165863018124,-0.3921843470582067,-4.361621776524082,-5.255061586945831,1.5982288445455888
259.0,13.584982420995,-10.988573743411742,-6.30280683046238,-41.40451088170242,-14.01520531798225,4.383915272999585,2.7367737201299516,4.481587818112328,1.0714230532419127,5.480194025791058,4.141490779098881,-1.8666307148439185,-0.4954864178522467,-1.4641640086365362,-1.5644486359135255,-4.82834256289069,-5.394803781141233,1.5189937522541337
260.0,13.702015214070052,-11.004962485940304,-6.329671516731842,-41.313211038254344,-14.031087492692249,4.3955242528738605,2.5291265967631347,4.398613168302441,0.816263380321437,5.051355722808703,3.9343763447878426,-1.246486714893372,0.0255995200166943,-1.2295032690956091,-0.04820009605580955,-4.73991459774012,-5.310572440670416,1.576785991279486
261.0,13.757264130008185,-11.041239787645264,-6.338086727344704,-41.25600470656161,-14.03255478709241,4.391299898138863,2.381017895959511,4.3111543999138435,0.6617774865338806,4.740388777920845,3.769158065196825,-1.0943400159055572,0.46124054632351985,-1.2177544193013845,-1.28315616443435,-4.668555686221541,-5.223133368612876,1.5912262021669155
262.0,13.777911295397843,-11.07879351621526,-6.334686211668764,-41.208031856510665,-14.034805254024107,4.385804563017489,2.270332106938157,4.225170549923743,0.5683575196125175,4.496283440449799,3.613672391346407,-0.7316824336813372,0.8283656979378762,-1.1733373819407573,-0.31402386723817166,-4.605515548484472,-5.1385830286748355,1.586180766010381
263.0,13.777434496292713,-11.117194305471651,-6.3382361921748664,-41.162251871917825,-14.037541887160575,4.381836877735465,2.1808620476670457,4.139128124869348,0.5117208007088543,4.321204002386646,3.4870160870577163,-0.6645436575989496,1.1241401591198246,-1.1383111142786477,-1.0949484330517762,-4.546155027916971,-5.053877577141368,1.5672081698690827
264.0,13.758045474526591,-11.156707325862843,-6.333906634031633,-41.12199285665532,-14.040677985361274,4.377445395347529,2.1070073622545094,4.0551926186748375,0.48005983112900674,4.184083601688322,3.366355408483458,-0.4599651661776658,1.381018869180954,-1.1084080630489832,-0.4750593970586485,-4.488012358644893,-4.972004865436876,1.543984360968548
265.0,13.727624551155204,-11.197033159009877,-6.33378676150595,-41.08291412016428,-14.044058412337233,4.3743505164568255,2.0419604133248352,3.972061365958443,0.46377775607278937,4.0882816677129865,3.2634631684005284,-0.4401646566096993,1.5919431407049887,-1.0791019810300782,-0.9672653144121752,-4.430183107288233,-4.890902440921772,1.516670605570848
266.0,13.68706336445538,-11.238228929352294,-6.328513375440833,-41.04714111913933,-14.047653418007869,4.37124247960872,1.9840972780418322,3.890977471216214,0.4586246848107287,4.013868479526966,3.1639916192352118,-0.33026002792726317,1.7783934188396602,-1.0542532237464322,-0.570072555610527,-4.372112279612857,-4.812430856768985,1.4896535925635648
267.0,13.641042514767936,-11.28004084182454,-6.325912022503678,-41.011911497086295,-14.051377878328708,4.369180083596493,1.9302288053761765,3.811014509206793,0.46041352519613943,3.9637518302873413,3.075333043599872,-0.3353382897622086,1.9352026865932253,-1.029454943778088,-0.8788910015367228,-4.313836167844457,-4.735230077277349,1.461919314105899
268.0,13.589837073022352,-11.322462199520249,-6.320051007605768,-40.978610305342485,-14.055221626657667,4.367289996971978,1.879990942462812,3.732916783523303,0.4675503200438649,3.9252657876505976,2.98856414225151,-0.2812104313913233,2.0760428489174814,-1.0077181974737224,-0.6236235865338711,-4.2553777728605855,-4.660453991082532,1.4355680309991867
269.0,13.795334244525158,-5.993055611716371,-5.111066416177647,-38.38850569239621,-13.473030760239096,3.259714980375104,5.408469818554535,4.380645780519085,0.8109379978218958,10.262334609145302,6.683682255414375,-1.0216520274517062,-2.10853359906908,-2.3322590826079836,-2.1436787383326488,-7.016749727748309,-5.945114364637582,1.4336000567985063
270.0,14.001533924271005,-5.993261107002283,-5.21638097442099,-38.319382162265676,-13.470352626522494,3.2738028127005436,5.041505308671512,4.30997627252676,0.38252226797407207,9.410971634991213,6.440713580280656,-0.33114845771476986,-1.3207610946688497,-1.480116843895706,-0.31271590716390785,-6.759249412600455,-5.859330314641004,1.7566097079255396
271.0,14.131429648286428,-6.010538037423792,-5.300655253954501,-38.262305943110036,-13.46738406348147,3.2853797487219816,4.781136116607146,4.230560754013779,0.12596056006861334,8.748276465375204,6.245108427476698,-0.20345107875332236,-0.5903997396757221,-1.5561288493302952,-1.7919627485227076,-6.575182986260308,-5.7662496483811,1.9267812875884918
272.0,14.197756135718596,-6.04280705608651,-5.345033284140094,-38.22631245265933,-13.463932765630112,3.2914622847081714,4.592054678450963,4.148352149199454,-0.021520478262014642,8.221594329643564,6.057966896574124,0.17404893800286647,0.0029480339216272355,-1.471034444466751,-0.6278911760997037,-6.439644861086954,-5.672412911292607,2.0041515608992935
273.0,14.22402690667598,-6.084831306815817,-5.381782191247268,-38.199067211978786,-13.45970381728479,3.295716010409775,4.443611800087499,4.063091659914217,-0.10494974252272415,7.821738973531078,5.901315459974449,0.1965782621919301,0.48309811118473167,-1.4223927654973991,-1.5559325568897915,-6.329774162854251,-5.575666037765954,2.0254296353936665
274.0,14.217613876375216,-6.134101500886753,-5.398353910782122,-38.1827871669151,-13.455032652554767,3.296417323670598,4.3230963636233035,3.9783705491626344,-0.14710304979840227,7.497961777497984,5.75012045042012,0.38412572551392987,0.8942615040381625,-1.379147303538729,-0.8138054040495848,-6.2340029919244415,-5.4805161263942095,2.0183491423753455
275.0,14.1912752157854,-6.188455659455476,-5.413365150721038,-38.17077161582778,-13.449889173232542,3.296069582110701,4.218766197964823,3.893108949979586,-0.16434635798340924,7.250931994432307,5.617296661043501,0.3530108794240432,1.2310943997993693,-1.3372561819419384,-1.393610163168806,-6.145621351442264,-5.385006921672084,1.99318601594506
276.0,14.148231178614061,-6.246697542520238,-5.417741220101198,-38.16472799068681,-13.444541187296075,3.2935921589044423,4.126587069013728,3.8092310063693944,-0.16462320444719314,7.048338668662591,5.4871075454910905,0.4315999511241033,1.5249626037930089,-1.303117078806204,-0.9193958812916234,-6.060986034515116,-5.291793544700903,1.9609219089169394
277.0,14.095538959469282,-6.307779151235037,-5.4225918278203995,-38.16072329354185,-13.43896413051778,3.2905635333294354,4.04151090844432,3.7258022960915214,-0.15448574677537152,6.89222638308005,5.367463422669695,0.3768316369653846,1.7708249945470182,-1.2687468584516295,-1.279409676873079,-5.978202213377735,-5.199462952615335,1.923849847820834
278.0,14.034511010436146,-6.371120726953047,-5.4216738756995175,-38.160062371576764,-13.433321218190262,3.286283018038321,3.9623392562390936,3.6439217471152956,-0.1368127642273369,6.762236049188667,5.248698934467662,0.3953581488560518,1.9886256407505858,-1.2397115893443078,-0.9752346724807501,-5.8963617824078,-5.109599358939661,1.8863925515933533
279.0,15.81193225598859,-0.00498993882404708,-3.109075775200437,-34.88533373989736,-12.629880438787396,2.3245015511851674,7.119353348440063,3.8099569317924784,-0.009091564281419107,14.785838840664063,7.486653720954868,-0.40411805733925554,-4.988525714916744,-2.7132706114311267,-1.1813435275215616,-6.797736453751922,-5.285959573484259,1.9490295167236749
280.0,15.949851999396678,-0.012007204700936885,-3.180378264608181,-34.88261928845171,-12.614204355138826,2.33099658444976,6.800175837830252,3.7430692274273287,-0.3251233790436281,13.507345776846353,7.2181347879687845,0.15312345435008545,-3.7883272669653785,-1.8783301361018,-0.9209450571775095,-6.6668784036529924,-5.211636828708011,2.072086291460758
281.0,16.008290614054083,-0.03932188381959967,-3.2203053498813614,-34.893602929835495,-12.597285802979632,2.333383058448715,6.5560526543502355,3.671593940771656,-0.5204495819451425,12.481782546102071,6.995448717198858,0.4683879003087412,-2.705577237155943,-1.923403795670759,-1.1604660517336345,-6.563363964534609,-5.131853787669897,2.1160286700156137
282.0,16.007981196302648,-0.08404603876671018,-3.2346140289678886,-34.9198164129761,-12.579394882543923,2.3322915520130683,6.363325635668903,3.597023642366578,-0.6352248911657887,11.670146795233887,6.802506531859659,0.70226646936566,-1.8313453565684519,-1.8166093610303249,-0.9892990525576173,-6.478513450964968,-5.048388521061145,2.109129143769029
283.0,15.968153371062956,-0.14107058709675752,-3.236053743288943,-34.95481612337726,-12.56074923360457,2.328866958192044,6.203146564536,3.5206174153075893,-0.6984742636908416,11.025267762637528,6.634257819519338,0.7967439441520989,-1.1031731003723149,-1.7520183793038697,-1.1300761154205632,-6.400068384088877,-4.962615009282284,2.07654941219774
