xqsrdtd/agibot_x1_dof_lag/sim_data/20250922_205126/20250922_205126_joint_torque_data.csv
Time (s),left_hip_pitch_joint,left_hip_roll_joint,left_hip_yaw_joint,left_knee_pitch_joint,left_ankle_pitch_joint,left_ankle_roll_joint,left_shoulder_pitch_joint,left_shoulder_roll_joint,left_elbow_pitch_joint,right_hip_pitch_joint,right_hip_roll_joint,right_hip_yaw_joint,right_knee_pitch_joint,right_ankle_pitch_joint,right_ankle_roll_joint,right_shoulder_pitch_joint,right_shoulder_roll_joint,right_elbow_pitch_joint
0.0,-1.2202334440859273e-16,-4.569101053916318e-17,1.4237498812193983e-16,-4.125658993932795e-16,1.9072066041309493e-17,1.9699498932191595e-17,-2.7304429659910873e-17,1.052877964664664e-17,-1.0528856144915948e-16,1.4440267409333958e-16,4.8904637605545935e-17,-1.3088038798710134e-16,-5.195315914627283e-16,1.2279894243854732e-17,-6.7572350410790615e-18,-7.271600065882317e-18,1.253232039582484e-17,-7.199123651734224e-17
1.0,-1.9426856117053381e-16,-6.055216077682587e-17,1.6665210674335087e-16,-5.994932492479729e-16,2.2996561498623098e-17,2.0504266428461512e-17,-5.4270247005353536e-17,2.324789738582514e-17,-1.9273196901060574e-16,2.5806053296825556e-16,9.607619875702262e-17,-2.3040984456680705e-16,-9.016525857646574e-16,1.1449103604681418e-17,-4.249924032716366e-18,-1.4257871117263334e-17,2.2356502379256573e-17,-1.4852334098737074e-16
2.0,-2.224701940398971e-16,-4.447138462855353e-17,1.1590100657911152e-16,-6.420885204754702e-16,1.9247139737318288e-17,2.1876987256607458e-17,-3.783009644296309e-17,3.981078827363513e-17,-2.05789048808975e-16,2.80775666400789e-16,1.1912758868816215e-16,-2.1331253890959856e-16,-1.0139633645942993e-15,5.792405758477613e-18,-6.73741338009949e-19,-5.217793833273023e-17,3.2276678941750575e-17,-2.2750655963559364e-16
3.0,-2.3391988570422706e-16,-5.974715590029718e-17,1.2760317812463662e-16,-6.432218516684923e-16,1.7809124866583863e-17,2.1049964521427765e-17,-5.41878476666004e-17,4.606432355188478e-17,-2.5893839651359143e-16,3.1550277340471957e-16,1.3005098868901569e-16,-2.019581538637341e-16,-1.0689115459668922e-15,-4.52927655164182e-19,-1.8628789148905324e-18,-4.7381490613863104e-17,4.5358601994518594e-17,-2.4763150786219697e-16
4.0,-2.6556523919244937e-16,-5.67095625255105e-17,1.1577709917647853e-16,-7.097862075121191e-16,1.7139206317156318e-17,2.3282665932406396e-17,-5.392845813416406e-17,6.125932128053245e-17,-2.862936653713046e-16,3.430613454313521e-16,1.5500781144638734e-16,-2.0112108805179112e-16,-1.152259300095729e-15,-2.498552937489401e-18,-1.0818295511482997e-18,-5.878040575541546e-17,5.159291117481248e-17,-2.8698946404232523e-16
5.0,-3.5258345980724565e-16,-7.667800264051085e-17,1.8766236704930892e-16,-9.376794919263029e-16,1.7119484947668852e-17,2.4356302311511957e-17,-4.846810457138447e-17,8.277056015729343e-17,-3.3435844285156415e-16,4.2537158632183e-16,1.884926939899388e-16,-2.221617462451124e-16,-1.3968236171030835e-15,-1.88593881266679e-18,-1.642169888050287e-18,-7.622565411611686e-17,6.26887335916328e-17,-3.469857170925197e-16
6.0,-3.6188004216935454e-16,-7.065364180220994e-17,1.4496311831375385e-16,-8.796400835467026e-16,1.1470532144318692e-17,2.3089937423677758e-17,-5.770097438284127e-18,9.04546944645691e-17,-2.768209161963576e-16,4.326472524459701e-16,1.951153209498865e-16,-1.7537670364280372e-16,-1.3205496787723695e-15,-1.0721355444236142e-17,-1.5536058311418389e-18,-3.418615215436994e-17,6.590704369215861e-17,-2.9000972503026406e-16
7.0,-3.9103021377874336e-16,-8.393475517931715e-17,1.5160057594379536e-16,-9.633426095767421e-16,1.5171492670081518e-17,2.3910989426282538e-17,-2.729569412892733e-17,1.030415612696533e-16,-3.5836669445028494e-16,4.627031502175199e-16,2.090711946022384e-16,-1.7341077335870083e-16,-1.3867390536328438e-15,-7.813101788405632e-18,-2.2383985899603475e-18,-5.588623785586876e-17,8.306034603353219e-17,-3.6034963027556854e-16
8.0,-3.436633176976404e-16,-8.447759226059111e-17,1.130529206578109e-16,-7.79177927583078e-16,1.000377740752966e-17,2.2841090370487642e-17,-1.1357366280150738e-17,1.096758190771527e-16,-3.3387578032740507e-16,4.378351497635061e-16,1.9890296095427848e-16,-9.372035819250235e-17,-1.2206158548577114e-15,-1.455458744502299e-17,-3.0126820270979003e-18,-7.615762773358124e-18,8.963755271377313e-17,-2.7156385166338226e-16
9.0,8.16417396068573,-11.912028789520264,4.235766641795635,-5.724764615297318,-6.306322887539864,2.81742200255394,-1.5770794823765755,1.5666043758392336,0.7670897617936131,-2.3657687008380885,2.8093835711479187,-4.239118322730064,-18.635140359401703,-6.090707033872604,0.7223734259605408,1.3427125290036201,1.3843226432800293,0.49789678305387464
10.0,8.220417771253734,-11.381776266132398,2.143782198251207,-5.717162620954569,-5.057125860928965,1.887914718618441,-1.5147464270329583,1.558760409368916,0.8300364742621902,-3.3174987824372906,2.422037330737247,-2.3207071265174943,-14.110776048481886,-5.08598966456388,0.585068423183335,1.1441658546485562,1.3261345525831265,0.38487830617300056
11.0,8.136121825424325,-10.971663383791304,1.0666094946469524,-5.251936016718648,-4.478761735804904,1.7747364346923424,-1.4822490425624597,1.562383804676408,0.8043120163689197,-3.874075413582025,2.233981141807423,-1.2430478411689605,-10.876296141150483,-4.546534681006498,0.5151879223178204,1.012694805620655,1.2665807286794006,0.28388263187419566
12.0,7.95855248815145,-10.649174596368898,0.39033143974070805,-4.783140894629873,-4.176379166039636,1.7476845500436173,-1.459964262634323,1.5691553381899193,0.7424015125504322,-4.163685575913598,2.162103489238902,-0.6797415425183866,-8.661818195641134,-4.221848944617187,0.4714906193030248,0.9259592453548684,1.2105192807653191,0.19457457188360416
13.0,7.721988401111212,-10.388285348154188,-0.04616323113931298,-4.425453026227341,-3.9912125170597266,1.7244077414491858,-1.4355398206498928,1.5757178273173433,0.673233185653827,-4.283850294373694,2.155300747242106,-0.40898429193167685,-7.152229254996504,-4.003462414114337,0.4426683093655941,0.8677713030506367,1.1585677574665711,0.11790447871402404
14.0,7.454414280531736,-10.169045601065845,-0.3288203657496789,-4.166243534740785,-3.8583481241316884,1.697456110146433,-1.4046375984156418,1.5805913904719415,0.6099417203667121,-4.299975425856562,2.182594090746834,-0.296351609709784,-6.106202047507967,-3.841243013349226,0.42258104680680686,0.8284066328980152,1.1103863361520503,0.05469468273271816
15.0,7.174792300670891,-9.97769613619625,-0.5124762251952433,-3.9697674594411483,-3.750247406173053,1.6676176477384073,-1.3670635128480755,1.583256257822314,0.5567768529406375,-4.2535210118240405,2.2260293111587837,-0.2642717839146882,-5.360579737977675,-3.7105210766127987,0.40749803120214956,0.8017386696885767,1.0654874337810702,0.004416952101205185
16.0,6.894498626907927,-9.805251314535976,-0.6321532126597029,-3.8070551371015773,-3.6547059370342385,1.6361195057819575,-1.324251171660054,1.5836745997286301,0.513741433014355,-4.170106306070127,2.275638592252208,-0.26955655337089723,-4.810367465066545,-3.5984689269723718,0.39520996648378914,0.7836938448290347,1.0234335490862396,-0.034449908206410584
17.0,6.619765315885983,-9.645965786060193,-0.7099766085845336,-3.6599456835577406,-3.5660792248814053,1.6038317834131446,-1.2779984894783112,1.5820222153790509,0.4792087391538575,-4.065414843698845,2.326137922947103,-0.2890487493048357,-4.389195686518855,-3.49810749017412,0.38445152397236115,0.7714811132223414,0.9838687833469376,-0.06381709328718754
18.0,6.353685456555496,-9.49617088816603,-0.7599257013989242,-3.51858057299553,-3.481660587591488,1.5713058125604302,-1.2299303561911095,1.5785468811507128,0.4512144860282204,-3.9490475632125115,2.3748981439477994,-0.3109514216303557,-4.05516046479751,-3.40549887042446,0.37451977167481654,0.7631651221410538,0.9465089303016582,-0.08557189498614992
19.0,-0.6769576071322276,-3.775761622341117,1.5107492832010472,-2.432535133053279,-4.117221995101609,3.380478364377521,-1.9728307050828024,2.0941621232743532,-0.17861413259413517,-2.921311890686037,1.1406947078333736,-2.6269546922411173,0.35569037563508665,-3.4985444001302834,2.5372989968340214,2.16454636831022,0.4602006528085842,-0.19257536474713322
20.0,-0.5119238854424213,-3.721747558963304,0.8982307297526964,-1.5539422288184888,-3.8883096262166443,2.714741498507614,-1.7642173924947728,2.019631843196437,0.13718899020208003,-2.763933429717169,0.9998518990952988,-2.474131460865219,-0.27296869128195134,-3.3142890008885915,1.8865550512064915,2.0352939733609485,0.48449700251961525,-0.33841663903671537
21.0,-0.44065565023361564,-3.676883347891841,0.7497307122745411,-1.0146740844291675,-3.727064844882321,2.589412884915492,-1.6202486584818847,1.9621344399055114,0.3197505579452996,-2.64919862838095,0.9009620773904607,-2.1055813330326485,-0.6096871445359966,-3.2026134164461597,1.7646986697028257,1.937381119472359,0.49621806680852193,-0.4255180682915267
22.0,-0.4107021262971484,-3.636516293715964,0.6901319774501697,-0.6349275204780551,-3.6016157810251617,2.525448681644699,-1.5234799159144619,1.9137374144142623,0.418814768999108,-2.5425130909084515,0.8322915533712256,-1.8112696423608625,-0.8611383357915461,-3.1172242641674606,1.7073587294635608,1.8671803572548813,0.501720780959695,-0.4732115020116714
23.0,-0.40544473707857476,-3.5985091639584788,0.6622829848172005,-0.36325540714194027,-3.494967478733299,2.4685182283851637,-1.4557856263893914,1.871094796249037,0.4685654194603389,-2.442690875960156,0.7839644377443904,-1.592634773280186,-1.0595095554437108,-3.0426703311095284,1.6604043971603981,1.8149825447547585,0.5033380242842264,-0.49629099576823055
24.0,-0.4155097925223965,-3.5614853346961723,0.650119070383476,-0.16686565865370362,-3.3990376688658905,2.412801945334883,-1.4055608277798668,1.8323009290691157,0.4898296271674536,-2.350779930742721,0.7493128023718444,-1.4291059073475516,-1.2137256021701504,-2.9730016788152924,1.6169062543462656,1.7740260212596874,0.5023541431821725,-0.5041685330200419
25.0,-0.4348836972424728,-3.524644252614168,0.6459680772566818,-0.02233560104447374,-3.309868743483925,2.3579105150740807,-1.3658623008494828,1.7961810777592846,0.4949324718606216,-2.2669579616185844,0.7239931331561404,-1.304757974405443,-1.3301284375522187,-2.905810422084726,1.575585699949503,1.7400585744707706,0.49958548598462527,-0.5027558872988788
26.0,-0.4596931471161736,-3.487590724100723,0.6455736456590841,0.08651931020901316,-3.2254006941989863,2.3039696918666395,-1.3325908750829982,1.76199242574238,0.4910821429162515,-2.190705976441574,0.7051653244904837,-1.208729407996593,-1.4149091856740093,-2.8401307638147286,1.5359780841685209,1.7104396988262645,0.49557779783132583,-0.495778571817982
27.0,-0.4874593742062818,-3.450178210036279,0.6465898764859279,0.17061245729643026,-3.1444903191670166,2.25108886959282,-1.3033328280153775,1.729256544643245,0.48245819324142114,-2.1211869392676883,0.6909382410574334,-1.1335978067011805,-1.4739451973488258,-2.775604913758273,1.497817424463879,1.6835320083999226,0.4907053712625329,-0.4855814190214339
28.0,-0.5165985053668378,-3.412396635547344,0.6477890263375157,0.23724787983893947,-3.066464936518452,2.1993270441257495,-1.2766671828937102,1.697659181694692,0.47146056900127603,-2.0574907207900974,0.6800218047728036,-1.07416612003313,-1.5124738916199654,-2.7121310288208296,1.4609260804606772,1.6583227796011908,0.48522944653117034,-0.4736291489555666
29.0,-2.794379959309749,-1.4017987186295757,-0.7993348763267623,-3.029244006148166,-3.424701904606283,3.1635631951371623,-3.0297478903460346,1.3088564344363318,0.1896034776287247,-6.378133456365531,-2.155775841484662,-2.489605312097588,-1.731386948422335,-0.8830064055855735,3.2456094886669087,2.797491561976288,0.48710315750577593,-0.38928651533006076
30.0,-2.6527851096953956,-1.4924539343708885,-0.5952425956088927,-2.0634206373797,-3.3142860317802816,2.8122742470891895,-2.8133728570668293,1.245300873958229,0.4529406470939493,-6.137692343323363,-2.238289081839521,-2.5174355810557234,-1.8309344435535095,-1.1863128428374132,2.6665042009896447,2.6597440318254453,0.5156390303175334,-0.5528009523438808
31.0,-2.5712055079395197,-1.556369429308604,-0.30556545211389086,-1.3940022831952525,-3.2094494258890247,2.7092309959440337,-2.665900129228412,1.198107043362476,0.596849385609802,-5.915425715704049,-2.284977619808096,-2.3548802924278425,-2.1370156013999964,-1.297201506549138,2.540578926095545,2.562502245999088,0.5311984345708509,-0.6470396230168275
32.0,-2.517091739728092,-1.5998195288130233,-0.06856739035019555,-0.8771542487256951,-3.1132067917255677,2.6375524464178843,-2.562954657701945,1.1599435517906187,0.6708779573036803,-5.714613997673793,-2.3134925756347204,-2.2101837599938534,-2.4502276355499113,-1.3305333370332582,2.471700387183576,2.4944536937531523,0.5392576487503398,-0.6949333008032967
33.0,-2.481293424684096,-1.6278053914048565,0.11526814896434256,-0.4703816053365104,-3.0238324969494776,2.5718572783221703,-2.4869380909051064,1.1276361082814066,0.7045258104790167,-5.537554520082248,-2.331296725350528,-2.0910416818244526,-2.6990491435775947,-1.33187225811159,2.4115774444224316,2.444367878226088,0.5422839249273332,-0.7140990937668089
34.0,-2.4590111674841024,-1.6442035530488903,0.25717113385599166,-0.14907263352920097,-2.939829884677975,2.5089012370962616,-2.427299236653992,1.0993821041238,0.7148146675023831,-5.38142793251021,-2.3417166137786007,-1.99210988903845,-2.8753248216618843,-1.3192845083127847,2.354000295931547,2.4049991967622,0.5418247547570488,-0.7162104858046487
35.0,-2.4468087760399087,-1.651901365837285,0.3666831706993494,0.10527388817565875,-2.8601773811260616,2.448079124299698,-2.37776526135767,1.0740391177503232,0.7117265102643353,-5.24218460371705,-2.3465376182321878,-1.9096350168636018,-2.9902853054458927,-1.300211026013498,2.298077753516467,2.371939475558423,0.5389265438340796,-0.7085966326540233
36.0,-2.44201044662187,-1.6530258341621709,0.4510347603794478,0.3072307575010056,-2.7841654142046313,2.389152313116724,-2.3345626431293547,1.0508452016344727,0.7011916164477047,-5.116182039578384,-2.346936335636509,-1.8409412011648332,-3.0580692535708174,-1.2779211032261433,2.243643763006694,2.3425384115601355,0.53431020902035,-0.6957209100379207
37.0,-2.442510199608038,-1.6491517880586724,0.5157095046955287,0.4682577054596164,-2.7112774341185215,2.331965130970788,-2.295402402596497,1.0292767389777289,0.6867413664652476,-5.000548193886198,-2.3437988860276233,-1.783786055463314,-3.090895831540694,-1.253977645054912,2.1906376377928947,2.3152131465410375,0.5284782770636308,-0.6802359860118129
38.0,-2.446662818994637,-1.6414579841503345,0.564927615974729,0.5972945865030583,-2.641123359212555,2.276398108644213,-2.2588926604020187,1.008966379892474,0.6704611434106572,-4.8931203399045415,-2.3378318541781518,-1.736180686339086,-3.0982359992208366,-1.2292003087618757,2.139011612245472,2.2890277725089536,0.5217852060749157,-0.6636776234447157
39.0,-2.044008081429455,-6.3400015938989585,-1.1782646557281602,-4.796952014546596,-7.405512774007718,3.268897362629038,-4.452376762175128,0.07139619220166094,0.9233507450880215,-7.330566721516147,-5.002347439645213,-1.1258057343656374,1.6937163253677685,-3.123787139457882,3.415055413424946,3.826606485043535,1.8336358358012361,-0.26589738481478675
40.0,-1.9710651761621896,-6.275498771688481,-1.2787240286979578,-4.581512544358389,-6.40482601961272,2.929120901529931,-4.3470658421978206,0.08247582810423759,0.9947851539082917,-6.833080946700967,-4.826708003457079,-1.8981583601173062,-0.859849892157249,-2.622187438243734,2.953117339796174,3.693943417315671,1.7967242959173215,-0.4847829362766999
41.0,-1.8649416543137027,-6.183601493286329,-1.2709492551041452,-3.7008886040134126,-5.90455702153168,2.8292140381954822,-4.22658320238828,0.09113798795914874,1.0767187935141904,-6.569606986951406,-4.722833377152421,-2.0722930267024005,-1.8994319190929794,-2.4197476475672133,2.848643443414092,3.5819623111079144,1.7527883118594318,-0.605836877550941
42.0,-1.7907137902691064,-6.092875971809308,-1.2117405573572237,-2.8045248519161667,-5.607218284236381,2.762003513523047,-4.11538255091562,0.10016123613384598,1.1317008578414942,-6.388050768235797,-4.641069722339648,-2.0972659283645045,-2.376904183752054,-2.3204826793584963,2.7822570189863756,3.487657281341171,1.706988403402621,-0.6763301839528058
43.0,-1.7574576136471425,-6.006841392708688,-1.1193880129323412,-2.0611310330599135,-5.396637085004618,2.6996447720357155,-4.016484374571305,0.11042450803994996,1.158859427539862,-6.241305724020086,-4.565193785986374,-2.076365011980342,-2.6175934657727873,-2.256707681190606,2.719488232992323,3.4070358279935995,1.660496206784797,-0.7162249009563721
44.0,-1.757438518685758,-5.9236396587743485,-1.0125098353407713,-1.4801961360712,-5.226361626278434,2.638299330972429,-3.9281516029631316,0.12183861110295935,1.1651545070441296,-6.112928046240464,-4.49027351052502,-2.0402691247782627,-2.744149021479873,-2.204960765788243,2.657538013050252,3.3369555495277714,1.613762234149342,-0.7358374848443882
45.0,-1.7807769737786114,-5.8412471660164975,-0.904886333500212,-1.0314409283959023,-5.076958356921084,2.5776995494188064,-3.847951976744646,0.13403123507640458,1.1575891179516122,-5.996351121075464,-4.415104386954845,-1.9996565132388042,-2.807974288046677,-2.1572299975594653,2.596553000917021,3.2748607967696066,1.5671049231970415,-0.7416226784156619
46.0,-1.8193954966906922,-5.758468871349406,-0.8044733643009854,-0.6820286310525798,-4.939778272113605,2.518077383383382,-3.7737997700224737,0.1466141225963804,1.1414835096477014,-5.888412379676733,-4.339643127360672,-1.9585693763004421,-2.833597951359486,-2.1109022716405716,2.53672971951272,3.2186880387901473,1.5208033770767582,-0.7380519142727744
47.0,-1.8674665410621922,-5.67483823397899,-0.7148666249604703,-0.4056118048978625,-4.810675871560199,2.4596445683802957,-3.704137091314007,0.1592636941024833,1.1204780776833851,-5.787246791772139,-4.264154398714783,-1.918580571330554,-2.834424871525139,-2.065226034459389,2.478156580695444,3.1668315176607185,1.475098566537947,-0.7283094119065975
48.0,-1.920974028796195,-5.5903408326070405,-0.6369793463510298,-0.18287451715301373,-4.687498497385401,2.402523265590264,-3.637870865857751,0.17173344568124993,1.0969282536316562,-5.6915788911368415,-4.188939796012465,-1.880263565585027,-2.8186404057297327,-2.020066431951861,2.4208625283299305,3.118091067007222,1.430186377001793,-0.7146443142159457
49.0,-4.500015371932017,-6.202088751129816,-2.6992446629963553,-1.6370195184831218,-6.286623940917376,2.992047282758805,-5.184381138214953,0.901102643892413,1.1647713544721876,-7.573638064976284,-4.6226129444853346,-2.12317581387481,2.336723378379953,-1.7913968810475702,3.0076837667263363,3.752481916043059,1.0486249067823572,-0.668159231025397
50.0,-4.455205717999193,-6.237031951516082,-2.298073313352054,-1.3612859724331017,-5.84056211760141,2.766327939138146,-5.001785406221648,0.8757650888266786,1.3001124735629839,-7.13446550241801,-4.532954216803157,-2.392821155809256,0.5149985629397604,-1.7079563242505749,2.756549613824941,3.6429838796577254,1.040595939787778,-0.7761114487498515
51.0,-4.384351710931229,-6.223544208703062,-1.9805391828640164,-0.8251689851757096,-5.572420882219912,2.6759167458132236,-4.850569902382915,0.8560749815703905,1.3897435452484261,-6.853216687138145,-4.473193603606899,-2.3772064254899528,-0.4981301365569003,-1.6768539930311332,2.674681984913035,3.5559727614782943,1.0232378298383344,-0.8175512637996595
52.0,-4.320337906263806,-6.18651890751191,-1.7348195373159556,-0.29237230807731507,-5.377845536342521,2.607376356102593,-4.726888328227096,0.8408235025440736,1.4376943908547228,-6.649541196115519,-4.422001808274606,-2.290667728334884,-1.11698076695311,-1.6564339200639195,2.6116363193219323,3.483414361385322,1.0011536603674993,-0.8256591410751769
53.0,-4.27208853157571,-6.135806660617149,-1.537559856437077,0.15920383615956446,-5.216023818365414,2.544352248326346,-4.623294833762849,0.8290321777067986,1.4553618348969064,-6.490256077284767,-4.371359791401448,-2.188924565128529,-1.5159655380037265,-1.6352426099648343,2.5509049497362337,3.4199046156999686,0.9762785009543309,-0.8163558584152499
54.0,-4.239043024905453,-6.075993240757295,-1.3760774669449438,0.5214755620633191,-5.0707649337336935,2.4839143011647677,-4.533619896980483,0.8197832661013538,1.453015500733904,-6.358964694000118,-4.31863614065532,-2.090451706831517,-1.7803873638582348,-1.6110481270625754,2.491225973380442,3.3622126367927776,0.9497205916244447,-0.7978774414466855
55.0,-4.2180858091300655,-6.009678664293089,-1.2430372893001542,0.8067727597795429,-4.935322430482634,2.4253611958306456,-4.45342193984837,0.8123154393358162,1.4382442157889819,-6.246504100661014,-4.263307973517105,-2.001485199539392,-1.9571028483380148,-1.584160575221644,2.432756405490519,3.3083518082190166,0.9222133421140244,-0.7747630260238726
56.0,-4.205966987689715,-5.938609056374785,-1.1332670050936238,1.0306554257359455,-4.80665084503536,2.368462562147694,-4.379675400605506,0.8060419078977512,1.4162071943783896,-6.147277488824129,-4.205634443690974,-1.9234517486995886,-2.0742588014727072,-1.5553809157448515,2.375632469902945,3.25706833298113,0.8942716458681614,-0.7496036094460536
57.0,-4.199969006316563,-5.864081604289847,-1.0426121137800726,1.206846433128959,-4.683221764249909,2.3131079102652006,-4.310382399791969,0.8005277130924477,1.3902450684554726,-6.0576438985627155,-4.146119305821498,-1.855821518827951,-2.1498887685585695,-1.525438063515839,2.319899160281954,3.2075665681180396,0.8662644118095457,-0.7238855332584104
58.0,-4.19798501655144,-5.787103143911369,-0.9675811363583721,1.3462643519313389,-4.564173017049875,2.259220262887097,-4.2442515469010695,0.7954575664920827,1.3624426955123239,-5.975129557897028,-4.085295399000117,-1.7973416932160946,-2.1960663845506865,-1.494882396090783,2.26554956708435,3.1593471265082727,0.8384565911836129,-0.6984407212918496
59.0,-2.3820199348429107,-5.540723360882928,-0.4853206659810133,3.3256768865126194,-6.368879014317551,0.8854764268119133,-4.598854362169209,2.1398045426389833,0.9305412563889796,-9.761906968490205,-1.8792073286914057,2.2685057619606637,-4.086010791894298,-5.007025321677656,2.213643554300182,5.01851648419276,0.7537810929210897,-1.0207321528715583
60.0,-2.6889383731584324,-5.531916671064389,-0.09214323869244773,1.9247690638529225,-5.830691527832764,1.2407426899257543,-4.471068943685797,2.109440222131136,0.9694022881689625,-9.388679612807326,-1.6778809923088622,1.3163032894802567,-5.6352727766889625,-4.25027592156904,2.094320588417884,4.871153590990152,0.7491839546294483,-1.198735768938306
61.0,-2.817439790691176,-5.474937857035137,-0.10881589787857968,1.5676689536482016,-5.548414622373704,1.253188019076216,-4.34919788152044,2.0727918848541487,1.02601954874429,-9.210798813606097,-1.5704675096339802,0.8446805150895464,-5.805993863755624,-3.9081400413904066,2.045718691435762,4.761068718350266,0.7397322904801777,-1.2724852316412867
62.0,-2.8981264340231165,-5.409802336333742,-0.17618217105024586,1.4976965239241569,-5.359164516364769,1.2289060925661803,-4.240011236149742,2.0349189520574704,1.0664979770991132,-9.084816737605152,-1.499095134838096,0.5575903487578842,-5.569273307403833,-3.7212656917134836,2.002875090184132,4.667921084800282,0.7291593503258242,-1.3035046010650304
63.0,-2.9636081146374416,-5.346603886513922,-0.23513355896054672,1.507373260687606,-5.206842075313183,1.202009558970765,-4.142946748467937,1.9970374895986245,1.0878098671024887,-8.967221373845465,-1.4446234644561626,0.3592619502922638,-5.245044551799405,-3.594583502161597,1.9598043703170644,4.584618727535895,0.7187099894952048,-1.3133363459959855
64.0,-3.0222994965596532,-5.287121942279954,-0.2788467509009261,1.5366773982243522,-5.07081819493054,1.175527809166983,-4.055533356467663,1.9594491822087554,1.0939460759743773,-8.846427293615443,-1.3999341023801184,0.21333561574472126,-4.931819491500518,-3.4927916458182433,1.9166087397319,4.507860459813316,0.7086897534230294,-1.3108528403472341
65.0,-3.0761453652294555,-5.230966813906263,-0.3099873831596861,1.5689651869683363,-4.943158653441134,1.1495275154627147,-3.975404645842875,1.9222322650293693,1.089418304092655,-8.72074160814227,-1.3619010785333312,0.1031823692634628,-4.654227872471829,-3.4024912056051972,1.8736473718167814,4.435774536419835,0.6990988123521514,-1.3003928014860393
66.0,-3.125468141569204,-5.1773691582419,-0.3321291733551443,1.6003006336700718,-4.820675403045682,1.1239749815086173,-3.900756695027069,1.8854187833694565,1.0777747194271812,-8.591178143970996,-1.3288167249756029,0.01943843967273695,-4.413604145232087,-3.318409890953945,1.8311316711138659,4.367162610402572,0.6898566223287215,-1.2844595046856275
67.0,-3.1703047907129576,-5.125649977103075,-0.3480859983359972,1.6301177922107701,-4.702018663538054,1.0988871509731482,-3.8303171034820056,1.8490362791292458,1.06151996970181,-8.459206373471439,-1.2995476506505028,-0.044143899906437634,-4.2049879105696,-3.238349515802879,1.7891866196898538,4.301204899026156,0.6808747148739185,-1.2646857006680867
68.0,-3.210725669183526,-5.075298958169254,-0.35980901007835964,1.658508017521573,-4.586577071287689,1.074291115700511,-3.76321144232185,1.8131135704614278,1.0423507837967034,-8.326124264488541,-1.2732508781561838,-0.09216082016428984,-4.022563550613856,-3.161310058172099,1.7478950001159195,4.237322268594533,0.6720770904250917,-1.242213926112444
69.0,-4.979455061169041,-5.127009667071066,-2.086624911341845,1.2246287476188904,-4.567426584358014,2.4815993636377716,-3.9301632649759153,1.6343477234593804,1.158137066686872,-7.15043579506583,1.7541486343430566,1.0688841902331245,2.5650970485258395,-3.5665893596966227,1.7796346948999267,4.0455222195199,0.38887209828454616,-1.175585242089622
70.0,-4.913121816904985,-5.211748191232162,-1.8736331066101402,1.4483375393318276,-4.447660222929519,2.035519771481258,-3.8584669204546396,1.5820318172975603,1.149220392906249,-6.709736081266134,1.7931729735947308,0.6324824841019376,0.685606182276365,-3.304886615486744,1.6969303291646642,3.9757468943733256,0.4114214648580412,-1.1990003153929165
71.0,-4.844575852268724,-5.248272465820389,-1.6039844742606604,1.6312323259433512,-4.330492314014121,1.9324253382953387,-3.782700677916043,1.5337267518528117,1.1504488066368763,-6.4418668936063215,1.790795846652148,0.48557071348688313,-0.22293498867963768,-3.1782331070259295,1.6561920146982372,3.909141405650936,0.42473337007325773,-1.182998762259948
72.0,-4.7690270024632255,-5.258241687621325,-1.4039458921247499,1.8131283438807575,-4.2185257300447105,1.8773643373565094,-3.7133170187311784,1.4884281724938442,1.1474137111304334,-6.255405759587664,1.77119085289945,0.44694066839468866,-0.6986341128624596,-3.0958229706164646,1.6179295433034668,3.846095423495998,0.43338667223518335,-1.1499140100892196
73.0,-4.694204461137042,-5.252488572966911,-1.2596702659139174,1.970423158498095,-4.110267880005054,1.8309273437472702,-3.6508604275258407,1.4458612981385004,1.1374826931820252,-6.11076257492439,1.7458742626314754,0.44929446596998657,-0.9648281978725772,-3.0269206566939384,1.5793992248565183,3.7850248171103043,0.4391031346271671,-1.1107203912368573
74.0,-4.623535653856139,-5.236655737120948,-1.1533516164235327,2.094747011799928,-4.005199151477033,1.7872908983080533,-3.5939409181936703,1.4056831689957825,1.1218011650644917,-5.989575597481203,1.719668525712867,0.4652554407715079,-1.1202603708629315,-2.9617187020026967,1.5410840338944436,3.7250157165588216,0.4427550122087134,-1.0702616671625935
75.0,-4.557692803307045,-5.213924569795891,-1.0733087257758323,2.187415102787458,-3.903202239287306,1.7453342966581187,-3.541070799714321,1.3675435844640593,1.102224833844087,-5.882665322489324,1.6944249563669826,0.4835211374371326,-1.2120568742996247,-2.89746250777041,1.5033877890744574,3.6656545188617695,0.44486386730393024,-1.030571179419636
76.0,-4.496241638383859,-5.186238908432163,-1.0120785771522867,2.2530383407696437,-3.8042064476072617,1.7047150926440278,-3.4910774249153644,1.331138959571633,1.080358783876121,-5.78507856998846,1.6707298524092322,0.49965765622006564,-1.264673831869485,-2.8336352900939734,1.4665022404638317,3.6067837368628175,0.4457728610939409,-0.992423505054183
77.0,-4.4384205847619,-5.154869541422895,-0.9646725412161513,2.2966985198077996,-3.7081083034522977,1.6652710289460675,-3.4431313746682806,1.2962247629923533,1.0573637972384082,-5.693945633267907,1.6486473374448765,0.5122249171550375,-1.2918773566540005,-2.7703411624765764,1.4305012238814054,3.548367598703755,0.4457217735062293,-0.9560312567095058
78.0,-4.3834540281318635,-5.120691183195085,-0.9275973542238662,2.322954473091693,-3.614778415738733,1.626902589199532,-3.3966780382737856,1.2626101276725648,1.0340045572439587,-5.607498532316443,1.6280418701098252,0.5210691415767429,-1.3019814122465303,-2.707794611412065,1.3954014972777915,3.4904249853958627,0.44488503046581074,-0.9213620865111416
79.0,-1.8277101115538605,-4.602584925296806,-2.5232577763798347,1.2538634041200503,-4.904055864995413,0.49767391413446105,-2.977993822597055,1.0399412131470127,0.917646110479668,-4.54475746276773,1.1770337938262558,2.7227000883680677,-0.12719732019466434,-7.130381297577783,1.955720479805944,4.823410150650922,0.9267880914900425,-0.6996755999719574
80.0,-1.974007609931192,-4.647945020498925,-1.8266586166778955,0.4215644946748416,-4.5351275713401975,0.823577917222591,-2.937081369047781,1.0182905370490563,0.8325890182839517,-4.304996782265926,1.2880741181499653,2.0060557201312235,-1.798161389225065,-6.122348242098873,1.7224733301200925,4.61671445037682,0.9276757461364843,-0.9082829156777789
81.0,-1.9857220486628038,-4.631103612181715,-1.5807934178380139,0.35307957833622616,-4.333279911511761,0.8407339582349076,-2.8882931794135196,0.995033990049971,0.7949151538835766,-4.25101363002989,1.3357567119463694,1.7108715017912488,-2.009348493260392,-5.644864462107987,1.657153857404249,4.470699170663761,0.9174064626841987,-0.9877891841980174
82.0,-1.9720230117651487,-4.594237145166572,-1.4453875361184947,0.45314863887059786,-4.190804070367618,0.8231441494212632,-2.839386822491641,0.9722883080098641,0.7679642820023326,-4.237088775830825,1.3644294434304238,1.535833094991585,-1.8072355970480687,-5.374496833681684,1.614981005212048,4.353970776129799,0.9029805476640488,-1.014211331686977
83.0,-1.9570847122599462,-4.5504787694339495,-1.3496894765175436,0.5742496983165957,-4.072332594080999,0.8032121698122057,-2.7918847817472185,0.9501629698229292,0.7431929039631782,-4.221802744107934,1.386264338747012,1.4049233295195138,-1.5313715141349138,-5.187857969845948,1.5769375034302313,4.253522779397111,0.8871119870132723,-1.0157963737566025
84.0,-1.945455280513546,-4.504017599803388,-1.2749422241437978,0.6804974164956867,-3.965072681410776,0.7840358659239604,-2.7456137122024913,0.928489695314032,0.7191871799487763,-4.196028022100689,1.4043368950001942,1.2978437313744091,-1.280519375510309,-5.037252094339641,1.5402981145704224,4.163019344882062,0.8708501572246112,-1.0043960612508849
85.0,-1.9369908240751235,-4.4562243790025295,-1.2145034652797126,0.7662719543645942,-3.8640613892174183,0.7656362868843535,-2.700234023777785,0.9071374419131895,0.6960052478338805,-4.159974097175314,1.4193522750470267,1.2086249723965785,-1.074815160672118,-4.903793484048574,1.5045259600941394,4.079049729823537,0.8545976230117341,-0.9855863727449912
86.0,-1.9306732831715787,-4.407596047390779,-1.1650387265793294,0.8337113423039408,-3.7672334909060545,0.7478755827534452,-2.655560130553501,0.8860422232461374,0.673796038311545,-4.115941892990797,1.4315514254561619,1.1346335805035217,-0.9111669238780804,-4.779725553154855,1.4694531958518362,3.999645823707729,0.8385028916548287,-0.9623035675064012
87.0,-1.9255588128013035,-4.35836625868463,-1.1242986200875016,0.8862850806935345,-3.673653807154745,0.7306717435624579,-2.611544595983034,0.8651856850323507,0.6525762475132689,-4.0662193132102775,1.4411710618898783,1.073803351970718,-0.7813936109357478,-4.66169013217374,1.435018353608792,3.923611848089589,0.8226138249389638,-0.9362540029985026
88.0,-1.9209452375215355,-4.308687655384133,-1.090525678332599,0.9271137948329944,-3.582852608046964,0.713974541883805,-2.5682113712369103,0.8445731818711475,0.6322677964777745,-4.012610585061953,1.4485005232096781,1.0241261304456366,-0.6776258041146614,-4.548124381708268,1.4012058586623977,3.8501919116347043,0.8069387695411971,-0.9085052556598486
89.0,0.4316047485558111,-3.959970996820268,-0.9722525473322627,1.2457191905015303,-3.68266095698886,0.16558569858827793,-1.8563287822218761,1.0867598917375354,0.4680791624495208,-3.3171264082765317,2.5843427241353254,2.736277663684189,-0.2724039738291295,-6.080704379123154,1.661458018364474,3.623372334862144,0.7974834558302797,-1.0052625769378776
90.0,0.270344595685062,-3.922668182234973,-0.7982182732507725,0.6785383441600423,-3.5490693653170506,0.3167056741125798,-1.853392952564736,1.0717019036716664,0.37590540251873544,-3.1804617817557688,2.664982462471616,2.246066722424162,-0.8211792350808231,-5.632148597143149,1.5183648662425693,3.576009453899921,0.7795911082124006,-0.9633013579888826
91.0,0.18191795505580388,-3.8691482460311404,-0.784209314110186,0.4561560763952617,-3.453335156403772,0.3283112648262848,-1.8309627506001425,1.0522990338205127,0.32902132741601364,-3.119944129143306,2.7046415306167537,1.9990107765785599,-0.8234453484327573,-5.375768403884956,1.4696457780128953,3.5261040195716893,0.7616531641449249,-0.9115644683749905
92.0,0.11907138340595114,-3.8130464272733944,-0.7970291348025169,0.3471335527332755,-3.3688883435545156,0.32301141259920174,-1.7997969236275058,1.0307716040048296,0.3008934834348762,-3.077592106824522,2.7256894353690826,1.8428917974401233,-0.6720870091021203,-5.196385307150949,1.4338635948603462,3.4714329441466365,0.7449081200433147,-0.864453808454426
93.0,0.06871110053168628,-3.7580599904755037,-0.8117289512998167,0.2868155573985023,-3.2886585973137867,0.3161246939341762,-1.76497149749322,1.0081069804825857,0.2810934442240284,-3.0359040592332693,2.736675947924021,1.7310956506156183,-0.49885796659021686,-5.049511714009091,1.4002254828953242,3.4132512689600585,0.7294440658884478,-0.8234932295087805
94.0,0.02613580405418703,-3.7049364415745285,-0.8233769053099547,0.25211527337511175,-3.210637548636284,0.30934231271777596,-1.7288804918973435,0.9848409639353588,0.2651718903196176,-2.990483060928309,2.7413118166427726,1.6457493738510878,-0.3431829520267522,-4.917815964037499,1.3673135291006497,3.3530327265677418,0.7150445505840033,-0.7873952875257297
95.0,-0.010787945998626203,-3.653572442315306,-0.831400572652313,0.23282530096966436,-3.134276409356909,0.3027669314575511,-1.6926887427425434,0.9613007173520376,0.25111297847587977,-2.9410565315999726,2.7414748696677256,1.5784563800499833,-0.21301573261508722,-4.794380374368633,1.3349594211384517,3.29190065098647,0.7014587319122427,-0.7546392795267667
96.0,-0.04324973193439874,-3.603670580850764,-0.8362274610650067,0.2235211475794463,-3.059455363866565,0.2963668837683662,-1.6569764279425758,0.9377003431358124,0.23796731177066338,-2.888462252105948,2.7382803964011257,1.524435378118313,-0.10650837164404292,-4.676321107063511,1.3031636523270849,3.2306122442428222,0.6884757036159022,-0.7240579689577131
97.0,-0.0720241695104975,-3.5549357225587475,-0.8384472504245055,0.22088870517078618,-2.9861704367241675,0.2901191295810973,-1.622030658721406,0.9141855766913229,0.22528402740845666,-2.833674189984662,2.7324803827515964,1.480514750237534,-0.019482802169909608,-4.562348649839519,1.2719481024936434,3.16964707067166,0.6759353526799279,-0.6948745302527578
98.0,-0.09766644124248569,-3.5071231658901394,-0.8385974977591826,0.2227188859152882,-2.9144388536868964,0.2840112052413365,-1.5879848269668289,0.8908577014591894,0.21285726531257798,-2.7775267672342707,2.724622800434484,1.4443844650588646,0.052176774558212013,-4.451824810500115,1.2413338626401895,3.1092950605691314,0.6637212620324222,-0.6666115783183053
99.0,0.8094173787058194,-3.265226818622798,-1.6688633521971203,-3.523163834813282,-4.208354015713951,0.8675847139981541,-1.1087077016821256,0.7429610245005174,0.40731491566017575,-0.6896982236283744,3.463588790466611,2.496675671588717,2.5570293261274375,-5.507865035443002,1.3685509557772706,2.4516508416822447,0.7642610215868966,-0.6036273586472095
100.0,0.9350533719004948,-3.2175724654877524,-1.703527483331689,-2.902314509645949,-3.9044894531040946,0.6888868012575889,-1.1540926923777635,0.7294538703427011,0.2928205613809525,-0.5782803673419679,3.5042585911749042,2.1503588904872935,1.8134295032218182,-5.136295509948768,1.283855129564567,2.4385195629553413,0.7467721246832459,-0.5257102907494696
101.0,1.013728684300889,-3.17039800318174,-1.6247352035333533,-2.388170487268768,-3.7154920604331596,0.651335165245897,-1.1599282370080926,0.7125975517921885,0.2312584832598898,-0.5294421257696262,3.5190942008244197,1.9806226706460484,1.5741465236972614,-4.918817782629867,1.2465632028559912,2.4063069760301,0.7290666966726147,-0.46395616571753084
102.0,1.0609454858150327,-3.12606326343966,-1.521776059494449,-1.9805618013938968,-3.5799919998860497,0.6335472637834281,-1.1480128888811025,0.6941532900400427,0.19337366213084295,-0.5001160025964486,3.522050306400823,1.8798863132321708,1.5130151451473868,-4.7629811712815915,1.2160538008216792,2.363937694065241,0.7122087836487654,-0.4155975114058884
103.0,1.085321143490396,-3.0829688769154107,-1.4181891606057788,-1.6682202264970343,-3.470213558159535,0.618605785234107,-1.1279235914476153,0.6752481261237488,0.16655263834420075,-0.4761839468513287,3.5193603182472133,1.8113154330763481,1.5110352232769726,-4.632965448559704,1.18696452461546,2.316447362971081,0.6960104300253054,-0.37635000779074945
104.0,1.0938161478345574,-3.0396248029992554,-1.3234217017939938,-1.4306301608129512,-3.3738098070129987,0.6042008176010315,-1.104143354061443,0.6564171149357008,0.14531106048927653,-0.4533167725496474,3.5135926083563946,1.7602571258174802,1.5257399239567766,-4.514826869165219,1.1585421311226245,2.266703241596142,0.6802266438577622,-0.34286284768212394
105.0,1.0915986326743812,-2.995256399455289,-1.2409694591446736,-1.2486281361599385,-3.285136874027393,0.5900963388784926,-1.0788285345208104,0.6378811261041502,0.1271996784809599,-0.4303944138397009,3.5058271878099774,1.7200708535611202,1.5425842087021735,-4.403065741541532,1.130672948464956,2.2162632750493323,0.6647107237107233,-0.3129916657019593
106.0,1.0822658337832172,-2.949636945353586,-1.1712069735532893,-1.1073884890696828,-3.2014914125625125,0.5763199357632145,-1.053034480456768,0.619713348904793,0.11107463970547492,-0.40727478948265894,3.496557622499741,1.6872995497074008,1.5570525703685414,-4.295461495677316,1.103344743404266,2.165936026020047,0.6493964956605658,-0.2854783503492565
107.0,1.0682625323205481,-2.9028445788255657,-1.1130096836769416,-0.9961583641762601,-3.121501758374971,0.5629023619055027,-1.027286714384637,0.6019227311515274,0.09636361919268055,-0.38406611858123885,3.486042098153983,1.6598818822800645,1.5681312034016321,-4.1910796892915485,1.076563566971506,2.1161240007839295,0.6342641775950035,-0.2596107048482051
108.0,1.0512499589122934,-2.8550903438777437,-1.0646930075116647,-0.9072673125928166,-3.044424588886124,0.5498514370692282,-1.0018524888193112,0.584493468908839,0.0827513399114137,-0.3609076050976352,3.4744387192220705,1.636448514848908,1.5759541590616077,-4.089497253357701,1.0503372386740093,2.067018931449577,0.619316163649918,-0.2349861451504356
109.0,3.486105086598898,-1.8348750145112938,-2.2206538493420016,-4.190328761529409,-4.479620347419676,-0.37475828843323566,-1.1339040032555694,0.648774815389527,0.028390372326220437,0.39263262687367284,2.4729727567640785,3.2399230041722364,2.7722101942654556,-6.500287490116964,1.1597685190904339,2.170795560041072,0.794246822445742,-0.09765030707632782
110.0,-0.7197218579354363,-2.806217482847229,6.307471731224875,-7.917785079602035,-6.201365287895932,2.5774323298142576,-0.15394324064739973,0.45159705155584007,1.173847034036649,0.8283839656634733,2.289392608419539,2.858416214501419,2.705572709283213,-5.938314824420903,1.0847483173968584,1.9507625868888123,0.7548500707044827,-0.1353818204593693
111.0,-4.578948557119324,-3.3655641625046444,9.965222464635275,-10.814085779614688,-8.326347589583715,4.620816917525508,0.4227574638312497,0.28929311995344276,1.9733127338089058,1.063595525795476,2.0022811426500002,2.5992962461070537,3.3890235677546103,-5.630532352331099,1.0455966314414158,1.956396337036029,0.6798450339687911,0.1009070001870026
112.0,-7.674861392919105,-3.6945707933731904,10.454070010639796,-14.296156353925761,-10.429672109736412,5.8882151881331355,0.6121272880219806,0.16651673662062194,2.376203976162094,1.1769944231527694,1.6798198686552237,2.3629603292915715,4.058121736317139,-5.411279854596242,1.0157170174988712,2.055765926761464,0.603102950044957,0.3948950675997788
113.0,-10.068054519548426,-3.9542719283800882,9.634606637675862,-18.407983328247827,-12.298283691726015,6.6625597471765925,0.5641339898840485,0.06627158387312404,2.5415055082302778,1.2126363161532518,1.3322862419831152,2.157945651757385,4.576335468980004,-5.229876948616939,0.9894298962988176,2.168111120831507,0.5378899628185001,0.6540743927218782
114.0,-11.783843586006235,-4.186938519073954,8.311672613688515,-22.705144846839417,-13.860561065842306,7.123283784746005,0.3672470608899987,-0.018933567007258567,2.5719403576891238,1.185689076352535,0.9677754806660279,1.9863957155919274,4.937209755660108,-5.067975402393096,0.9649652634954354,2.2678027265588527,0.4861862740083229,0.8593099938166695
115.0,-12.875000452019124,-4.398289142852242,6.836455444795854,-26.786142336560836,-15.110274307417978,7.388327038027613,0.07978663141352449,-0.09308932010403081,2.53367905278468,1.1078357273257637,0.5939725378147223,1.8430681835938811,5.162170471044554,-4.918554151584679,0.9417390193274829,2.347406597674504,0.4466614085379732,1.012258219717889
116.0,-13.422812461077676,-4.586442968562104,5.360629778968444,-30.39966021624514,-16.072629727133478,7.535649691762401,-0.25718099165294106,-0.15889704223161294,2.468533218603591,0.9918989894979386,0.2177414223659786,1.7199278014502983,5.275092360243173,-4.778669757684462,0.9195785771290822,2.40526743521355,0.4173313775143819,1.1192297307859778
117.0,-13.523456987376013,-4.750765090119974,3.9475433640527315,-33.42834546160012,-16.787132623699428,7.616085846928272,-0.6142697770936705,-0.2184558998185433,2.4015641712353446,0.8510724768245801,-0.15521403788761545,1.609328134965954,5.297557525870684,-4.646865199519931,0.8984483724718784,2.441665248695477,0.3963170583886608,1.1869661153019502
118.0,-13.27492589037565,-4.893464991247887,2.62222680368812,-35.84854303385438,-17.29794525895002,7.661946339961858,-0.9708873389071062,-0.2734204098852966,2.3462406558193583,0.697469772488029,-0.5203904981221887,1.5053619274679342,5.248665778333974,-4.522216631560759,0.8783434990128136,2.457746387502378,0.38198280976083443,1.221875893845971
119.0,-8.077567084587674,-7.051507528914825,-1.7122882454172998,-46.1804089493211,-18.0,6.4191371567984525,-0.027678715369869433,-2.144071566285034,3.3373331682326564,4.167920431034551,-4.322601040895566,4.454775834617065,6.009654230631516,-10.972206082526016,1.7507742468742578,3.659318672969409,1.4914599310998211,1.0941621928411185
120.0,-7.5930292532329915,-6.665677361500257,-2.6969892992337154,-46.150068403287506,-18.0,6.6305625452481465,-0.986772077164908,-1.9144197835679044,2.4348142955766807,7.105398833045175,-2.797339766768861,4.840491804288324,-2.3598175072626084,-12.92283252392313,3.206404921722383,4.523491891612944,1.2183180954408814,1.9759089994513221
121.0,-6.93418103850045,-6.298912548515822,-3.7928350031996496,-45.7595089947036,-18.0,6.785337586210341,-1.59430076306759,-1.7524238722992633,2.068290511131196,9.537960310041978,-1.3833016974829866,3.8523316334071476,-10.109599939711657,-14.51451564052791,4.451059338115089,5.056874644919159,0.9896445491804662,2.4896066097729808
122.0,-6.138310096909567,-5.981001496545748,-4.808493432075235,-45.21299134225767,-18.0,6.911106328353545,-1.9444219203632485,-1.6571889927695,2.050471819475596,11.311341558296288,-0.2442326373197823,2.3211081153689683,-16.646644172885914,-15.80350281157641,5.43718327840411,5.289854129621585,0.8079543638304245,2.7219370543705774
123.0,-5.259855176469418,-5.708053470775558,-5.687833319308977,-44.60023486267445,-18.0,7.020539433466587,-2.132230555152349,-1.6132909997669413,2.218532857120172,12.497173465440198,0.6135333978728619,0.7726110561322059,-21.86817105890843,-16.846893011877835,6.192916301275333,5.307395695736158,0.662181260342042,2.788498449246945
124.0,-4.343257499415076,-5.475080181001582,-6.419545877012828,-43.96990104943949,-18.0,7.120336917784239,-2.2243697853654463,-1.6068202741864113,2.464945078484189,13.194822037922691,1.2172241978170266,-0.5387314883576977,-25.91338094538672,-17.681292719324897,6.753077172510732,5.175729098504419,0.5433840472566271,2.763241963877435
125.0,-3.423026018968705,-5.276944564965676,-7.01147823223468,-43.349633996888244,-18.0,7.213975942974894,-2.264973754075201,-1.626162975231531,2.72374367964327,13.5040992983187,1.6075035817730607,-1.516820951343803,-28.984924408469986,-18.0,7.152928958522498,4.945488019248236,0.4443907502282056,2.6932267606496456
126.0,-2.52234325646484,-5.108601570289151,-7.483082959721014,-42.75942033678317,-18.0,7.301258772870533,-2.2818933857359958,-1.6621089575139845,2.9577775110862974,13.49530808646313,1.824984553505427,-2.183714721327478,-31.102746790355866,-18.0,7.408873817333541,4.653620957509456,0.3596837751334414,2.6066966932439852
127.0,-1.6523991147171468,-4.965835155118473,-7.863031392754534,-42.2213674671106,-18.0,7.376208774278119,-2.2927563348668856,-1.7075887150072884,3.1473075459225677,13.243938604526772,1.9077997252153702,-2.5644534609339455,-32.42543581254575,-18.0,7.547638632401219,4.326871838136809,0.2855257297913001,2.5186830282205652
128.0,-0.8230066049456921,-4.846255617189065,-8.158448204844824,-41.73581498869308,-18.0,7.439199584002857,-2.306243978044456,-1.7574937593087165,3.2864325425190493,12.828960972783094,1.8918862926826088,-2.6784564423551718,-33.23450223988883,-18.0,7.6066176423364675,3.985003116620425,0.21904688399553418,2.4376911040209084
129.0,4.43849052131262,-2.9810238002691167,-12.279260888142327,-49.0693751522982,-18.0,8.028779291675269,-1.1796993869795869,-2.3290673415418017,3.7076013841917375,13.79784433587262,4.237299699806941,-1.1746463020801325,-34.22991291820753,-18.0,7.097980752366919,3.5692212533232217,-0.3248749764527181,2.1378325182193794
130.0,5.233591252218307,-3.0107528586724586,-12.140733948247508,-47.8783982853756,-18.0,8.068990457879929,-1.283369614576638,-2.3772237028188243,3.5627871332477614,13.197848026570975,4.102060941630121,-0.7829752058794686,-34.16839494507695,-18.0,7.109183441482065,3.2092623615934786,-0.3633180580697095,2.076177241683316
131.0,5.914006937267805,-3.0589990507666824,-11.896525205687265,-47.000003250348115,-18.0,8.122520442686122,-1.357914482497368,-2.422250748780562,3.4455669914386746,12.590230626082692,3.9639997782799563,-0.3850998439910924,-34.07457752375927,-18.0,7.086823729127277,2.8734934200071676,-0.4021328339648851,2.037875198117586
132.0,6.504676539874857,-3.1135012138764577,-11.611540735149681,-46.29385431015845,-18.0,8.18279033435177,-1.4148975495680252,-2.462720980628795,3.344660721725993,11.979696412376144,3.826932822966127,0.03302247440577233,-33.925590733220844,-18.0,7.0463070708099815,2.564037053815815,-0.4422940441101093,2.021907837638285
133.0,7.0193036355057,-3.169149419188943,-11.312640143251524,-45.69911150015406,-18.0,8.246387579582262,-1.4614495406465813,-2.4978664441878653,3.252911139876736,11.374558617395282,3.6965410811518353,0.46342805285406996,-33.723451411215414,-18.0,6.997245672420755,2.2807288685925355,-0.4841052739688525,2.0242979858093717
134.0,7.46746401529546,-3.22371433826199,-11.011538305070427,-45.18691134603857,-18.0,8.31131332590159,-1.5018039940853303,-2.52740117068577,3.166462431161015,10.782731181376683,3.577841952840663,0.8925491054541439,-33.478087916067814,-18.0,6.945674181783136,2.0223965625604903,-0.5275376734874215,2.0406663355846826
135.0,7.8571547712508805,-3.276143074067125,-10.713826286290175,-44.74123548201342,-18.0,8.376320931307855,-1.538371191274482,-2.5513718867690134,3.0836441107850616,10.210516173177336,3.4744418429887522,1.3077142005905387,-33.201102853735804,-18.0,6.8953391797134715,1.7874076996471855,-0.5723904530867587,2.067081384669218
136.0,8.1959364763056,-3.326139149937524,-10.422404391418569,-44.35139551115391,-18.0,8.440655970148802,-1.5722120855224822,-2.5701769097936378,3.0043370439200796,9.660668715580192,3.387307783039163,1.698583738320389,-32.904927813537036,-18.0,6.847170007321196,1.5732932415438965,-0.618239923593376,2.099638687423154
137.0,8.49151963271472,-3.3742009363465275,-10.138777895131863,-44.009266038695806,-18.0,8.503927011106775,-1.6032712535476366,-2.5846351390043045,2.9295583805935923,9.129996074824634,3.313279799625067,2.0576376843034287,-32.602105129822114,-18.0,6.798208001233439,1.376195978577294,-0.664339646478016,2.1338662946410265
138.0,8.749971276554378,-3.4201972450996823,-9.864392360180737,-43.707913168198814,-18.0,8.565851965154922,-1.63207204828994,-2.595201333967148,2.8593230645903103,8.617997400484283,3.251037673902655,2.3860587922755974,-32.29378937218484,-18.0,6.7488773457739795,1.1944314153815583,-0.7103691883367973,2.1682768744381553
139.0,13.763613718197377,-1.986301184223784,-3.507692938500743,-43.68991745256727,-18.0,8.258451788114176,1.2616530771767276,-3.508746823350643,2.175968338893813,8.231310063019421,4.580305719382855,5.115354388510241,-32.22740011355786,-18.0,6.299679481029489,-2.747854796229511,-2.889683236094953,2.4412861281319085
140.0,13.875321975709081,-1.806221544318535,-4.045966943705813,-43.43639807803106,-18.0,8.22675925894975,0.9413004095604445,-3.4415752404371105,1.7971040490744996,7.808476634489825,4.670098330672715,5.063810359422731,-32.111862641931566,-18.0,6.242820084025416,-2.5561804000293984,-2.9262446998817264,2.836797921050473
141.0,13.950659374430582,-1.688088247306596,-4.264507427233699,-43.419193526378685,-18.0,8.241512723627975,0.7317754223871074,-3.389991372262626,1.5792153976385226,7.402561237214271,4.733828521434033,5.1239596128889096,-31.875970128950694,-18.0,6.210694330817142,-2.4604044572765926,-2.9492205242292657,3.07006002920866
142.0,14.0140489195234,-1.5993101051166487,-4.3544524681390016,-43.447155905176054,-18.0,8.276313880465219,0.5837703392619853,-3.3466588443449155,1.4528555065434696,7.023606901837054,4.790884369629294,5.2175804212910775,-31.586674745624247,-18.0,6.1945421206299365,-2.4156633900964746,-2.96413683074758,3.2086465407988314
143.0,14.0717359814938,-1.5266072684978105,-4.390415500332409,-43.46361655861289,-18.0,8.319737528283786,0.47143002255126343,-3.3079557049571866,1.3795700929056138,6.6763748972664825,4.850309489111293,5.309616493875275,-31.284735475602016,-18.0,6.189361610300869,-2.3984049108271592,-2.973808647745168,3.289785676554118
144.0,14.124665232411267,-1.464280685777596,-4.401640009283968,-43.457182289656956,-18.0,8.366587116418986,0.38084276909950454,-3.2720831927035072,1.337849987795255,6.361819698686292,4.9156622613382295,5.386055581924025,-30.993241134380188,-18.0,6.192047170453318,-2.3958394309986146,-2.979758953901236,3.3350777958053976
145.0,14.172686736985348,-1.409623005760836,-4.3997543175647476,-43.42990520850734,-18.0,8.41435582604377,0.3043008884927296,-3.238146928885514,1.3154830425778206,6.078608573577673,4.987703501560195,5.442939932765039,-30.72414569837039,-18.0,6.200498754093394,-2.400854863026362,-2.9828673308561138,3.3575895735072123
146.0,14.215734776204723,-1.361126234362915,-4.389594776147204,-43.386562765221,-18.0,8.461757530521773,0.23738251551410827,-3.205702280585162,1.3053887096290986,5.824223935140325,5.065857388435366,5.480911883273556,-30.482656548658305,-18.0,6.2131900405524,-2.4094484693903087,-2.983678516605397,3.365478337576907
147.0,14.254024744787618,-1.3177855840927037,-4.3734051593727425,-43.33147434615648,-18.0,8.508094835762666,0.17744264990101133,-3.174526622808271,1.3033453718470374,5.595661602903453,5.148989328144658,5.502516429884492,-30.27002954892529,-18.0,6.22895111673954,-2.4193718449580985,-2.9825550071739912,3.3639517321260417
148.0,14.287982050486006,-1.278831721551465,-4.352444687300271,-43.26785564311298,-18.0,8.552974095479215,0.1228210337823249,-3.1445047087618283,1.3067464612102713,5.389836232549278,5.235807138483987,5.510885119963321,-30.085304242427885,-18.0,6.246852246640067,-2.4293877306509017,-2.979755352706007,3.3563833144112545
149.0,13.571365481347835,6.845454724013411,-5.01008340535774,-45.90638580004594,-18.0,9.498786642001445,-0.20184923573003466,-2.432680295821691,0.8400880718432643,2.816231133297162,8.752189858829619,6.052120801729248,-34.100831160025436,-18.0,5.430744652893123,-2.7655073499689555,-4.471320714352177,2.945023238889023
150.0,13.686537681286882,6.509027746141962,-4.788749665685609,-45.4684492110734,-18.0,9.281195085619162,-0.03953752836755475,-2.5028235529402743,1.1469282242393057,2.6530513893558325,8.561035284267803,6.609918478437949,-33.11345769405919,-18.0,5.558090164295217,-2.8323547696624143,-4.374910430909872,2.9122710753205046
151.0,13.772031250768567,6.183628409730458,-4.429199033819063,-45.28666516236442,-18.0,9.109309737349381,0.0253494742500322,-2.554196332564967,1.2969986406637544,2.5763390584922563,8.45600028426936,6.8310071767326255,-32.53935262824416,-18.0,5.6396636971216125,-2.861276794072759,-4.286431732862121,2.901831278647107
152.0,13.858781249799309,5.8935305407933765,-4.078167802398997,-45.17783855770705,-18.0,8.964542919685377,0.0349446507253946,-2.592258067808308,1.3657585222449748,2.538099914514942,8.396299601504966,6.901224111857165,-32.17996226125014,-18.0,5.698462425809657,-2.866142216721641,-4.205359564899918,2.9073656127151892
153.0,13.955844303489144,5.639641942593034,-3.761265797244139,-45.0742587599547,-18.0,8.843071048608818,0.014052114670877858,-2.6209361924936188,1.3938184842856542,2.5170164679736846,8.361422491593753,6.905376210662173,-31.939621941428967,-18.0,5.74568766479894,-2.8572694377035335,-4.130413773590211,2.9207789843989547
154.0,14.06292065216893,5.419955591923211,-3.4863550023889798,-44.951802008833695,-18.0,8.741144660379577,-0.02332758167144694,-2.642619257551452,1.4024701902089896,2.502745777781901,8.341191976401172,6.881585062793114,-31.768800713423833,-18.0,5.786678422198028,-2.841005732384045,-4.060661332712838,2.9365874640221494
155.0,14.1749862868901,5.234178070412341,-3.2588326025857866,-44.807861325361316,-18.0,8.652772814860787,-0.0693383309679404,-2.6585944397065036,1.4025088528773568,2.4896895035161877,8.330778393311991,6.846862296406622,-31.63991227065472,-18.0,5.823906551387841,-2.821061194699512,-3.995657557205713,2.9517252554448667
156.0,14.286756437608371,5.082595549407159,-3.08640946165939,-44.650511854122115,-18.0,8.57491040717637,-0.11955063780319286,-2.669629647557003,1.3991703234360962,2.4747905113799025,8.327819222321299,6.808819140913419,-31.5371173019225,-18.0,5.858473503672993,-2.799689015617881,-3.935119084002604,2.9645038687123217
157.0,14.39491438589126,4.95873577312988,-2.9557896412683826,-44.48267659905919,-18.0,8.507118279952115,-0.17045653402331895,-2.6768853206655514,1.3960739876247978,2.4576704953737085,8.330029402161745,6.7708058066250745,-31.451578132423215,-18.0,5.890816569191264,-2.778733457599235,-3.878295157714994,2.973419082670337
158.0,14.497244949950462,4.857357347561267,-2.8566747531215877,-44.30744369232325,-18.0,8.448821419834672,-0.2201966467080681,-2.6812043451478704,1.3947191965706907,2.438346544784701,8.335860026735626,6.734373349798386,-31.377385416118344,-18.0,5.92111328084801,-2.759066505506452,-3.8245992408363305,2.9780857512994325
159.0,13.497298851214682,-2.2199614340175104,-0.35881187850809404,-50.43979900794046,-18.0,9.76035176465963,0.643188427002537,-4.998883914971877,1.5193043730337896,3.78584440803379,8.401227059778048,4.873495333033279,-25.88992558208978,-17.920757624434263,5.730319955921257,-7.074002849837329,-4.3245264666699015,4.158591289714867
160.0,14.19004309678925,-1.9266140884759078,-1.3359032744838362,-47.69944590996087,-18.0,9.70792730494882,0.3420102376281511,-4.904544131389378,1.316783209417403,3.7531594117989022,8.45440332722069,4.931979248445239,-26.619096043737486,-17.781686008532482,5.830023651199289,-6.741303760832567,-4.302917001208932,4.489411181726755
161.0,14.586264142236798,-1.7505357504268275,-1.8931763148679346,-46.15921682727001,-18.0,9.668889972062146,0.1550348002515365,-4.825730985176733,1.2260835361439646,3.718452181663403,8.51044758823464,4.887865637194597,-27.02684660170967,-17.68460172574833,5.8857839082059975,-6.523428574329863,-4.273632793045047,4.643647791778401
162.0,14.820125435068206,-1.6388026051607203,-2.214889822155761,-45.2694516545052,-18.0,9.63999832811256,0.03220243491243013,-4.756562868638261,1.19594810901792,3.6772572557199203,8.559251280812443,4.827228478773186,-27.234192402408674,-17.608095873059433,5.9187327059913,-6.371180278347561,-4.2400582707244485,4.700766248711747
163.0,14.964077507766325,-1.5609932721840467,-2.408018061531945,-44.734154883327044,-18.0,9.619062187662468,-0.05510546645127912,-4.693358142120078,1.1968007103150247,3.6297562131649714,8.599252515469244,4.779813215018524,-27.318246311955527,-17.54107529029627,5.939624997510862,-6.2563847291293575,-4.204203208898371,4.704932169557578
164.0,15.057799997673191,-1.5018422278558548,-2.5283247302111462,-44.39087529751399,-18.0,9.604919127382173,-0.12259236426895459,-4.63408278433385,1.2125997440566945,3.5779643370988987,8.631491352109132,4.752156882709631,-27.327120679425274,-17.477915752211683,5.95390356455383,-6.163145084447745,-4.167077623146186,4.680376241807984
165.0,15.12299478369493,-1.4530801001216267,-2.6070882852203714,-44.15096417560615,-18.0,9.596526791812561,-0.17888653436219193,-4.577546948165653,1.2347542643936427,3.523933507408821,8.65773358367001,4.742358593018363,-27.29016954227263,-17.415860735763022,5.964317902887185,-6.082392139588,-4.129245134147759,4.6405282122992055
166.0,15.171510366743892,-1.4103686903790158,-2.6615094567000304,-43.96585703576212,-18.0,9.592824540378393,-0.22861080413205337,-4.523071797580545,1.2588941990697728,3.469377204766431,8.679622758839484,4.746263033769418,-27.225192302856115,-17.353628639176243,5.972257092718408,-6.008970805607788,-4.091015723805935,4.592800317017128
167.0,15.209808682360645,-1.3714782149325413,-2.701133616435317,-43.809062668905945,-18.0,9.592842600800019,-0.27419364190516293,-4.470271340750621,1.2829293953141852,3.415590966812053,8.698454669133167,4.7598051453308585,-27.14299265693827,-17.290677467129008,5.978427058307017,-5.939951600512265,-4.052562078950584,4.541272463450564
168.0,15.241424703058307,-1.335218684411345,-2.7316721782436235,-43.66642439563824,-18.0,9.595848500158812,-0.3168997567946965,-4.4189175380662675,1.305938814178619,3.36348195396174,8.715184835230756,4.779722417153109,-27.050173218080204,-17.22682185884828,5.98319248044064,-5.873665781514264,-4.013988008912581,4.488186515180672
169.0,16.339002213127717,-3.485561429705742,-3.1714675804170227,-55.93209502527646,-18.0,11.407551423587087,-1.410398267555884,-4.960772792596718,1.6894175988685087,6.4469778555868515,9.406570816122652,1.8931996638998756,-19.868897759188002,-13.047409425134553,5.358065808370223,-6.315821572184639,-4.0564278288057345,3.979831976314844
170.0,17.00278410210844,-3.233911211382651,-4.28843407021742,-52.72525281575485,-18.0,11.212904407866054,-1.425562369984475,-4.902500089398288,1.803098296205826,6.190002562763991,9.314926629715778,2.036186364006075,-18.624363715737253,-13.119423739809285,5.295370993678414,-6.167410303878221,-4.028799127779566,4.124214492047434
171.0,17.354042733675737,-3.128394664063686,-4.607037471501604,-51.07570617234466,-18.0,11.149669649216682,-1.4255452086779732,-4.8487997159355505,1.8606806390789514,6.0657089305538054,9.25777679217399,2.2013742773090432,-18.021889576629636,-13.134583712119209,5.266106050544917,-6.086807207252699,-3.9944140714196394,4.147137853488338
172.0,17.55114741573144,-3.077178752162462,-4.6664022933714415,-50.1062934638065,-18.0,11.128287809886407,-1.4226737088366348,-4.796008373591919,1.8877472220066505,6.002811205071404,9.223100202809427,2.3512507069895725,-17.721226037923508,-13.120712789067937,5.251036005468706,-6.029489858803734,-3.958472937167296,4.1253760818017415
173.0,17.663378188189984,-3.0472405130872477,-4.648597646269861,-49.46684805379428,-18.0,11.116529584189289,-1.4193680050968576,-4.7433178697733815,1.8986554229835306,5.9688891840626495,9.20294049761472,2.47836192390077,-17.56117126730917,-13.091424476243782,5.241225010767383,-5.9794916942782645,-3.9227108267209454,4.0881182693256015
174.0,17.72467031522654,-3.0265614176905804,-4.611452710500502,-49.00678013007838,-18.0,11.103490022118702,-1.4157212914612276,-4.690729385314634,1.9011757080737597,5.948621083861048,9.191995884348662,2.5855260645708436,-17.46409201659922,-13.053488909855796,5.232664013654761,-5.931252206788326,-3.8876185948675746,4.046444311608332
175.0,17.753772749980143,-3.010530053525713,-4.571390412237183,-48.65395387886638,-18.0,11.08609548951637,-1.4115846922832136,-4.638398500177201,1.8993770683770375,5.93457650669245,9.186815950429551,2.677830046152562,-17.39251090058952,-13.010346519800649,5.2236723914654615,-5.882951411148724,-3.8532638752851662,4.00447079663602
176.0,17.762107366388463,-2.9971447325593723,-4.532075821502716,-48.36923690151418,-18.0,11.064039755386947,-1.4069631374715852,-4.58645790718702,1.8953316798256852,5.923136294367487,9.185232102365186,2.759812325122094,-17.328643576680918,-12.963804366202709,5.213642906192669,-5.834086943148032,-3.819587913233584,3.9636059088564535
177.0,17.75705766102134,-2.9853620605149906,-4.493810150667545,-48.128944203375184,-18.0,11.037897053883599,-1.4019807020460973,-4.534990517503592,1.8900771329067114,5.9125904899151385,9.185934941963957,2.8347765892346777,-17.264458117039755,-12.91486038650548,5.202440821173175,-5.78460578995454,-3.78650804928463,3.924198329619354
178.0,17.743512446677826,-2.9745408226374535,-4.456313481792483,-47.91764727277383,-18.0,11.008434801361506,-1.3967915801678317,-4.4840411570455885,1.884136196284464,5.902205852350997,9.188168595030046,2.9048787251994823,-17.196734508185244,-12.86410476021996,5.1901214288003175,-5.7345981107271315,-3.7539495485952754,3.886191143035897
179.0,16.598186010661806,-8.178209449786356,-1.8514411335319876,-55.986876760233436,-18.0,12.010975884259723,-3.6014401442855277,-4.659268014998606,2.157535479421304,6.170627905391981,4.993521209443334,0.08953550365810292,-9.022727344455216,-6.44834766204412,4.141689394122969,-7.789873956817027,-3.5296916869603434,4.2310657039950135
180.0,17.14527888265151,-7.797488799600071,-3.3519105803399087,-52.94737611706063,-18.0,11.73631878334245,-3.580732649542804,-4.569420544523564,2.290905631547383,5.931673485591606,5.025813656354218,-0.16064063587665345,-7.5722251632301845,-6.646030097061925,3.956901085625383,-7.545915606947865,-3.533328738343432,4.424226949823224
181.0,17.393136076215562,-7.593448946545161,-3.8629776685219475,-51.492112255397416,-18.0,11.633487892879083,-3.5353955862636,-4.491232373271768,2.371913740032798,5.82698327368483,5.046318717779357,-0.1487611007064782,-6.905079020303253,-6.730931563606058,3.8637824193435075,-7.403485810088621,-3.5253251889330786,4.455178122977108
182.0,17.50528265599533,-7.455072323451461,-4.054205021070266,-50.670622061744886,-18.0,11.5894809282383,-3.4880990212132943,-4.417421136566846,2.4169012127912817,5.781947314745513,5.069126734257997,-0.05954471335065881,-6.599214848645481,-6.760886311973529,3.81296257877493,-7.299056163822529,-3.5129334267796635,4.425056199489193
183.0,17.547028747155768,-7.344025078939394,-4.147347749821834,-50.130557638821585,-18.0,11.563209531602052,-3.443201006260369,-4.3458654980996885,2.439113222831752,5.764226593624532,5.097445518632195,0.03838359057654506,-6.4569202220458894,-6.764023148906718,3.78093965182334,-7.2092198106121685,-3.498771912269224,4.3726042519481325
184.0,16.882100926229477,-7.160719109753668,-2.7711823244670866,-53.497458212115134,-18.0,12.189569839195606,-3.33630723184228,-4.262570846830656,2.5213954179510494,5.724744969205773,5.145841873243253,0.148518859579168,-6.231466620060773,-6.755072561477905,3.751072848031625,-7.115164863985543,-3.5159023427218368,4.350852637056249
185.0,16.458890843859162,-6.949083696857935,-2.066471007783658,-55.74489553327423,-18.0,12.77345156240167,-3.256899840013129,-4.189893278093718,2.62145556481674,5.680920626244035,5.150810819220908,0.23824617733256392,-6.000822154768498,-6.734765698462779,3.722808467127166,-7.002919858048557,-3.5236244846963176,4.349881736449227
186.0,16.214958246414223,-6.791765990054229,-1.682597918241683,-57.21452757317387,-18.0,13.311203809915837,-3.1939329208827094,-4.131717460518452,2.7272958272417664,5.654674503899193,5.117582335487779,0.3032131319119693,-5.795168945111971,-6.705517971847283,3.6938813172992258,-6.892658536344758,-3.5179074858659938,4.33942196525653
187.0,15.047202786618492,-7.392596905641681,-0.5380238294991695,-62.76791194658403,-18.0,13.426885607700875,-2.888162919421254,-4.158862877398825,3.145387478710758,5.779905317475565,4.917909612558595,0.3535382399948048,-5.424589193492725,-6.670790622630393,3.651319258082254,-6.836987825601703,-3.480513061522734,4.284429772300285
188.0,14.4698427959709,-7.817656700982469,-0.008102425583625616,-66.02083061494612,-18.0,13.500421494273205,-2.7575372634782815,-4.168304940539502,3.3867308024498497,5.8357602896064495,4.706745552754167,0.38926914222246634,-5.020943503966115,-6.623692088209402,3.609443558189117,-6.720755934894475,-3.4447338404641408,4.3030758193283
189.0,11.933378939919168,-11.334719945926725,0.8728373993167592,-67.44019530995604,-18.0,14.333934911219396,-3.09563880410651,-3.5416423894738895,3.4242684895660567,5.392126550724641,2.5486418504255983,-0.8158796120998699,-1.9650500303698184,-2.6128577668946433,2.6913481722469856,-7.636661115714707,-3.7680915120753475,4.1478772011416885
190.0,12.121706215589011,-11.497293439297358,0.5495603024370168,-67.75913136071057,-18.0,14.35099560479489,-3.133601200048583,-3.5297499096361795,3.542027879798442,5.205652431018539,2.3153951703522497,-0.882101229267418,-0.3043337380161759,-2.725900099553832,2.5652557861739544,-7.376606949410921,-3.7353333214391853,4.347535951761031
191.0,12.440118888720503,-11.614151586713703,0.1042686135070548,-67.39663022484784,-18.0,14.350210772193227,-3.212441274620761,-3.511738670426449,3.583910269585779,5.102589573687898,2.1035630655264965,-0.866659406558824,0.6584650078547059,-2.760427665620429,2.490543711342859,-7.173808531831381,-3.698212432088896,4.432228423492372
192.0,12.827835855422359,-11.69841101852125,-0.3994486640200719,-66.59286807963353,-18.0,14.33590416517516,-3.3095832738399875,-3.4882789267436127,3.5794713624798367,5.047167510052527,1.9207426072130092,-0.850099487405674,1.2342403102688095,-2.753188968291912,2.439000730717288,-7.008670336365373,-3.659861758194376,4.44446893423622
193.0,13.040983785320808,-11.866067639240406,-0.7283237064859407,-66.24494563524343,-18.0,14.26528982061508,-3.3636478557686837,-3.4716508074298265,3.6052167553873526,5.0391609088270535,1.7445319090133267,-0.8521329139939717,1.6372169947491493,-2.723861647791554,2.3949846477702907,-6.877211274189349,-3.6205308209206803,4.407636004841348
194.0,13.368745303558688,-11.968038384604794,-1.1672398380657842,-65.37358825081596,-18.0,14.19261365823981,-3.4480232874538927,-3.4456224555388744,3.578488052686002,5.031069262851259,1.5978434054963504,-0.8765260199724212,1.921419729235188,-2.681084376845707,2.355574790351259,-6.752437365694835,-3.583695114225726,4.355481169141558
195.0,13.74738187920231,-12.028753802021845,-1.6480651281131602,-64.20814330443366,-18.0,14.119282677072531,-3.5401542882461428,-3.4132185621590443,3.5251206595017166,5.024566149002986,1.4774783196255403,-0.9182385465577141,2.1341835172802908,-2.6309007792334995,2.3179573363759554,-6.637927614191585,-3.5491685046611603,4.287358428116704
196.0,14.134885107890906,-12.069498495662716,-2.1226500471823084,-62.915191495024004,-18.0,14.04389481826239,-3.626692767738279,-3.3769159543535303,3.460786027533621,5.021615145172806,1.3792712111227492,-0.9708683553355552,2.304417020593146,-2.57691075178364,2.281063639441472,-6.534243348071227,-3.516470999170137,4.205834228266097
197.0,14.510663215269183,-12.09549503289396,-2.5726898646831784,-61.567994220841214,-18.0,13.968237116618731,-3.7028943422619447,-3.3374427545541714,3.3914459237557253,5.021514726651063,1.3011348540521506,-1.0287682822408681,2.450109115911623,-2.5213215313765036,2.244711625318241,-6.439502906211882,-3.485831162638594,4.1158321015179045
198.0,14.861069387377295,-12.11075396648248,-2.9857261077299992,-60.22071301137826,-18.0,13.894021951447895,-3.766394242282332,-3.29538317750215,3.320650943127681,5.024070853863297,1.241085182353775,-1.0879564260464154,2.5814438961010007,-2.465531515096043,2.2090262556122755,-6.351912385452855,-3.4573223367440544,4.021323429266487
199.0,11.94804204084421,-14.6330793640581,-6.1009300394223445,-56.513524302317414,-18.0,15.026456035661612,-3.5205381182883695,-2.9984743833268954,3.411812168981853,5.06830514387809,0.22992404709405256,-2.083718059415654,3.38977993765986,-0.35009222070320395,1.960381992954666,-6.397328549634574,-4.100478985039124,3.6969099864057444
200.0,12.209152200849733,-14.643665238341454,-6.3531712931545306,-55.43752622161671,-18.0,14.950812105364589,-3.5883692418103443,-2.9536029029099624,3.2829094692923384,4.966626329228014,0.16899946712466596,-2.029446530363372,4.297416861376257,-0.4823020681807403,1.8555571482648257,-6.293178036293377,-4.067515248865294,3.6727500597073606
201.0,12.429904331378376,-14.654007626190147,-6.559896276667209,-54.44007962037564,-18.0,14.880689411353387,-3.63165073917156,-2.9086990379376454,3.1781315510808423,4.911131163977125,0.12913985565481967,-1.9809020893965499,4.7840333007370255,-0.5161416495759275,1.8026738234927444,-6.208577853866178,-4.034357226806597,3.6169964504973438
202.0,12.613016000094174,-14.663760943909303,-6.72236992545965,-53.52622076379862,-18.0,14.816638089075102,-3.6564426537114016,-2.8633809805144788,3.09084081907098,4.883532935094095,0.10746496066922473,-1.9491242731543637,5.06086447495048,-0.517332519897929,1.7662942193028452,-6.13200827210601,-4.002007078295834,3.5500543385938412
203.0,12.758418728932526,-14.677362845178942,-6.834769677208823,-52.70721664198952,-18.0,14.757670358777961,-3.665433196143895,-2.818146689998975,3.0185010426329546,4.8738607744543305,0.09892028925944318,-1.9291268928707983,5.2260837356047265,-0.508271156863038,1.7351489428005928,-6.059119346067716,-3.9705599041285993,3.480439097625889
204.0,12.873621916490002,-14.692216072249929,-6.908616083018288,-51.96783746187535,-18.0,14.704271809256522,-3.6629668313156705,-2.7728363891086687,2.9566163520428193,4.874852294166284,0.10038484055029806,-1.915113120333979,5.328262484467169,-0.49645927374402643,1.705908379565618,-5.987455370524912,-3.940154418438768,3.4125570174490956
205.0,12.962491905681063,-14.707696681317625,-6.9508917602166145,-51.305085064239755,-18.0,14.655953351486403,-3.6516314643595145,-2.727524081829145,2.9027466233151866,4.882310852540754,0.10936624360328473,-1.9031214594450028,5.393322074843936,-0.48441485487229463,1.6776365438174463,-5.916100671168159,-3.910757585214024,3.3480607826743447
206.0,13.036691360668868,-14.730690003152098,-6.969862639850514,-50.72721567126594,-18.0,14.612387855644371,-3.625585543721236,-2.687132177570181,2.8652932230184813,4.838862860345029,0.052846315723032444,-1.6926171661695895,5.440363005511322,-0.3980737459924684,1.4992709578359669,-5.864600876101382,-3.8785274866991277,3.2680630228234766
207.0,13.089203035495778,-14.751827353120056,-6.96836470984816,-50.20670402296757,-18.0,14.573365693832857,-3.6024504534677027,-2.644168361129651,2.8210997561955224,4.801954370707033,0.01915312880047726,-1.4844942292294518,5.476473946731181,-0.3535155315122484,1.444878866340438,-5.802974596511234,-3.8485371163524444,3.2020998444733277
208.0,13.118892507786944,-14.77432837388454,-6.952113596081437,-49.75750551386251,-18.0,14.53686566303659,-3.5782108317616683,-2.600298703888736,2.7773558061749593,4.773001024635203,0.0021194154905013196,-1.3195521296755883,5.483433610300464,-0.32754729866767723,1.407247656104939,-5.73577812770277,-3.819662564386367,3.1438158489143397
209.0,7.782065024827351,-21.493637200645246,-8.960610278690648,-40.74947473329488,-18.0,15.33211368811308,-3.784997663033746,-2.2771370601477847,2.762191988376283,0.6564276814651027,-1.1085819973802833,-1.5613895186843059,4.1384313263699894,1.3094866308258473,0.6352143376995651,-5.789283037383042,-3.5391680346634438,3.0584587859545684
210.0,7.561996933984217,-21.573592711358177,-8.776343136509645,-41.35164852980725,-18.0,15.251406208302361,-3.761466493803168,-2.228419719457059,2.7116983311759313,0.7062877926887328,-1.0772564189784863,-1.3581573920423802,4.292542616799025,0.9752682252878995,0.8353320489794986,-5.670698274796834,-3.5200927798214035,3.0514352786069145
211.0,7.423657118624362,-21.63222631080384,-8.662529266626619,-41.66407716822674,-18.0,15.175182013730804,-3.7404301736487904,-2.1815605536153266,2.6755764028726654,0.756993040189162,-1.0481066591460282,-1.2738838223222764,4.185683434256012,0.8244855315166238,0.8430701899607771,-5.561278169118738,-3.4989903540387175,3.031211026897431
212.0,7.33791887570022,-21.67386638131198,-8.593568961448508,-41.79029401850616,-18.0,15.102705762964302,-3.720896219311411,-2.1353489276391118,2.648544314208186,0.794084316700832,-1.02204593929713,-1.2043695043887974,4.025930337717948,0.7500775325833391,0.8276385319261221,-5.456892786796671,-3.4778862258425365,3.0063147002780646
213.0,7.2851716382057035,-21.70320828246378,-8.553105442604258,-41.79893763854852,-18.0,15.033538707531232,-3.7024540681840246,-2.08954948677382,2.626868689220784,0.8176308334509583,-0.9976373750418539,-1.1378088133136477,3.8760601485187585,0.708036190944082,0.8095554838997692,-5.3564917048882705,-3.4571677685699687,2.9782223367394667
214.0,7.25251215154337,-21.72389642505426,-8.530033677264605,-41.73475743964191,-18.0,14.96740180772739,-3.684656778550303,-2.044159124958124,2.6083801417223134,0.8304595400604415,-0.9735587589480744,-1.0742504923575202,3.7506313620369287,0.6801549904803235,0.7914022778201888,-5.259741230861932,-3.4368818857153145,2.9471821167067844
215.0,7.231594830686849,-21.738549028033955,-8.516925411021425,-41.62659914976941,-18.0,14.904090567536258,-3.6670909050602605,-1.9992419097742233,2.5918891901618735,0.8353933063115823,-0.9489677913277316,-1.014723771415454,3.6490323119798425,0.6587885447249184,0.7735571491448062,-5.166384537942774,-3.4169937464609643,2.913462812943738
216.0,7.217102543831677,-21.749001695954767,-8.50893575472647,-41.49290579747378,-18.0,14.843428360786364,-3.649435010060576,-1.9548778528129445,2.576756364077121,0.8346558235846251,-0.9234403584763303,-0.959800804596235,3.566893326719614,0.640651387657797,0.7560999449998285,-5.07612440063529,-3.397451185010711,2.877506632515823
217.0,7.205705305480155,-21.756535991775433,-8.502997063147948,-41.3453760654638,-18.0,14.785242986653854,-3.6314717156837135,-1.9111442417699043,2.562634198464021,0.8298650023788141,-0.8968406576515787,-0.909571315976541,3.4997522595302426,0.624284730598061,0.7390528468620219,-4.988640829284604,-3.378202001405059,2.839846417862624
218.0,7.195367511139773,-21.762052285473022,-8.497242065409946,-41.191350777290694,-18.0,14.729356595547133,-3.613075652041827,-1.8681089364711312,2.5493237166546368,0.822163582579148,-0.8692089814467188,-0.8638108158137475,3.443994956632293,0.6090116933967828,0.7224181884798342,-4.903625476279321,-3.3591981732926732,2.8010128471551248
219.0,3.329488516193668,-24.630503879795672,-10.775389758303467,-35.3553133524591,-18.0,15.046955468864368,-3.816244452175557,-0.8769061542831547,2.721721241868167,-1.8043777163301842,-0.9088551017778103,-1.3542674710806233,3.2028783139922394,0.9636057996811787,-0.022271917172107192,-5.068837165144348,-2.6291536826288517,2.7149073591350166
220.0,3.1532590417089166,-24.7034959244805,-10.578933907650097,-35.88715399959435,-18.0,14.96357946902799,-3.7810407021269397,-0.8541433500301217,2.697438070821225,-1.734219041507965,-0.8922361684828717,-1.1464544461847421,2.9875243263389404,0.8746461422873444,0.19502300281191978,-4.97550360961316,-2.620983711579496,2.694210309023469
221.0,3.047459580894532,-24.751994061994278,-10.460511255446512,-36.16745238422776,-18.0,14.884655734982692,-3.755087304363394,-0.8312479407168509,2.6761051624939385,-1.6819372280298917,-0.8778270474941315,-1.048294558506492,2.7944141994976306,0.8226973416630231,0.21659403779970843,-4.8808667317325565,-2.6123090058231493,2.675784791568931
222.0,2.985205987073376,-24.783152846822237,-10.389379706698865,-36.29045737943064,-18.0,14.809657016853988,-3.7340482958737438,-0.8078770495673324,2.6573329934913192,-1.64650136949159,-0.8644999838107263,-0.9670941868403435,2.641299562862191,0.7878220833732371,0.2145678031056636,-4.7876316441197755,-2.604072047467442,2.656761577917529
223.0,2.9493985250710244,-24.802491625294774,-10.34739407113819,-36.31584956031392,-18.0,14.738230846670602,-3.7157324233568274,-0.7842166023722807,2.640414151102142,-1.623208354386442,-0.8508573377127924,-0.8934213022876816,2.5227773046900057,0.7610397560134474,0.20976560568519043,-4.697131815718096,-2.5962588852613906,2.6350777252856687
224.0,2.929183637171345,-24.81379222678427,-10.322949812146803,-36.28155996411088,-18.0,14.670116941292886,-3.6987882337346747,-0.7604704865176823,2.6249100691911194,-1.6083149246921946,-0.8361025114136282,-0.8267761536341895,2.430639526187302,0.738353545293398,0.20475096105026103,-4.6098079043272415,-2.5887731460166883,2.6101187454361514
225.0,2.917724433948951,-24.819607698122702,-10.308585897957723,-36.211689541191475,-18.0,14.605092859872055,-3.6823701450490383,-0.7368060792791558,2.6105640941936845,-1.5992234780461603,-0.8199105116321024,-0.7670442120721819,2.35795439866533,0.7179413402982042,0.19985619521364256,-4.525626688404063,-2.5815318597955006,2.5821001177705485
226.0,2.9107674755741,-24.821671388732256,-10.29956676287506,-36.12151256077975,-18.0,14.542945839670285,-3.66596904824132,-0.7133554438296263,2.5972104033354024,-1.594181493397538,-0.8022470469884997,-0.7137815069184477,2.2995890822769582,0.6989380355519809,0.19512578970110478,-4.444344326436937,-2.5744687526555214,2.55158945799094
227.0,2.905719569933445,-24.821174103988547,-10.292953223300085,-36.02065008613111,-18.0,14.483460658668461,-3.649299911395821,-0.6902220043966178,2.5847244849627957,-1.592008456703273,-0.7832385116154016,-0.666337551370167,2.2519059216160615,0.6809113209194042,0.19055973028722373,-4.365652102401574,-2.5675293327817834,2.519237611238503
228.0,2.9010524259738464,-24.818945538098127,-10.286983703681413,-35.915088591420016,-18.0,14.426416425193404,-3.63222401725687,-0.6674863927311918,2.573000277896928,-1.5919016441550664,-0.7630889208585336,-0.6239951380999547,2.2123495549824685,0.6636319686760204,0.18614833696041722,-4.289248734026666,-2.5606673834553626,2.485648820857471
229.0,-1.0662458647842188,-26.664307967503976,-10.806511287729712,-29.065351668428683,-18.0,14.70098472311279,-2.589988831752855,0.009352329208406118,2.4663556336035257,-3.3834550233417655,0.32198538223943785,-0.6921870652046375,-2.8831125208705015,0.5373381644167248,-0.4361002627546966,-4.767966396869246,-2.7100154887821075,2.417419070302131
230.0,-1.1900296137964057,-26.684899204991268,-10.75597476022693,-29.665665836700516,-18.0,14.612700068144312,-2.630839655550541,0.019855637489091027,2.3877446358460834,-3.5417991560510216,0.2501648983188618,-0.3351326139841564,-1.750213741091664,0.48709405682758244,-0.25140060543380893,-4.643069692982301,-2.699814992915098,2.4768493970968946
231.0,-1.2590468412534972,-26.7026866144638,-10.743139947189071,-30.025613194255772,-18.0,14.526375695097046,-2.6664963601094804,0.029008343784732382,2.329558644875353,-3.635794931935764,0.20416556008965975,-0.1723692829709631,-1.0348967650115455,0.4701131933768007,-0.22892958514604442,-4.534879552631329,-2.685575507018376,2.49352957804536
232.0,-1.2927531619056665,-26.7165226031196,-10.753275612327865,-30.23108074973354,-18.0,14.44203403106302,-2.696127187961582,0.037606120458741454,2.28786901678538,-3.692778272996737,0.17382591994546592,-0.08257586761449343,-0.5633797508212863,0.46336189141153633,-0.22428649279008483,-4.436994925106294,-2.6697021618815064,2.486290615727495
233.0,-1.3039483322018204,-26.726734258541708,-10.777562683634619,-30.33641438849428,-18.0,14.359788052169407,-2.7203128537377252,0.04584831727103178,2.258522690372182,-3.7264480635528896,0.1536278888046313,-0.0320178670577691,-0.24389367926825978,0.45844496024041487,-0.22079449756818847,-4.345992379127557,-2.653147386820419,2.46499588270299
234.0,-1.3012169011603882,-26.73382797074286,-10.809945609756817,-30.377110203112814,-18.0,14.27977598739815,-2.7398330580648182,0.05382384439757115,2.238137021193795,-3.7449374127740382,0.1401939641305271,-0.0047088503117582725,-0.022976024526581984,0.45275786671548884,-0.2168537527784376,-4.259906284859786,-2.6364230149297136,2.435410740624288
235.0,-1.2903032742398364,-26.738284100634182,-10.846244969976862,-30.376572280368045,-18.0,14.202116946684667,-2.755424258204556,0.06158209955787042,2.2241360452819987,-3.7533922613881447,0.13136117181412832,0.00877693034300231,0.1323849119600341,0.44578932640605035,-0.21253039247256256,-4.177547655849136,-2.6198276132258056,2.401057319442975
236.0,-1.275019564511536,-26.740525781332597,-10.883635770887745,-30.3503068681063,-18.0,14.126890265795943,-2.767721616150377,0.06914916430992313,2.2146195620929086,-3.7551675905200823,0.12570916102331875,0.01429930109563804,0.2433741150969232,0.43769506120340057,-0.20799929362957187,-4.098166950939441,-2.6035342464491262,2.3641324184454127
237.0,-1.2578604974440908,-26.740920243313624,-10.920267240755443,-30.308612421768746,-18.0,14.054129399243044,-2.777252933216951,0.07653523564888776,2.208213627931208,-3.752488990821801,0.12228673292092884,0.015520930526210064,0.32394719280419126,0.42878092986643934,-0.20338876012067983,-4.021274917402108,-2.587637545085839,2.3260187725387325
238.0,-1.2404218106968856,-26.739785605356733,-10.954981513413935,-30.258323013381414,-18.0,13.983823714302916,-2.7844501803080193,0.08373973930734846,2.2039387813793496,-3.746849459146687,0.12044481351938191,0.014705858957514417,0.38346358721504703,0.41933401480326,-0.1987822655032701,-3.9465419316037,-2.5721823833244826,2.2875874853066476
239.0,-3.261350456642143,-26.634410029506466,-11.140105787065153,-26.520678992328516,-18.0,14.135398916715957,-1.4341133328935918,0.4076771505795682,1.939361163347971,-4.279736886097608,1.7177710038067726,0.8263769696866657,-3.750252993985432,-0.07040942872308309,-0.7019172035911085,-4.1676375288493555,-2.795218915281528,2.147640191198703
240.0,-3.310415318473482,-26.654335360355624,-11.148851735075949,-26.912365168223552,-18.0,14.045137795187145,-1.5022844169913911,0.40730567743289103,1.8684864964720782,-4.413622484310281,1.6520837378017093,0.9784032812224697,-2.785759562055822,-0.028712386628238856,-0.556846735310706,-4.062270965762718,-2.7738404610157548,2.17814792701513
241.0,-3.3277036565887186,-26.67333423553049,-11.178613905567547,-27.149024108982616,-18.0,13.956136198108567,-1.5589557653477155,0.4055457968026862,1.8220383419869814,-4.495214545208745,1.603030578860052,1.0039350353383014,-2.106711382267804,-0.002396462956875206,-0.5313550456107629,-3.969518788622068,-2.7500596890203233,2.178550012291842
242.0,-3.3249366248030823,-26.69022987642257,-11.220026659664487,-27.286468653652783,-18.0,13.86868048319948,-1.6061804926707188,0.40314749728512644,1.7930657647755515,-4.5434978328050075,1.563937170952848,0.9879048912749628,-1.620343171295481,0.014561856515811794,-0.5191633179431621,-3.8851010682417053,-2.7255011973985526,2.1618040382180927
243.0,-3.3096942378785417,-26.704830405124017,-11.267858727868699,-27.35958242315727,-18.0,13.783043141168449,-1.646046819987458,0.400396160072619,1.7761544458299685,-4.569327929895841,1.5310719205672967,0.9531207441248363,-1.2673497529848854,0.025428014536714352,-0.5080673791197164,-3.806407263490911,-2.7008477992342312,2.135249557490651
244.0,-3.2231502851927782,-26.592180260277672,-12.16597281499341,-26.576660430095394,-18.0,13.447103322461324,-1.698491500838232,0.40728285018116783,1.74045573150998,-4.597946253296062,1.521055538964345,0.9109558371076215,-1.01086250891874,0.03285787436092141,-0.4955585799106258,-3.7280375740525904,-2.6831086377012534,2.10895343325922
245.0,-3.26292535177085,-26.634239717049475,-11.866108837711081,-26.943004079097783,-18.0,13.407769844419295,-1.7135881564366402,0.4042722271359317,1.7339009592103514,-4.587869017651597,1.504494954990061,0.8686118857684019,-0.8482031224612028,0.037389404271894355,-0.484958327175856,-3.6733639830302485,-2.659142388846103,2.053727994641549
246.0,-3.2636127339502847,-26.65526629556375,-11.70459078220038,-27.123395317252637,-18.0,13.369510449345519,-1.731656543051397,0.40175151642167495,1.733991728750894,-4.579037313151273,1.4854389856601506,0.8286720007933669,-0.7073017892979419,0.03914895459594554,-0.4742507738404881,-3.6095732224607846,-2.6363086633412327,2.014658327736182
247.0,-3.2473317203394343,-26.66604208468606,-11.621807622782445,-27.210294054878524,-18.0,13.330809899583208,-1.7496197721246531,0.39916630127776587,1.7388624941027149,-4.568276707305859,1.4647255413674531,0.7912256636567172,-0.5904246558370936,0.039627943764839066,-0.4636913612580573,-3.5431434619058004,-2.614194743860937,1.9818265227003322
248.0,-3.2250401211245996,-26.672224458547426,-11.583502334482077,-27.251732732890677,-18.0,13.290922947922908,-1.766360873480627,0.39629910140423974,1.7468067328983787,-4.554739353720384,1.4427817013107005,0.7566534358575608,-0.49471761857590435,0.039393716001244264,-0.45333543005787336,-3.4768953228101287,-2.592633611292522,1.9511326179771449
249.0,-4.3101285625641355,-26.422476219979014,-11.855330090084266,-24.808012992856295,-18.0,13.198499686891491,-0.5939445742592271,0.7049248332855115,1.9141388847951188,-4.226371579797794,2.3259525991133123,1.2068974324524429,-3.611937883759932,-0.7779576286705664,-0.4846288491505776,-3.8805185008792957,-2.601052984466179,1.783250377517215
250.0,-4.329634023841988,-26.42533455951532,-11.840152745756654,-25.105308377268102,-18.0,13.144781906145678,-0.7165478780061134,0.7028016501942372,1.764981065243828,-4.3482417060074265,2.2654396815837536,1.2640524341049437,-2.841917299259852,-0.6478238435490037,-0.4706748685670537,-3.76518253838885,-2.5832261913027006,1.8496580257124804
251.0,-4.332657626521257,-26.43219413948376,-11.843635768453577,-25.306815468323688,-18.0,13.088555878649196,-0.8049370560196459,0.6974809061130226,1.676546157111479,-4.429451177882884,2.21405691839471,1.2734210192952093,-2.237846151190009,-0.5776793684145413,-0.4625528626411056,-3.669493662729364,-2.5632943990348003,1.8767491885119505
252.0,-4.3249936265516595,-26.44163622976333,-11.858814004368957,-25.445115716257668,-18.0,13.030368656814456,-0.8713587815865578,0.6901350942808319,1.625954659931203,-4.479991671079155,2.1690452478832976,1.2543547680169236,-1.7814001080497652,-0.5352284558710174,-0.45417656998448847,-3.5867901883913795,-2.542173603670417,1.8791960340104916
253.0,-4.310278120454441,-26.45241347224374,-11.88144453885757,-25.54065102181137,-18.0,12.97075238264475,-0.9235050670539134,0.6815396400991907,1.5989507511835357,-4.508437606522206,2.128200588998057,1.2191429139427672,-1.4406213524990399,-0.5064489610180595,-0.4452442845224456,-3.5125863812409523,-2.5205309230192876,1.8668720343965268
254.0,-4.290940175760117,-26.46358349046855,-11.908736143204457,-25.60681631545286,-18.0,12.910204961842426,-0.9662171776760544,0.6722103128217143,1.586595740276416,-4.521365235034346,2.0899655957800753,1.1759977030075366,-1.1858707256765753,-0.48496421813926216,-0.4360020242282522,-3.4440285535021475,-2.4988306689923423,1.8460937497547323
255.0,-4.268668253097275,-26.474493201586107,-11.938761008437693,-25.652677734222138,-18.0,12.849178145672171,-1.0025537477001558,0.6624891721480578,1.583261604714131,-4.523555687203006,2.0533223443427544,1.1301919564425118,-0.9937337476060915,-0.46769728445650727,-0.4266617981131491,-3.3793611147918714,-2.4773827639825154,1.8207665046677608
256.0,-4.244662778588838,-26.484719189276095,-11.970145338822583,-25.684525727449174,-18.0,12.78807198149499,-1.0344550459103672,0.6526018251046429,1.5853999657735915,-4.518395592503111,2.0176453840671553,1.084930232032666,-0.8468688306222436,-0.4530576888895772,-0.4173640079501647,-3.317525878282823,-2.456386483182072,1.7932429370240155
257.0,-4.219785775255176,-26.494007105864892,-12.001891682577797,-25.706808994705185,-18.0,12.727233597697929,-1.0631576157130822,0.6426955619786646,1.5907772166806193,-4.508254545671218,1.982573795707791,1.0420240420750948,-0.7327932823403573,-0.4401629654520292,-0.40819549446807857,-3.2578918959923078,-2.4359644067632136,1.7649076683332336
258.0,-4.194656578641406,-26.50222237056531,-12.03326949854513,-25.722719975875762,-18.0,12.66695871356648,-1.0894543730309854,0.6328647107889563,1.5979942971296364,-4.494782369008586,1.9479152620206615,1.002381165349968,-0.6426234426382278,-0.4284907110781414,-0.399207200732725,-3.2000833403849374,-2.416186873516445,1.7365553729444412
259.0,-4.665814102980468,-25.633220322396046,-11.449983339153782,-22.53479165736355,-18.0,12.216161949126304,0.5647284921167224,0.7182965010994314,1.5763579381003339,-3.9401143909390934,2.291876314353682,1.2101242375742016,-6.873072437264749,-1.407093877664399,-0.28681800970080307,-3.673042203871691,-2.774712269811678,1.5959339692030678
260.0,-4.698246866488394,-25.601055298990154,-11.51210991506479,-22.911743381555283,-18.0,12.14968069415792,0.407664888604478,0.7201883442200422,1.4032859790523164,-4.2022648171618,2.1966900609155044,1.3702392249010482,-5.278910735617649,-1.267739466802034,-0.31511908158074775,-3.554077361660365,-2.7592583506421358,1.6909957315178685
261.0,-4.714959479906794,-25.581927938053518,-11.56921406013239,-23.18455932350794,-18.0,12.083400886724963,0.28883079668223344,0.7183512183342042,1.2960309418775111,-4.374890921177762,2.1282007549996833,1.4332973304028358,-4.136862033209896,-1.1765600672826126,-0.3174662683844624,-3.4604085926044403,-2.739672846320498,1.7281030811403335
262.0,-4.719169432541252,-25.571063787320746,-11.623424347176435,-23.381536203559563,-18.0,12.017817020955293,0.19589507816866014,0.7138928924558564,1.2324368505593273,-4.485471447748295,2.076234905183875,1.4324850053962812,-3.318755367546375,-1.111602479304862,-0.3145287365899583,-3.3818233154171606,-2.7175616057967504,1.731735312009766
263.0,-4.714011657793494,-25.565226998990124,-11.675238191539274,-23.524023451016912,-18.0,11.953353905367534,0.1207306548854008,0.707632837723339,1.197720360580239,-4.55352246541913,2.0340961150945103,1.3950752589456652,-2.728628313660929,-1.0619032313122048,-0.30966721415026416,-3.3122815688842424,-2.694070803517041,1.7167841894457077
264.0,-4.702227251717523,-25.56231895325488,-11.724515706512532,-23.62797233844058,-18.0,11.890364867972519,0.05792148404545383,0.7001471625086269,1.181981624816339,-4.5924779709140005,1.9975379942890736,1.3389955577539328,-2.298118293206784,-1.0216378831067887,-0.30385796682700505,-3.248292205456984,-2.6699651575531718,1.6920686272270602
265.0,-4.672766441594117,-25.546711546940667,-11.88465756014699,-23.5856575093097,-18.0,11.79573389602295,0.0008392235175704865,0.6929999750149334,1.1744037970168983,-4.613565864145541,1.9661981606283692,1.275230016988047,-1.9815432923963314,-0.9873715324677553,-0.2974402086492313,-3.1874512764319416,-2.6463361057490333,1.663109103250773
266.0,-4.655348954703686,-25.545282854778193,-11.930684535801868,-23.633044669694268,-18.0,11.725782202211082,-0.04645115709691083,0.6846251011007977,1.176446604064202,-4.618292855117104,1.9362808437870571,1.2109035554861265,-1.747347934696844,-0.9573196905127848,-0.2909693482628467,-3.1316319341863137,-2.6223794754546894,1.629197358396748
267.0,-4.637626541964559,-25.547312946344693,-11.945344187149956,-23.690652177858265,-18.0,11.666852003341411,-0.08857681383337246,0.6756996656848838,1.1844613155969856,-4.613630166596612,1.906431437794938,1.1496515055781276,-1.567553186574603,-0.9303373276581448,-0.2845322709339221,-3.077179353897498,-2.5986956455871466,1.5961016607321556
268.0,-4.617727108885863,-25.549852475873966,-11.953528980316914,-23.740259839114316,-18.0,11.613635367285209,-0.1273513387978169,0.6664654610162623,1.196229736323589,-4.602896808975948,1.8761156544559527,1.0931275523745918,-1.4261511124359298,-0.9055594718244819,-0.2782033563772773,-3.0234244815163267,-2.5754871643670905,1.5649228437590672
269.0,-4.620021046922749,-22.54564337403185,-11.000405848598934,-20.997255463545482,-15.268788698911134,10.598953260873806,1.9991577115502281,0.7568680070961986,1.0580649551597843,-3.0208468510283977,2.3919404363498593,0.668639753318073,-10.352691334095962,-2.3249182895590437,-0.031874371044465846,-3.594844326376448,-3.005841414410088,1.4094675774371805
270.0,-4.479988550427027,-22.49263335748035,-11.22087859226669,-20.548451768362728,-15.319380989987096,10.505968196691933,1.8203386818454992,0.7535795703994785,0.8846368740761859,-3.443078261523204,2.222385328754216,1.0469379205673706,-7.885835732902798,-2.111846358032703,-0.09579842820367165,-3.4863145534619155,-2.983703074458988,1.524794947643576
271.0,-4.451746501484312,-22.496335795989346,-11.087814289224143,-20.63980361025225,-15.296442497766623,10.489589523579367,1.688302353147491,0.7468174102366867,0.773263661618647,-3.709316387616227,2.1107031185657705,1.2384105410038098,-6.158914786452964,-1.9696039572544242,-0.11075283366506397,-3.4078409464446286,-2.9565009547482077,1.5617315188752712
272.0,-4.4535649764843095,-22.4984580341221,-11.013625764653325,-20.74593877586541,-15.275800521383786,10.465866661723387,1.567264994150487,0.7412365185617132,0.6915201245479157,-3.6205900090070373,2.063363875621696,1.8817264506421776,-6.124951592567928,-2.5053896557759883,0.10549633768519051,-3.3026442829706415,-2.9290115468069695,1.5977577315462446
273.0,-4.464762249902931,-22.491109012856565,-10.982531460785584,-20.845458212673638,-15.256863690520234,10.439160577819075,1.4608605240576553,0.7379626825128636,0.6422349799555531,-3.434370379813875,2.108966583024392,2.177248443372849,-6.715509817974787,-2.9072133168107155,0.3185464569256856,-3.1947406650145718,-2.904637172312746,1.6224716701793198
274.0,-4.473013992318531,-22.475008829596,-10.981361223157382,-20.92179458811124,-15.23933442085239,10.40960270171392,1.371388329832588,0.7346493227881724,0.6251341535589996,-3.218470134827183,2.203094681059996,2.246158477740043,-7.537316864715558,-3.2255012618901553,0.5090999758596576,-3.090896152892033,-2.882905436174232,1.6404002601340464
275.0,-4.472764845581211,-22.452458855731354,-10.998775886648236,-20.973590608445473,-15.222804960772867,10.37743623149863,1.2977613715557879,0.7297844818504964,0.6345919111441827,-3.0114753152876896,2.314316557357061,2.1838505552424183,-8.400639971369163,-3.484669512430934,0.6709718478508226,-2.996825095669756,-2.862907890898086,1.651382429245462
276.0,-4.462222518126882,-22.42577087496636,-11.026330586362269,-21.005134674153865,-15.206888601797765,10.342945512505331,1.2372542462040634,0.7226093453834634,0.6632397998435304,-2.8344244110815136,2.4221437120462674,2.059121001063853,-9.215919703562786,-3.697306408910276,0.8035460270409539,-2.9156735308802393,-2.843828175856599,1.6550303285240013
277.0,-4.44185526905337,-22.396650214766215,-11.058272406127791,-21.021926634054857,-15.1912790921884,10.306397820459626,1.1864861195468577,0.71300360958348,0.7037371346004107,-2.6961635664844654,2.515422557551526,1.9188552348787826,-9.940719654412723,-3.87166453929994,0.9096758541406791,-2.847839361364377,-2.8251654127211507,1.652170309997744
278.0,-4.4132318213367885,-22.366265607052476,-11.090881248755638,-21.0290768539089,-15.175751421161086,10.268047965541529,1.1422677177348528,0.7012122902676196,0.7499358798979069,-2.598226511531596,2.5894754300427985,1.791130750820469,-10.558826397859372,-4.0139541613481216,0.9934593213419755,-2.792133752127807,-2.8066575359590673,1.6441991035328627
279.0,-3.407216345580368,-17.987760828255116,-9.033760594512238,-19.769451460869778,-12.690036578248348,8.822574852155268,3.4564848303910938,0.5787720208877425,0.9234168341663791,0.560772222350041,3.2450575430905877,1.146063921195954,-20.3935312439652,-5.886456844123847,1.1874012506015132,-3.650744808782658,-2.730309529191932,1.5743769320595082
280.0,-3.2059669099566,-17.849743112299077,-9.233793058199026,-19.237121709921585,-12.688404587015103,8.810810137472473,3.2140700511378073,0.5825509928197463,0.7016399454605877,0.14432529045436882,3.146921139325489,1.7217759094578184,-18.800116160547823,-6.0255851989320535,1.353318549095289,-3.5240738873141426,-2.730398972920196,1.7528227055421657
281.0,-3.086832117916006,-17.754567938311716,-9.346886257152251,-18.971233645336525,-12.682646460125339,8.792537186774632,3.030812412859378,0.5812015427595776,0.5626491337546402,-0.11953186592996756,3.120414202027924,1.9783300140164508,-17.960713219489687,-6.150056940064059,1.4707885411437478,-3.4382135049796574,-2.723900152810227,1.8349498325045066
282.0,-3.0111411155058567,-17.684471463572653,-9.41152449992267,-18.84885305335455,-12.674023063143295,8.76893291884359,2.889926720504019,0.5755268233241743,0.4841192004948487,-0.30072719970674466,3.125983835363224,2.084472550068555,-17.53714176079042,-6.257258478373602,1.5582168873946745,-3.376381109132196,-2.7133472813367345,1.8654686183914742
283.0,-2.9578719337079438,-17.62910406847887,-9.4494655787332,-18.80187967917504,-12.663327212929717,8.740915474463767,2.7780090181180057,0.5665251465827332,0.44679758201181574,-0.4385084749515804,3.143755413906887,2.125095735451037,-17.33673788973085,-6.347711583080618,1.6262219815748982,-3.328774325893031,-2.7002914853432003,1.8688904864086413
284.0,-2.9157630582205125,-17.58249842438111,-9.472580054313372,-18.79295029142732,-12.65104564913856,8.709302691331901,2.6852931370540523,0.5550957309434815,0.4361074293386735,-0.5545130120120094,3.1642029779297047,2.1417787013917495,-17.250304053238615,-6.4233111955346835,1.6811474987039197,-3.2896640511895754,-2.6856801406340916,1.8584868625068762
285.0,-2.878972063795401,-17.541191373818023,-9.487245521508349,-18.801777483907173,-12.637502404249599,8.674828124464245,2.6050478569629467,0.5419632871030873,0.4417897000379849,-0.6602564688294112,3.1831995079189586,2.1539327288050005,-17.216801398003835,-6.486427410241451,1.726970575998965,-3.25566697586508,-2.6700997749093673,1.8413488448660456
286.0,-2.8446635513912155,-17.503134710407256,-9.49683132330455,-18.81752143267675,-12.622936829042798,8.638144037559059,2.5327937004243206,0.5276899811032828,0.45695668471284634,-0.7612943088241437,3.199483513350461,2.1699223922351076,-17.20288885546249,-6.539637821801394,1.7664645867743736,-3.2246970657662395,-2.6539303792011086,1.8212533261755448
287.0,-2.811614897131034,-17.46710136247377,-9.503077608475976,-18.834576884957045,-12.607541668215084,8.599826889157104,2.4656580922013287,0.5126919441137885,0.4771926815444876,-0.8598884533834736,3.2131711104776572,2.1924400416069134,-17.191732767292848,-6.585346221018299,1.8015984215628595,-3.1954629210768983,-2.637420286470764,1.8001433966552949
